; #disp params :
; Printmode:0
; Layer:204
; Xmin:102.853 mm
; Xmax:117.018 mm
; XDimension:14.165 mm
; Ymin:82.35 mm
; Ymax:143.544 mm
; YDimension:61.194 mm
; Zmax:61.2 mm
; E0diam:0.4 mm
; E0len:1.51697 m
; E0temp:240 C
; Bedtemp:240 C
; Time:16.0388 min
; #params end
; GCode generated by CraftWare

G28 X0 Y0
G28 Z0


M104 S240 ;set head temp (no wait)
M190 S70 ;set bed temp (wait)
M109 S240 ;set head temp (wait)

; ------------------------------------
; Raft Layer #0
; ------------------------------------
M109 S247 ;set temp override (wait)
M106 S0 ;turn off fan
G21 ; mm
G90 ; abs
G92 E0 ;reset extr
G0 F600 Z0.300
;segType:Skirt
G0 F3000 E-2.00000
G0 F600 Z2.300
G0 X105.686 Y141.161 F5400
G0 F600 Z0.300
G0 F3000 E1.00000
G1 X103.626 Y139.101 E1.14536 F1200
G1 X103.626 Y136.011 E1.29954
G1 X103.819 Y135.688 E1.31829
G1 X106.395 Y133.113 E1.49999
G1 X106.587 Y132.792 E1.51870
G1 X106.587 Y129.701 E1.67288
G1 X106.781 Y129.379 E1.69163
G1 X107.811 Y128.349 E1.76431
G1 X111.931 Y128.349 E1.96988
G1 X112.254 Y128.542 E1.98863
G1 X113.284 Y129.572 E2.06131
G1 X113.284 Y132.920 E2.22834
G1 X116.245 Y135.882 E2.43729
G1 X116.245 Y138.972 E2.59147
G1 X116.052 Y139.294 E2.61022
G1 X112.575 Y142.771 E2.85552
G1 X107.425 Y142.771 E3.11248
G1 X107.103 Y142.578 E3.13123
G1 X105.686 Y141.161 E3.23117
G0 X107.940 Y127.834 F5400
G1 X107.618 Y127.641 E3.24991 F1200
G1 X106.587 Y126.611 E3.32259
G1 X106.587 Y104.463 E4.42754
G1 X106.781 Y104.141 E4.44629
G1 X107.811 Y103.111 E4.51897
G1 X111.931 Y103.111 E4.72455
G1 X112.254 Y103.304 E4.74329
G1 X113.284 Y104.334 E4.81597
G1 X113.284 Y126.482 E5.92092
G1 X113.090 Y126.804 E5.93967
G1 X112.060 Y127.834 E6.01235
G1 X107.940 Y127.834 E6.21792
G0 X107.618 Y128.027 F5400
G1 X106.201 Y126.611 E6.31786 F1200
G1 X106.201 Y104.463 E7.42281
G1 X106.395 Y104.141 E7.44156
G1 X107.811 Y102.725 E7.54150
G1 X111.931 Y102.725 E7.74707
G1 X112.254 Y102.918 E7.76582
G1 X113.670 Y104.334 E7.86575
G1 X113.670 Y126.482 E8.97070
G1 X113.477 Y126.804 E8.98945
G1 X112.447 Y127.834 E9.06213
G1 X112.254 Y128.156 E9.08084
G1 X113.670 Y129.572 E9.18078
G1 X113.670 Y132.920 E9.34780
G1 X116.632 Y135.882 E9.55676
G1 X116.632 Y138.972 E9.71094
G1 X116.438 Y139.294 E9.72969
G1 X112.575 Y143.157 E10.00224
G1 X107.425 Y143.157 E10.25921
G1 X107.103 Y142.964 E10.27795
G1 X103.240 Y139.101 E10.55051
G1 X103.240 Y136.011 E10.70469
G1 X103.433 Y135.688 E10.72343
G1 X106.008 Y133.113 E10.90513
G1 X106.201 Y132.792 E10.92385
G1 X106.201 Y129.701 E11.07803
G1 X106.395 Y129.379 E11.09677
G1 X107.425 Y128.349 E11.16945
G1 X107.618 Y128.027 E11.18817
G0 X105.944 Y129.444 F5400
G1 X107.231 Y128.156 E11.27902 F1200
G1 X107.038 Y127.834 E11.29773
G1 X106.008 Y126.804 E11.37041
G1 X105.815 Y126.482 E11.38916
G1 X105.815 Y104.334 E12.49411
G1 X106.587 Y103.562 E12.54862
G0 X106.716 Y103.433 F5400
G1 X107.811 Y102.338 E12.62586 F1200
G1 X111.931 Y102.338 E12.83143
G1 X112.254 Y102.532 E12.85018
G1 X114.056 Y104.334 E12.97737
G1 X114.056 Y126.482 E14.08232
G1 X113.863 Y126.804 E14.10107
G1 X112.833 Y127.834 E14.17375
G1 X112.640 Y128.156 E14.19246
G1 X113.928 Y129.444 E14.28331
G0 X113.992 Y129.508 F5400
G1 X114.056 Y129.959 E14.30604 F1200
G1 X114.056 Y132.534 E14.43452
G1 X114.121 Y132.984 E14.45722
G1 X116.953 Y135.817 E14.65709
G1 X117.018 Y136.268 E14.67982
G1 X117.018 Y139.101 E14.82115
G1 X112.640 Y143.479 E15.13004
G1 X112.189 Y143.544 E15.15277
G1 X107.553 Y143.544 E15.38404
G1 X107.231 Y143.479 E15.40043
G1 X102.853 Y139.101 E15.70933
G1 X102.853 Y136.011 E15.86351
G1 X103.047 Y135.688 E15.88225
G1 X105.622 Y133.113 E16.06396
G1 X105.815 Y132.792 E16.08267
G1 X105.815 Y129.701 E16.23685
G1 X105.880 Y129.508 E16.24702
G0 X105.429 Y129.701 F5400
G1 X105.622 Y129.379 E16.26577 F1200
G1 X106.652 Y128.349 E16.33845
G1 X106.845 Y128.027 E16.35716
G1 X105.429 Y126.611 E16.45710
G1 X105.429 Y104.463 E17.56205
G1 X105.535 Y104.286 E17.57233
;segType:Raft
G0 F3000 E15.57233
G0 X107.489 Y112.189 F5400
G0 F3000 E18.57233
G1 X107.618 Y111.803 E18.59264 F1200
G1 X107.489 Y111.674 E18.60173
G1 X107.489 Y108.584 E18.75591
G1 X107.618 Y108.197 E18.77622
G1 X107.489 Y108.069 E18.78531
G1 X107.489 Y104.978 E18.93949
G1 X107.682 Y104.656 E18.95823
G1 X108.326 Y104.012 E19.00366
G1 X111.416 Y104.012 E19.15784
G1 X111.739 Y104.206 E19.17658
G1 X112.382 Y104.849 E19.22201
G1 X112.382 Y107.940 E19.37619
G1 X112.254 Y108.326 E19.39650
G1 X112.382 Y108.455 E19.40559
G1 X112.382 Y111.545 E19.55977
G1 X112.254 Y111.931 E19.58008
G1 X112.382 Y112.060 E19.58917
G1 X112.382 Y115.151 E19.74334
G1 X112.254 Y115.537 E19.76366
G1 X112.382 Y115.666 E19.77274
G1 X112.382 Y118.756 E19.92692
G1 X112.254 Y119.142 E19.94724
G1 X112.382 Y119.271 E19.95632
G1 X112.382 Y122.361 E20.11050
G1 X112.254 Y122.748 E20.13082
G1 X112.382 Y122.877 E20.13990
G1 X112.382 Y125.967 E20.29408
G1 X112.189 Y126.289 E20.31283
G1 X111.545 Y126.933 E20.35825
G1 X108.455 Y126.933 E20.51243
G1 X108.133 Y126.740 E20.53118
G1 X107.489 Y126.096 E20.57660
G1 X107.489 Y123.005 E20.73078
G1 X107.618 Y122.619 E20.75110
G1 X107.489 Y122.490 E20.76018
G1 X107.489 Y119.400 E20.91436
G1 X107.618 Y119.014 E20.93468
G1 X107.489 Y118.885 E20.94376
G1 X107.489 Y115.794 E21.09794
G1 X107.618 Y115.408 E21.11825
G1 X107.489 Y115.279 E21.12734
G1 X107.489 Y112.189 E21.28152
G0 X108.326 Y129.250 F5400
G1 X111.416 Y129.250 E21.43570 F1200
G1 X111.739 Y129.444 E21.45444
G1 X112.382 Y130.087 E21.49987
G1 X112.382 Y133.178 E21.65405
G1 X112.254 Y133.564 E21.67437
G1 X112.382 Y133.693 E21.68345
G1 X112.382 Y136.783 E21.83763
G1 X112.189 Y137.105 E21.85637
G1 X111.996 Y136.783 E21.87512
G1 X111.738 Y136.526 E21.89329
G1 X111.416 Y136.333 E21.91201
G1 X108.326 Y136.333 E22.06618
G1 X107.811 Y136.848 E22.10253
G1 X107.682 Y137.105 E22.11689
G1 X107.489 Y136.912 E22.13053
G1 X107.489 Y133.822 E22.28471
G1 X107.618 Y133.435 E22.30503
G1 X107.489 Y133.307 E22.31411
G1 X107.489 Y130.216 E22.46829
G1 X107.682 Y129.894 E22.48704
G1 X108.326 Y129.250 E22.53247
G0 X108.207 Y136.011 F5400
G1 X108.207 Y130.087 E22.82798 F1200
G1 X108.607 Y129.701 E22.85572
G1 X108.607 Y136.011 E23.17050
G1 X109.007 Y136.011 E23.19046
G1 X109.007 Y129.701 E23.50524
G1 X109.407 Y129.701 E23.52520
G1 X109.407 Y136.011 E23.83998
G1 X109.807 Y136.011 E23.85994
G1 X109.807 Y129.701 E24.17472
G1 X110.207 Y129.701 E24.19468
G1 X110.207 Y136.011 E24.50946
G1 X110.607 Y136.011 E24.52942
G1 X110.607 Y129.701 E24.84420
G1 X111.007 Y129.701 E24.86416
G1 X111.007 Y136.011 E25.17894
G1 X111.407 Y136.011 E25.19890
G1 X111.407 Y129.830 E25.50726
G1 X111.807 Y130.216 E25.53500
G1 X111.807 Y136.011 E25.82408
G0 X111.807 Y104.978 F5400
G1 X111.807 Y126.096 E26.87764 F1200
G1 X111.407 Y126.482 E26.90539
G1 X111.407 Y104.592 E27.99749
G1 X111.007 Y104.463 E28.01845
G1 X111.007 Y126.611 E29.12340
G1 X110.607 Y126.611 E29.14336
G1 X110.607 Y104.463 E30.24831
G1 X110.207 Y104.463 E30.26827
G1 X110.207 Y126.611 E31.37322
G1 X109.807 Y126.611 E31.39318
G1 X109.807 Y104.463 E32.49813
G1 X109.407 Y104.463 E32.51808
G1 X109.407 Y126.611 E33.62303
G1 X109.007 Y126.611 E33.64299
G1 X109.007 Y104.463 E34.74794
G1 X108.607 Y104.463 E34.76789
G1 X108.607 Y126.611 E35.87284
G1 X108.207 Y126.224 E35.90059
G1 X108.207 Y104.849 E36.96699
M104 S240 ;set temp back (don't wait)


; ------------------------------------
; Layer #0
; ------------------------------------
G21 ; mm
G90 ; abs
G92 E0 ;reset extr
G0 F600 Z0.300
;segType:Perimeter
G0 X108.798 Y137.324 F5400
G1 X111.262 Y137.324 E0.12288 F1079
G1 X111.262 Y137.643 E0.13881
G1 X108.738 Y137.643 E0.26469
G1 X108.738 Y137.384 E0.27762
G0 X108.798 Y137.324 F5400
G0 X110.398 Y137.324
; ------------------------------------
; Layer #1
; ------------------------------------
M106 S127 ;set fan speed
G92 E0 ;reset extr
G0 F3000 E-2.00000
G0 F600 Z0.600
G0 X110.900 Y107.300 F7200
G0 F3000 E1.00000
;segType:Support
G1 X109.100 Y107.300 E1.05837 F1200
G1 X109.100 Y105.500 E1.11674
G1 X110.900 Y105.500 E1.17512
G0 X109.100 Y112.700 F7200
G1 X110.900 Y112.700 E1.23349 F1200
G1 X110.900 Y114.500 E1.29186
G1 X109.100 Y114.500 E1.35023
G0 X110.900 Y118.100 F7200
G1 X109.100 Y118.100 E1.40860 F1200
G0 X109.100 Y121.700 F7200
G1 X110.900 Y121.700 E1.46697 F1200
G0 X110.900 Y130.700 F7200
G1 X109.100 Y130.700 E1.52534 F1200
G0 X109.100 Y134.300 F7200
G1 X110.900 Y134.300 E1.58372 F1200
G0 F3000 E-0.41628
G0 X110.499 Y137.324 F7200
G0 F3000 E2.58372
;segType:Perimeter
G1 X112.305 Y137.324 E2.67385 F719
G1 X112.305 Y137.643 E2.68978
G1 X110.439 Y137.643 E2.78291
G1 X110.439 Y137.384 E2.79584
G0 X110.499 Y137.324 F7200
G0 X112.099 Y137.324
G0 F3000 E0.79584
G0 X110.439 Y137.363 F7200
G0 X109.561 Y137.384
G0 F3000 E3.79584
G1 X109.561 Y137.643 E3.80877 F719
G1 X107.695 Y137.643 E3.90190
G1 X107.695 Y137.324 E3.91783
G1 X109.501 Y137.324 E4.00796
G0 X109.561 Y137.384 F7200
G0 X109.561 Y137.643
G0 X108.221 Y137.643
G0 F3000 E2.00796
G0 X108.403 Y137.324 F7200
G0 X109.561 Y137.324
G0 X109.100 Y136.100
G0 F3000 E5.00796
;segType:Support
G1 X110.900 Y136.100 E5.06634 F1200
G0 X110.900 Y132.500 F7200
G1 X109.100 Y132.500 E5.12471 F1200
G0 X109.100 Y125.300 F7200
G1 X110.900 Y125.300 E5.18308 F1200
G1 X110.900 Y123.500 E5.24145
G1 X109.100 Y123.500 E5.29982
G0 X110.900 Y119.900 F7200
G1 X109.100 Y119.900 E5.35819 F1200
G0 X109.100 Y116.300 F7200
G1 X110.900 Y116.300 E5.41657 F1200
G0 X110.900 Y110.900 F7200
G1 X109.100 Y110.900 E5.47494 F1200
G1 X109.100 Y109.100 E5.53331
G1 X110.900 Y109.100 E5.59168
; ------------------------------------
; Layer #2
; ------------------------------------
G92 E0 ;reset extr
G0 F3000 E-2.00000
G0 F600 Z0.900
G0 X109.100 Y114.500 F7200
G0 F3000 E1.00000
;segType:Support
G1 X110.900 Y114.500 E1.05837 F1200
G0 X110.900 Y118.100 F7200
G1 X109.100 Y118.100 E1.11674 F1200
G0 X110.900 Y123.500 F7200
G1 X109.100 Y123.500 E1.17512 F1200
G1 X109.100 Y125.300 E1.23349
G1 X110.900 Y125.300 E1.29186
G0 X110.900 Y130.700 F7200
G1 X109.100 Y130.700 E1.35023 F1200
G1 X109.100 Y132.500 E1.40860
G1 X110.900 Y132.500 E1.46697
G1 X110.900 Y134.300 E1.52535
G1 X109.100 Y134.300 E1.58372
G1 X109.100 Y136.100 E1.64209
G1 X110.900 Y136.100 E1.70046
G0 F3000 E-0.29954
G0 X110.619 Y137.324 F7200
G0 F3000 E2.70046
;segType:Perimeter
G1 X112.999 Y137.324 E2.81920 F719
G1 X112.999 Y137.643 E2.83513
G1 X110.559 Y137.643 E2.95687
G1 X110.559 Y137.384 E2.96980
G0 X110.619 Y137.324 F7200
G0 X112.219 Y137.324
G0 F3000 E0.96980
G0 X112.219 Y137.324 F7200
G0 X110.559 Y137.360
G0 X109.441 Y137.384
G0 F3000 E3.96980
G1 X109.441 Y137.643 E3.98273 F719
G1 X107.001 Y137.643 E4.10447
G1 X107.001 Y137.324 E4.12039
G1 X109.381 Y137.324 E4.23914
G0 X109.441 Y137.384 F7200
G0 X109.441 Y137.643
G0 X108.100 Y137.643
G0 F3000 E2.23914
G0 X108.120 Y137.324 F7200
G0 X109.441 Y137.324
G0 X109.100 Y121.700
G0 F3000 E5.23914
;segType:Support
G1 X110.900 Y121.700 E5.29751 F1200
G1 X110.900 Y119.900 E5.35588
G1 X109.100 Y119.900 E5.41425
G0 X110.900 Y116.300 F7200
G1 X109.100 Y116.300 E5.47262 F1200
G0 X109.100 Y112.700 F7200
G1 X110.900 Y112.700 E5.53100 F1200
G0 X109.100 Y105.500 F7200
G1 X110.900 Y105.500 E5.58937 F1200
G1 X110.900 Y107.300 E5.64774
G1 X109.100 Y107.300 E5.70611
G1 X109.100 Y109.100 E5.76448
G1 X110.900 Y109.100 E5.82285
G1 X110.900 Y110.900 E5.88122
G1 X109.100 Y110.900 E5.93960
; ------------------------------------
; Layer #3
; ------------------------------------
G92 E0 ;reset extr
G0 F3000 E-2.00000
G0 F600 Z1.200
G0 X110.900 Y112.700 F7200
G0 F3000 E1.00000
;segType:Support
G1 X109.100 Y112.700 E1.05837 F1243
G1 X109.100 Y114.500 E1.11674
G1 X110.900 Y114.500 E1.17511
G0 X109.100 Y121.700 F7200
G1 X110.900 Y121.700 E1.23349 F1243
G1 X110.900 Y123.500 E1.29186
G1 X109.100 Y123.500 E1.35023
G1 X109.100 Y125.300 E1.40860
G1 X110.900 Y125.300 E1.46697
G0 X110.900 Y132.500 F7200
G1 X109.100 Y132.500 E1.52534 F1243
G0 F3000 E-0.47466
G0 X109.649 Y137.324 F7200
G0 X109.656 Y137.384
G0 X109.656 Y137.384
G0 F3000 E2.52534
;segType:Perimeter
G1 X109.656 Y137.643 E2.53828 F719
G1 X106.456 Y137.643 E2.69789
G1 X106.456 Y137.324 E2.71382
G1 X109.596 Y137.324 E2.87044
G0 X109.656 Y137.384 F7200
G0 X109.656 Y137.643
G0 X108.315 Y137.643
G0 F3000 E0.87044
G0 X108.315 Y137.643 F7200
G0 X109.656 Y137.438
G0 X109.656 Y137.324
G0 X110.344 Y137.324
G0 X110.406 Y137.324
G0 X110.404 Y137.324
G0 F3000 E3.87044
G1 X113.544 Y137.324 E4.02707 F719
G1 X113.544 Y137.643 E4.04299
G1 X110.344 Y137.643 E4.20261
G1 X110.344 Y137.384 E4.21554
G0 X110.404 Y137.324 F7200
G0 X112.004 Y137.324
G0 F3000 E2.21554
G0 X110.344 Y137.324 F7200
G0 X110.900 Y134.300
G0 F3000 E5.21554
;segType:SupportTouch
G1 X109.100 Y134.300 E5.27391 F1243
G1 X109.100 Y134.963 E5.29543
G0 X109.100 Y134.963 F7200
;segType:SoftSupport
G1 X109.100 Y136.100 E5.32378 F1243
G1 X110.900 Y136.100 E5.36868
G1 X110.900 Y134.963 E5.39703
G0 X110.900 Y134.963 F7200
;segType:SupportTouch
G1 X110.900 Y134.300 E5.41855 F1243
G0 X110.900 Y130.700 F7200
;segType:Support
G1 X109.100 Y130.700 E5.47692 F1243
G0 X110.900 Y119.900 F7200
G1 X109.100 Y119.900 E5.53529 F1243
G1 X109.100 Y118.100 E5.59366
G1 X110.900 Y118.100 E5.65203
G1 X110.900 Y116.300 E5.71041
G1 X109.100 Y116.300 E5.76878
G0 X110.900 Y107.300 F7200
G1 X109.100 Y107.300 E5.82715 F1243
G1 X109.100 Y105.500 E5.88552
G1 X110.900 Y105.500 E5.94389
G0 X110.900 Y109.100 F7200
G1 X109.100 Y109.100 E6.00226 F1243
G1 X109.100 Y110.900 E6.06063
G1 X110.900 Y110.900 E6.11901
; ------------------------------------
; Layer #4
; ------------------------------------
G92 E0 ;reset extr
G0 F3000 E-2.00000
G0 F600 Z1.500
G0 X109.100 Y105.500 F7200
G0 F3000 E1.00000
;segType:Support
G1 X110.900 Y105.500 E1.05837 F1202
G0 X110.900 Y110.900 F7200
G1 X109.100 Y110.900 E1.11674 F1202
G0 X109.100 Y116.300 F7200
G1 X110.900 Y116.300 E1.17512 F1202
G0 X110.900 Y123.500 F7200
G1 X109.100 Y123.500 E1.23349 F1202
G1 X109.100 Y125.300 E1.29186
G1 X110.900 Y125.300 E1.35023
G0 F3000 E-0.64977
G0 X110.900 Y130.700 F7200
G0 F3000 E2.35023
;segType:SoftSupport
G1 X110.900 Y132.500 E2.39513 F1202
G1 X109.100 Y132.500 E2.44003
G1 X109.100 Y130.700 E2.48493
G1 X110.900 Y130.700 E2.52984
G0 X110.900 Y134.300 F7200
G1 X110.900 Y134.963 E2.54638 F1202
G0 X110.900 Y134.300 F7200
G1 X109.100 Y134.300 E2.59129 F1202
G1 X109.100 Y134.963 E2.60783
G0 F3000 E0.60783
G0 X106.063 Y137.324 F7200
G0 X106.003 Y137.371
G0 X106.003 Y137.324
G0 X106.063 Y137.324
G0 F3000 E3.60783
;segType:Perimeter
G1 X113.997 Y137.324 E4.00364 F721
G1 X113.997 Y137.643 E4.01957
G1 X106.003 Y137.643 E4.41837
G1 X106.003 Y137.384 E4.43130
G0 X106.063 Y137.324 F7200
G0 X107.663 Y137.324
G0 F3000 E2.43130
G0 X107.634 Y137.643 F7200
G0 X107.663 Y137.324
G0 X109.100 Y121.700
G0 F3000 E5.43130
;segType:Support
G1 X110.900 Y121.700 E5.48968 F1202
G1 X110.900 Y119.900 E5.54805
G1 X109.100 Y119.900 E5.60642
G1 X109.100 Y118.100 E5.66479
G1 X110.900 Y118.100 E5.72316
G0 X110.900 Y114.500 F7200
G1 X109.100 Y114.500 E5.78153 F1202
G1 X109.100 Y112.700 E5.83991
G1 X110.900 Y112.700 E5.89828
G0 X109.100 Y109.100 F7200
G1 X110.900 Y109.100 E5.95665 F1202
G1 X110.900 Y107.300 E6.01502
G1 X109.100 Y107.300 E6.07339
; ------------------------------------
; Layer #5
; ------------------------------------
G92 E0 ;reset extr
G0 F3000 E-2.00000
G0 F600 Z1.800
G0 X109.100 Y119.900 F7200
G0 F3000 E1.00000
;segType:Support
G1 X110.900 Y119.900 E1.05837 F2011
G1 X110.900 Y121.700 E1.11674
G1 X109.100 Y121.700 E1.17512
G1 X109.100 Y123.500 E1.23349
G1 X110.900 Y123.500 E1.29186
G1 X110.900 Y125.300 E1.35023
G1 X109.100 Y125.300 E1.40860
G0 F3000 E-0.59140
G0 X108.102 Y131.438 F7200
G0 X108.102 Y131.444
G0 X108.102 Y131.444
G0 F3000 E2.40860
;segType:Perimeter
G1 X108.103 Y131.529 E2.41160 F719
G1 X108.105 Y131.621 E2.41514
G0 X108.095 Y131.712 F7200
G0 X108.093 Y131.895
G0 X108.102 Y131.986
G1 X108.087 Y131.983 E2.41564 F719
G1 X108.102 Y131.986 E2.41613
G1 X108.093 Y131.895 E2.41944
G1 X108.094 Y131.803 E2.42289
G1 X108.095 Y131.712 E2.42648
G0 X108.105 Y131.621 F7200
G0 X108.103 Y131.498
G0 X108.102 Y131.444
G0 X108.103 Y131.529
G0 X108.105 Y131.621
G0 X108.095 Y131.712
G0 X108.093 Y131.895
G0 X108.102 Y131.986
G0 X108.087 Y131.983
G0 X108.102 Y131.986
G0 X108.093 Y131.895
G0 X108.094 Y131.803
G0 X108.095 Y131.712
G0 X108.105 Y131.621
G0 X108.103 Y131.498
G0 X108.102 Y131.444
G0 X108.103 Y131.529
G0 X108.105 Y131.621
G0 X108.095 Y131.712
G0 X108.093 Y131.895
G0 X108.096 Y131.926
G0 F3000 E0.42648
G0 X108.096 Y131.926 F7200
G0 X108.102 Y131.986
G0 X108.087 Y131.983
G0 X105.709 Y137.198
G0 F3000 E3.42648
G1 X105.709 Y137.838 E3.47359 F719
G0 F3000 E1.47359
G0 X106.579 Y137.643 F7200
G0 X106.579 Y137.482
G0 X106.966 Y137.324
G0 X108.659 Y137.324
G0 X108.659 Y136.632
G0 X109.339 Y136.354
G0 F3000 E4.47359
;segType:HShell
G1 X109.850 Y135.844 E4.51320 F1206
G0 X110.661 Y136.730 F7200
G1 X110.428 Y136.963 E4.53127 F1206
G0 X109.862 Y136.963 F7200
G1 X110.661 Y136.165 E4.59324 F1206
G0 X110.415 Y135.844 F7200
G1 X109.339 Y136.920 E4.67675 F1206
G0 X109.059 Y136.224 F7200
;segType:Loop
G1 X109.059 Y135.564 E4.70969 F2011
G1 X110.941 Y135.564 E4.80355
G1 X110.941 Y137.243 E4.88733
G1 X109.059 Y137.243 E4.98120
G1 X109.059 Y136.424 E5.02207
G0 F3000 E3.02207
G0 X106.579 Y137.643 F7200
G0 X106.579 Y137.324
G0 X108.659 Y137.324
G0 X108.659 Y137.443
G0 F3000 E6.02207
;segType:Perimeter
G1 X108.659 Y137.264 E6.03101 F1206
G1 X108.659 Y135.164 E6.13578
G1 X111.341 Y135.164 E6.26955
G1 X111.341 Y137.324 E6.37732
G1 X113.421 Y137.324 E6.48112
G1 X113.421 Y137.643 E6.49705
G1 X106.579 Y137.643 E6.83844
G1 X106.579 Y137.324 E6.85436
G1 X108.599 Y137.324 E6.95517
G0 X108.659 Y137.264 F7200
G0 X108.659 Y135.664
G0 F3000 E4.95517
G0 X111.341 Y136.394 F7200
G0 X111.341 Y137.324
G0 X113.421 Y137.324
G0 X114.291 Y137.198
G0 F3000 E7.95517
G1 X114.291 Y137.838 E8.00229 F719
G0 F3000 E6.00229
G0 X114.291 Y137.838 F7200
G0 X114.291 Y137.198
G0 X111.914 Y131.895
G0 X111.914 Y131.877
G0 X111.911 Y131.928
G0 X111.919 Y131.916
G0 X111.909 Y131.867
G0 X111.908 Y131.863
G0 X111.909 Y131.867
G0 F3000 E9.00229
G1 X111.919 Y131.916 E9.00405 F719
G1 X111.911 Y131.928 E9.00460
G1 X111.914 Y131.895 E9.00583
G1 X111.913 Y131.803 E9.00935
G1 X111.913 Y131.712 E9.01295
G0 X111.919 Y131.621 F7200
G0 X111.919 Y131.529
G0 X111.917 Y131.438
G1 X111.906 Y131.412 E9.01374 F719
G1 X111.923 Y131.423 E9.01434
G1 X111.917 Y131.438 E9.01484
G1 X111.919 Y131.529 E9.01807
G1 X111.919 Y131.621 E9.02162
G0 X111.913 Y131.712 F7200
G0 X111.914 Y131.895
G1 X111.908 Y131.867 E9.02200 F719
G0 X111.909 Y131.867 F7200
G0 X111.919 Y131.916
G0 X111.911 Y131.928
G0 X111.914 Y131.895
G0 X111.913 Y131.803
G0 X111.913 Y131.712
G0 X111.919 Y131.621
G0 X111.919 Y131.529
G0 X111.917 Y131.438
G0 X111.906 Y131.412
G0 X111.923 Y131.423
G0 X111.917 Y131.438
G0 X111.919 Y131.529
G0 X111.919 Y131.621
G0 X111.913 Y131.712
G0 X111.914 Y131.895
G0 X111.908 Y131.867
G0 X111.909 Y131.867
G0 X111.919 Y131.916
G0 X111.911 Y131.928
G0 X111.914 Y131.895
G0 X111.913 Y131.803
G0 X111.913 Y131.712
G0 X111.919 Y131.621
G0 X111.919 Y131.529
G0 X111.918 Y131.498
G0 F3000 E7.02200
G0 X111.918 Y131.498 F7200
G0 X111.917 Y131.438
G0 X111.914 Y131.431
G0 X111.914 Y131.417
G0 X111.906 Y131.412
G0 X110.900 Y114.500
G0 F3000 E10.02200
;segType:Support
G1 X109.100 Y114.500 E10.08037 F2011
G1 X109.100 Y112.700 E10.13875
G1 X110.900 Y112.700 E10.19712
G1 X110.900 Y110.900 E10.25549
G1 X109.100 Y110.900 E10.31386
G1 X109.100 Y109.100 E10.37223
G1 X110.900 Y109.100 E10.43060
G1 X110.900 Y107.300 E10.48898
G1 X109.100 Y107.300 E10.54735
G1 X109.100 Y105.500 E10.60572
G1 X110.900 Y105.500 E10.66409
G0 X109.100 Y116.300 F7200
G1 X110.900 Y116.300 E10.72246 F2011
G1 X110.900 Y118.100 E10.78083
G1 X109.100 Y118.100 E10.83920
; ------------------------------------
; Layer #6
; ------------------------------------
G92 E0 ;reset extr
G0 F3000 E-2.00000
G0 F600 Z2.100
G0 X109.100 Y119.900 F7200
G0 F3000 E1.00000
;segType:Support
G1 X110.900 Y119.900 E1.05837 F3000
G1 X110.900 Y121.700 E1.11674
G1 X109.100 Y121.700 E1.17512
G1 X109.100 Y123.500 E1.23349
G1 X110.900 Y123.500 E1.29186
G1 X110.900 Y125.300 E1.35023
G1 X109.100 Y125.300 E1.40860
G0 E-0.59140
G0 X108.112 Y130.457 F7200
G0 X108.112 Y130.463
G0 X108.104 Y130.508
G0 X108.109 Y130.554
G0 X108.099 Y130.530
G0 X108.097 Y130.541
G0 X108.097 Y130.541
G0 X108.094 Y130.557
G0 X108.097 Y130.523
G0 X108.104 Y130.508
G0 F3000 E2.40860
;segType:Perimeter
G1 X108.112 Y130.457 E2.41025 F719
G1 X108.109 Y130.554 E2.41425
G0 X108.097 Y130.523 F7200
G0 X108.100 Y130.798
G1 X108.100 Y130.889 E2.41835 F719
G1 X108.100 Y132.261 E2.47982
G1 X108.109 Y132.264 E2.48025
G1 X108.084 Y132.367 E2.48459
G1 X108.093 Y132.352 E2.48532
G0 X108.100 Y132.261 F7200
G0 X108.100 Y130.889
G1 X108.100 Y130.798 E2.48940 F719
G1 X108.099 Y130.706 E2.49325
G1 X108.098 Y130.615 E2.49689
G1 X108.097 Y130.540 E2.49974
G0 X108.104 Y130.508 F7200
G0 X108.112 Y130.457
G0 X108.109 Y130.554
G0 X108.097 Y130.523
G0 X108.100 Y130.798
G0 X108.100 Y130.889
G0 X108.100 Y131.941
G0 F3000 E0.49974
G0 X108.100 Y131.941 F7200
G0 X108.100 Y132.261
G0 X108.093 Y132.352
G0 X108.084 Y132.367
G0 X105.631 Y137.324
G0 X105.631 Y137.384
G0 F3000 E3.49974
G1 X105.631 Y137.643 E3.51267 F719
G1 X105.273 Y137.643 E3.53052
G1 X105.273 Y137.324 E3.54644
G1 X105.571 Y137.324 E3.56130
G0 X105.631 Y137.384 F7200
G0 X105.631 Y137.643
G0 X105.273 Y137.643
G0 X105.273 Y137.324
G0 X105.571 Y137.324
G0 X105.631 Y137.384
G0 X105.631 Y137.643
G0 X105.609 Y137.643
G0 F3000 E1.56130
G0 X105.631 Y137.623 F7200
G0 X105.631 Y137.324
G0 X106.751 Y137.324
G0 X107.831 Y137.324
G0 X107.831 Y135.501
G0 X108.238 Y135.164
G0 X108.499 Y135.164
G0 X108.499 Y134.948
G0 X109.179 Y134.384
G0 F3000 E4.56130
;segType:HShell
G1 X111.489 Y136.694 E4.74057 F1799
G0 X111.192 Y136.963 F7200
G1 X109.179 Y134.950 E4.89681 F1799
G0 X109.179 Y135.516 F7200
G1 X110.627 Y136.963 E5.00914 F1799
G0 X110.061 Y136.963 F7200
G1 X108.942 Y135.844 E5.09599 F1799
G0 X108.511 Y135.979 F7200
G1 X109.495 Y136.963 E5.17238 F1799
G0 X108.930 Y136.963 F7200
G1 X108.511 Y136.544 E5.20487 F1799
G0 X108.231 Y137.243 F7200
G0 X107.831 Y137.443
;segType:Perimeter
G1 X107.831 Y137.264 E5.21381 F1799
G1 X107.831 Y135.164 E5.31858
G1 X108.499 Y135.164 E5.35192
G1 X108.499 Y131.041 E5.55760
G1 X108.799 Y130.862 E5.57504
G1 X111.176 Y130.862 E5.69364
G1 X111.371 Y130.882 E5.70339
G1 X111.460 Y131.072 E5.71387
G1 X111.460 Y135.164 E5.91800
G1 X112.169 Y135.164 E5.95340
G1 X112.169 Y137.324 E6.06117
G1 X113.249 Y137.324 E6.11502
G1 X113.249 Y137.643 E6.13095
G1 X106.751 Y137.643 E6.45509
G1 X106.751 Y137.324 E6.47102
G1 X107.771 Y137.324 E6.52188
G0 X107.831 Y137.264 F7200
G0 X107.831 Y135.664
G0 X108.231 Y135.564
G0 X108.231 Y136.224
;segType:Loop
G1 X108.231 Y135.564 E6.55481 F3000
G1 X108.899 Y135.564 E6.58815
G1 X108.899 Y131.301 E6.80084
G1 X109.073 Y131.262 E6.80976
G1 X110.902 Y131.262 E6.90099
G1 X111.060 Y131.301 E6.90910
G1 X111.060 Y135.564 E7.12179
G1 X111.769 Y135.564 E7.15718
G1 X111.769 Y137.243 E7.24096
G1 X108.231 Y137.243 E7.41749
G1 X108.231 Y136.424 E7.45837
G0 X109.179 Y133.818 F7200
;segType:HShell
G1 X110.780 Y135.419 E7.58258 F1799
G0 X110.780 Y134.853 F7200
G1 X109.179 Y133.253 E7.70680 F1799
G0 X109.179 Y132.687 F7200
G1 X110.780 Y134.288 E7.83102 F1799
G0 X110.780 Y133.722 F7200
G1 X109.179 Y132.121 E7.95525 F1799
G0 X109.198 Y131.575 F7200
G1 X110.780 Y133.156 E8.07797 F1799
G0 X110.780 Y132.591 F7200
G1 X109.753 Y131.564 E8.15762 F1799
G0 X110.308 Y131.554 F7200
G1 X110.780 Y132.025 E8.19419 F1799
G0 X111.205 Y135.844 F7200
G1 X111.489 Y136.128 E8.21627 F1799
G0 F3000 E6.21627
G0 X112.169 Y137.324 F7200
G0 X113.249 Y137.324
G0 X114.369 Y137.324
G0 X114.429 Y137.324
G0 F3000 E9.21627
;segType:Perimeter
G1 X114.727 Y137.324 E9.23112 F719
G1 X114.727 Y137.643 E9.24705
G1 X114.369 Y137.643 E9.26489
G1 X114.369 Y137.384 E9.27783
G0 X114.429 Y137.324 F7200
G0 X114.727 Y137.324
G0 X114.727 Y137.643
G0 X114.369 Y137.643
G0 X114.369 Y137.384
G0 X114.429 Y137.324
G0 X114.710 Y137.324
G0 F3000 E7.27783
G0 X114.369 Y137.324 F7200
G0 X111.908 Y132.352
G0 X111.916 Y132.261
G0 X111.916 Y130.889
G0 X111.916 Y130.889
G0 F3000 E10.27783
G1 X111.916 Y132.261 E10.33929 F719
G1 X111.912 Y132.316 E10.34174
G1 X111.908 Y132.352 E10.34318
G0 X111.916 Y132.261 F7200
G0 X111.916 Y130.889
G1 X111.916 Y130.798 E10.34725 F719
G1 X111.914 Y130.706 E10.35109
G1 X111.911 Y130.615 E10.35471
G1 X111.912 Y130.523 E10.35802
G1 X111.920 Y130.432 E10.36090
G1 X111.916 Y130.497 E10.36338
G1 X111.916 Y130.492 E10.36354
G0 X111.915 Y130.492 F7200
G0 X111.912 Y130.523
G0 X111.911 Y130.615
G0 X111.916 Y130.798
G0 X111.916 Y130.889
G0 X111.916 Y132.092
G0 F3000 E8.36354
G0 X111.916 Y132.092 F7200
G0 X111.916 Y130.889
G0 X111.916 Y130.798
G0 X111.914 Y130.706
G0 X111.911 Y130.615
G0 X111.912 Y130.523
G0 X111.920 Y130.432
G0 X110.900 Y114.500
G0 F3000 E11.36354
;segType:Support
G1 X109.100 Y114.500 E11.42191 F3000
G1 X109.100 Y112.700 E11.48028
G1 X110.900 Y112.700 E11.53865
G1 X110.900 Y110.900 E11.59703
G1 X109.100 Y110.900 E11.65540
G1 X109.100 Y109.100 E11.71377
G1 X110.900 Y109.100 E11.77214
G1 X110.900 Y107.300 E11.83051
G1 X109.100 Y107.300 E11.88888
G1 X109.100 Y105.500 E11.94726
G1 X110.900 Y105.500 E12.00563
G0 X109.100 Y116.300 F7200
G1 X110.900 Y116.300 E12.06400 F3000
G1 X110.900 Y118.100 E12.12237
G1 X109.100 Y118.100 E12.18074
; ------------------------------------
; Layer #7
; ------------------------------------
G92 E0 ;reset extr
G0 F3000 E-2.00000
G0 F600 Z2.400
G0 X109.100 Y123.500 F7200
G0 F3000 E1.00000
;segType:Support
G1 X110.900 Y123.500 E1.05837 F3000
G0 E-0.94163
G0 X111.911 Y129.426 F7200
G0 X111.921 Y129.481
G0 X111.920 Y129.476
G0 X111.920 Y129.476
G0 F3000 E2.05837
;segType:Perimeter
G1 X111.911 Y129.426 E2.06000 F719
G1 X111.919 Y129.518 E2.06337
G1 X111.921 Y129.609 E2.06702
G1 X111.919 Y129.701 E2.07088
G1 X111.916 Y129.792 E2.07498
G1 X111.916 Y131.346 E2.14464
G1 X111.915 Y131.438 E2.14865
G1 X111.913 Y131.529 E2.15239
G1 X111.910 Y131.621 E2.15586
G0 X111.914 Y131.712 F7200
G0 X111.922 Y131.803
G0 X111.918 Y131.986
G0 X111.916 Y132.078
G0 X111.916 Y132.535
G1 X111.898 Y132.454 E2.15995 F719
G1 X111.931 Y132.551 E2.16415
G1 X111.916 Y132.535 E2.16510
G1 X111.916 Y132.078 E2.18559
G1 X111.918 Y131.986 E2.18953
G1 X111.920 Y131.895 E2.19319
G1 X111.922 Y131.803 E2.19657
G1 X111.914 Y131.712 E2.19992
G0 X111.910 Y131.621 F7200
G0 X111.915 Y131.438
G0 X111.916 Y131.346
G0 X111.916 Y129.792
G0 X111.919 Y129.701
G0 X111.921 Y129.609
G0 X111.919 Y129.518
G0 X111.916 Y129.486
G0 X111.920 Y129.476
G0 X111.911 Y129.426
G0 X111.919 Y129.518
G0 X111.921 Y129.609
G0 X111.919 Y129.701
G0 X111.916 Y129.792
G0 X111.916 Y130.975
G0 F3000 E0.19992
G0 X111.916 Y130.975 F7200
G0 X111.916 Y131.346
G0 X111.915 Y131.438
G0 X111.910 Y131.621
G0 X111.914 Y131.712
G0 X111.922 Y131.803
G0 X111.920 Y131.895
G0 X111.918 Y131.986
G0 X111.916 Y132.078
G0 X111.916 Y132.535
G0 X111.931 Y132.551
G0 X114.219 Y137.324
G0 X114.279 Y137.324
G0 F3000 E3.19992
G1 X115.028 Y137.324 E3.23729 F719
G1 X115.028 Y137.643 E3.25322
G1 X114.219 Y137.643 E3.29359
G1 X114.219 Y137.384 E3.30652
G0 X114.279 Y137.324 F7200
G0 X115.028 Y137.324
G0 X115.028 Y137.643
G0 X114.497 Y137.643
G0 F3000 E1.30652
G0 X114.497 Y137.643 F7200
G0 X114.219 Y137.635
G0 X114.219 Y137.324
G0 X105.781 Y137.324
G0 X105.781 Y137.384
G0 F3000 E4.30652
G1 X105.781 Y137.643 E4.31945 F719
G1 X104.972 Y137.643 E4.35982
G1 X104.972 Y137.324 E4.37575
G1 X105.721 Y137.324 E4.41312
G0 X105.781 Y137.384 F7200
G0 X105.781 Y137.643
G0 X104.972 Y137.643
G0 X104.972 Y137.324
G0 X105.184 Y137.324
G0 F3000 E2.41312
G0 X104.972 Y137.324 F7200
G0 X104.972 Y137.487
G0 X105.184 Y137.324
G0 X105.781 Y137.324
G0 X107.655 Y137.243
G0 X107.655 Y135.631
G0 X107.729 Y135.564
G0 X108.881 Y135.564
G0 X108.881 Y134.523
G0 X109.161 Y134.270
G0 F3000 E5.41312
;segType:HShell
G1 X110.798 Y132.633 E5.54015 F1799
G0 X110.798 Y133.199 F7200
G1 X109.161 Y134.836 E5.66717 F1799
G0 X109.161 Y135.401 F7200
G1 X110.798 Y133.765 E5.79419 F1799
G0 X110.798 Y134.330 F7200
G1 X108.165 Y136.963 E5.99852 F1799
G0 X107.655 Y137.243 F7200
G0 X107.255 Y137.443
;segType:Perimeter
G1 X107.255 Y137.264 E6.00746 F1799
G1 X107.255 Y135.164 E6.11223
G1 X108.481 Y135.164 E6.17339
G1 X108.481 Y132.626 E6.29998
G1 X108.121 Y132.443 E6.32013
G1 X108.121 Y132.037 E6.34042
G1 X108.165 Y131.693 E6.35771
G1 X108.121 Y131.407 E6.37214
G1 X108.121 Y131.072 E6.38886
G1 X108.100 Y130.981 E6.39306
G1 X108.100 Y129.792 E6.44633
G1 X108.103 Y129.701 E6.45020
G1 X108.106 Y129.609 E6.45385
G1 X108.101 Y129.518 E6.45711
G1 X108.092 Y129.426 E6.45989
G0 X108.101 Y129.518 F7200
G0 X108.106 Y129.609
G0 X108.103 Y129.701
G0 X108.100 Y129.792
G0 X108.100 Y130.981
G1 X108.466 Y131.069 E6.47865 F1799
G1 X108.504 Y130.978 E6.48358
G1 X108.708 Y130.844 E6.49573
G1 X111.284 Y130.844 E6.62428
G1 X111.478 Y131.016 E6.63719
G1 X111.478 Y135.164 E6.84414
G1 X112.745 Y135.164 E6.90736
G1 X112.745 Y137.324 E7.01512
G1 X113.399 Y137.324 E7.04775
G1 X113.399 Y137.643 E7.06367
G1 X106.601 Y137.643 E7.40280
G1 X106.601 Y137.324 E7.41873
G1 X107.195 Y137.324 E7.44836
G0 X107.255 Y137.264 F7200
G0 X107.255 Y135.664
G0 X107.655 Y135.564
G0 X107.655 Y136.224
;segType:Loop
G1 X107.655 Y135.564 E7.48129 F3000
G1 X108.881 Y135.564 E7.54244
G1 X108.881 Y132.381 E7.70124
G1 X108.521 Y132.198 E7.72139
G1 X108.521 Y132.062 E7.72816
G1 X108.569 Y131.688 E7.74699
G1 X108.544 Y131.529 E7.75501
G1 X108.791 Y131.329 E7.77085
G1 X108.959 Y131.244 E7.78026
G1 X110.902 Y131.244 E7.87719
G1 X111.078 Y131.301 E7.88641
G1 X111.078 Y135.564 E8.09910
G1 X112.345 Y135.564 E8.16231
G1 X112.345 Y137.243 E8.24610
G1 X107.655 Y137.243 E8.48007
G1 X107.655 Y136.424 E8.52094
G0 E6.52094
G0 X107.935 Y136.061 F7200
G0 F3000 E9.52094
;segType:HShell
G1 X108.153 Y135.844 E9.53781 F1799
G0 X108.718 Y135.844 F7200
G1 X107.935 Y136.627 E9.59859 F1799
G0 X107.655 Y136.509 F7200
G0 X109.394 Y137.243
G0 X108.731 Y136.963
G1 X110.798 Y134.896 E9.75901 F1799
G0 X110.798 Y135.462 F7200
G1 X109.296 Y136.963 E9.87553 F1799
G0 X109.862 Y136.963 F7200
G1 X110.981 Y135.844 E9.96238 F1799
G0 X111.547 Y135.844 F7200
G1 X110.428 Y136.963 E10.04924 F1799
G0 X110.993 Y136.963 F7200
G1 X112.065 Y135.892 E10.13238 F1799
G0 X112.065 Y136.457 F7200
G1 X111.559 Y136.963 E10.17163 F1799
G0 F3000 E8.17163
G0 X111.687 Y137.243 F7200
G0 X108.952 Y131.247
G0 X109.078 Y131.524
G0 F3000 E11.17163
G0 X108.770 Y131.550 F7200
G1 X109.336 Y131.832 E11.24137 F1799
G0 X110.210 Y131.524 F7200
G1 X109.161 Y132.573 E11.32277 F1799
G0 X109.161 Y133.138 F7200
G1 X110.771 Y131.528 E11.44774 F1799
G0 X110.798 Y132.068 F7200
G1 X109.161 Y133.704 E11.57477 F1799
G0 F3000 E9.57477
G0 X110.902 Y131.244 F7200
G0 X110.900 Y125.300
G0 F3000 E12.57477
;segType:Support
G1 X109.100 Y125.300 E12.63314 F3000
G0 X109.100 Y121.700 F7200
G1 X110.900 Y121.700 E12.69151 F3000
G0 X110.900 Y114.500 F7200
G1 X109.100 Y114.500 E12.74988 F3000
G1 X109.100 Y112.700 E12.80825
G1 X110.900 Y112.700 E12.86662
G0 X110.900 Y105.500 F7200
G1 X109.100 Y105.500 E12.92500 F3000
G1 X109.100 Y107.300 E12.98337
G1 X110.900 Y107.300 E13.04174
G1 X110.900 Y109.100 E13.10011
G1 X109.100 Y109.100 E13.15848
G1 X109.100 Y110.900 E13.21685
G1 X110.900 Y110.900 E13.27523
G0 X110.900 Y116.300 F7200
G1 X109.100 Y116.300 E13.33360 F3000
G1 X109.100 Y118.100 E13.39197
G1 X110.900 Y118.100 E13.45034
G1 X110.900 Y119.900 E13.50871
G1 X109.100 Y119.900 E13.56708
; ------------------------------------
; Layer #8
; ------------------------------------
G92 E0 ;reset extr
G0 F3000 E-2.00000
G0 F600 Z2.700
G0 X109.100 Y114.500 F7200
G0 F3000 E1.00000
;segType:Support
G1 X110.900 Y114.500 E1.05837 F3000
G1 X110.900 Y112.700 E1.11674
G1 X109.100 Y112.700 E1.17511
G1 X109.100 Y110.900 E1.23349
G1 X110.900 Y110.900 E1.29186
G0 X110.900 Y107.300 F7200
G1 X109.100 Y107.300 E1.35023 F3000
G1 X109.100 Y105.500 E1.40860
G1 X110.900 Y105.500 E1.46697
G0 X110.900 Y109.100 F7200
G1 X109.100 Y109.100 E1.52534 F3000
G0 X110.900 Y116.300 F7200
G1 X109.100 Y116.300 E1.58372 F3000
G1 X109.100 Y118.100 E1.64209
G1 X110.900 Y118.100 E1.70046
G1 X110.900 Y119.900 E1.75883
G1 X109.100 Y119.900 E1.81720
G1 X109.100 Y121.700 E1.87557
G1 X110.900 Y121.700 E1.93395
G1 X110.900 Y123.500 E1.99232
G1 X109.100 Y123.500 E2.05069
G0 E0.05069
G0 X108.775 Y128.405 F7200
G0 X108.684 Y128.443
G0 X108.495 Y128.512
G0 X108.434 Y128.580
G0 X108.433 Y128.540
G0 F3000 E3.05069
;segType:Perimeter
G1 X108.525 Y128.494 E3.05602 F719
G1 X108.616 Y128.471 E3.06030
G1 X108.708 Y128.433 E3.06375
G1 X108.775 Y128.405 E3.06574
G1 X108.684 Y128.443 E3.06944
G1 X108.495 Y128.512 E3.08176
G1 X108.434 Y128.580 E3.08733
G1 X108.374 Y128.650 E3.09295
G1 X108.325 Y128.729 E3.09859
G1 X108.277 Y128.811 E3.10413
G1 X108.229 Y128.892 E3.10950
G1 X108.149 Y129.152 E3.12260
G1 X108.132 Y129.243 E3.12695
G1 X108.115 Y129.335 E3.13117
G1 X108.100 Y129.426 E3.13531
G1 X108.100 Y131.163 E3.21317
G1 X108.111 Y131.198 E3.21470
G0 X108.100 Y131.163 F7200
G0 X108.100 Y129.426
G0 X108.115 Y129.335
G0 X108.149 Y129.152
G1 X108.158 Y129.061 E3.21908 F719
G1 X108.200 Y128.969 E3.22430
G1 X108.244 Y128.878 E3.22996
G1 X108.287 Y128.786 E3.23602
G1 X108.258 Y128.840 E3.23783
G0 X108.259 Y128.841 F7200
G0 X108.325 Y128.729
G0 X108.374 Y128.650
G0 X108.434 Y128.580
G0 X108.495 Y128.512
G0 X108.433 Y128.540
G0 X108.525 Y128.494
G0 X108.616 Y128.471
G0 X108.708 Y128.433
G0 X108.775 Y128.405
G0 X108.684 Y128.443
G0 X108.495 Y128.512
G0 X108.434 Y128.580
G0 X108.374 Y128.650
G0 X108.325 Y128.729
G0 X108.277 Y128.811
G0 X108.234 Y128.884
G0 F3000 E1.23783
G0 X108.235 Y128.896 F7200
G0 X108.200 Y128.969
G0 X108.158 Y129.061
G0 X108.149 Y129.152
G0 X108.115 Y129.335
G0 X108.100 Y129.426
G0 X108.100 Y131.163
G0 X108.111 Y131.198
G0 X108.487 Y131.178
G0 X108.489 Y131.118
G0 F3000 E4.23783
G1 X108.493 Y130.981 E4.24467 F719
G1 X108.669 Y130.844 E4.25580
G1 X111.268 Y130.844 E4.38545
G1 X111.478 Y131.018 E4.39907
G1 X111.478 Y131.178 E4.40704
G1 X108.547 Y131.178 E4.55326
G0 X108.489 Y131.118 F7200
G0 X108.493 Y130.981
G0 X108.669 Y130.844
G0 X109.909 Y130.844
G0 F3000 E2.55326
G0 X109.909 Y130.844 F7200
G0 X109.479 Y131.178
G0 X108.487 Y131.178
G0 X108.104 Y132.240
G0 X108.098 Y132.252
G0 X108.098 Y132.252
G0 F3000 E5.55326
G1 X108.104 Y132.240 E5.55383 F719
G1 X108.105 Y132.261 E5.55471
G1 X108.103 Y132.352 E5.55867
G1 X108.101 Y132.443 E5.56264
G1 X108.098 Y132.535 E5.56661
G1 X108.097 Y132.577 E5.56846
G0 X108.097 Y132.579 F7200
G0 X108.105 Y132.261
G0 X108.098 Y132.252
G0 X108.104 Y132.240
G0 X108.105 Y132.261
G0 X108.103 Y132.352
G0 X108.101 Y132.443
G0 X108.098 Y132.535
G0 X108.097 Y132.577
G0 X108.097 Y132.579
G0 X108.105 Y132.261
G0 X108.098 Y132.252
G0 X108.104 Y132.240
G0 X108.105 Y132.261
G0 X108.103 Y132.352
G0 X108.101 Y132.443
G0 X108.098 Y132.535
G0 X108.097 Y132.577
G0 X108.097 Y132.579
G0 X108.103 Y132.344
G0 F3000 E3.56846
G0 X108.103 Y132.352 F7200
G0 X108.101 Y132.443
G0 X108.098 Y132.535
G0 X108.096 Y132.626
G0 X108.095 Y132.637
G0 X108.481 Y132.269
G0 X109.161 Y133.800
G0 F3000 E6.56846
;segType:HShell
G1 X110.798 Y135.437 E6.69548 F1799
G0 X112.519 Y136.027 F7200
G1 X112.336 Y135.844 E6.70967 F1799
G0 X111.770 Y135.844 F7200
G1 X112.519 Y136.592 E6.76776 F1799
G0 X112.324 Y136.963 F7200
G1 X111.205 Y135.844 E6.85461 F1799
G0 X110.660 Y135.866 F7200
G1 X111.758 Y136.963 E6.93978 F1799
G0 X111.192 Y136.963 F7200
G1 X110.661 Y136.431 E6.98105 F1799
G0 X110.661 Y136.431 F7200
;segType:Infill
G1 X110.073 Y135.844 E7.02249 F3000
G0 E5.02249
G0 X104.703 Y137.643 F7200
G0 X104.703 Y137.324
G0 X106.801 Y137.324
G0 X106.801 Y137.443
G0 F3000 E8.02249
;segType:Perimeter
G1 X106.801 Y137.264 E8.03143 F1799
G1 X106.801 Y135.164 E8.13621
G1 X108.481 Y135.164 E8.22001
G1 X108.481 Y132.269 E8.36441
G1 X111.478 Y132.269 E8.51393
G1 X111.478 Y135.164 E8.65834
G1 X113.199 Y135.164 E8.74420
G1 X113.199 Y137.324 E8.85196
G1 X115.297 Y137.324 E8.95662
G1 X115.297 Y137.643 E8.97254
G1 X104.703 Y137.643 E9.50103
G1 X104.703 Y137.324 E9.51696
G1 X106.741 Y137.324 E9.61862
G0 X106.801 Y137.264 F7200
G0 X106.801 Y135.664
G0 X107.201 Y136.224
;segType:Loop
G1 X107.201 Y135.564 E9.65156 F3000
G1 X108.881 Y135.564 E9.73536
G1 X108.881 Y132.669 E9.87976
G1 X111.078 Y132.669 E9.98937
G1 X111.078 Y135.564 E10.13377
G1 X112.799 Y135.564 E10.21963
G1 X112.799 Y137.243 E10.30341
G1 X107.201 Y137.243 E10.58268
G1 X107.201 Y136.424 E10.62355
G0 X107.481 Y136.646 F7200
;segType:HShell
G1 X107.798 Y136.963 E10.64814 F1799
G0 X108.364 Y136.963 F7200
G1 X107.481 Y136.081 E10.71663 F1799
G0 X107.810 Y135.844 F7200
G1 X108.930 Y136.963 E10.80348 F1799
G0 X109.339 Y136.807 F7200
G1 X108.376 Y135.844 E10.87824 F1799
G0 X109.044 Y136.229 F7200
G1 X109.334 Y135.671 E10.96455 F1799
G0 X109.161 Y134.932 F7200
G1 X110.073 Y135.844 E11.03534 F1799
G0 X110.639 Y135.844 F7200
G1 X109.161 Y134.366 E11.15004 F1799
G0 X110.798 Y133.174 F7200
G1 X110.573 Y132.949 E11.16749 F1799
G0 X110.007 Y132.949 F7200
G1 X110.798 Y133.740 E11.22885 F1799
G0 X110.798 Y134.306 F7200
G1 X109.441 Y132.949 E11.33410 F1799
G0 X109.161 Y133.235 F7200
G1 X110.798 Y134.871 E11.46113 F1799
G0 F3000 E9.46112
G0 X111.478 Y132.269 F7200
G0 X111.916 Y132.261
G0 X111.938 Y132.214
G0 F3000 E12.46113
;segType:Perimeter
G1 X111.925 Y132.298 E12.46512 F719
G1 X111.916 Y132.261 E12.46683
G1 X111.915 Y132.352 E12.47089
G1 X111.914 Y132.443 E12.47493
G1 X111.912 Y132.535 E12.47894
G1 X111.911 Y132.626 E12.48292
G1 X111.929 Y132.593 E12.48475
G1 X111.939 Y132.672 E12.48766
G1 X111.909 Y132.584 E12.49181
G0 X111.912 Y132.566 F7200
G0 X111.916 Y132.261
G0 X111.938 Y132.214
G0 X111.925 Y132.298
G0 X111.916 Y132.261
G0 X111.915 Y132.352
G0 X111.914 Y132.443
G0 X111.912 Y132.535
G0 X111.911 Y132.626
G0 X111.929 Y132.593
G0 X111.939 Y132.672
G0 X111.909 Y132.584
G0 X111.912 Y132.566
G0 X111.916 Y132.261
G0 X111.938 Y132.214
G0 X111.925 Y132.298
G0 X111.916 Y132.261
G0 X111.915 Y132.304
G0 F3000 E10.49181
G0 X111.915 Y132.304 F7200
G0 X111.916 Y132.261
G0 X111.938 Y132.214
G0 X111.916 Y131.163
G0 X111.916 Y129.426
G0 X111.904 Y129.335
G0 X111.873 Y129.152
G0 X111.797 Y128.934
G0 X111.760 Y128.843
G0 X111.712 Y128.761
G0 X111.668 Y128.676
G0 X111.609 Y128.605
G0 X111.550 Y128.535
G0 X111.544 Y128.531
G0 X111.478 Y128.478
G0 X111.542 Y128.510
G0 F3000 E13.49181
G1 X111.450 Y128.487 E13.49668 F719
G1 X111.359 Y128.446 E13.50084
G1 X111.268 Y128.405 E13.50397
G1 X111.285 Y128.413 E13.50459
G1 X111.374 Y128.453 E13.50881
G1 X111.478 Y128.478 E13.51506
G1 X111.550 Y128.535 E13.52078
G1 X111.609 Y128.605 E13.52644
G1 X111.668 Y128.676 E13.53206
G1 X111.712 Y128.761 E13.53772
G1 X111.760 Y128.843 E13.54318
G0 X111.797 Y128.934 F7200
G0 X111.873 Y129.152
G0 X111.904 Y129.335
G0 X111.916 Y129.426
G0 X111.916 Y131.163
G1 X111.910 Y131.149 E13.54391 F719
G1 X111.916 Y131.163 E13.54461
G1 X111.916 Y129.426 E13.62247
G1 X111.904 Y129.335 E13.62669
G1 X111.889 Y129.243 E13.63108
G1 X111.873 Y129.152 E13.63562
G1 X111.854 Y129.061 E13.64008
G1 X111.813 Y128.969 E13.64525
G1 X111.772 Y128.878 E13.65081
G1 X111.744 Y128.787 E13.65617
G0 X111.730 Y128.791 F7200
G0 X111.712 Y128.761
G0 X111.668 Y128.676
G0 X111.609 Y128.605
G0 X111.550 Y128.535
G0 X111.478 Y128.478
G0 X111.542 Y128.510
G0 X111.450 Y128.487
G0 X111.359 Y128.446
G0 X111.268 Y128.405
G0 X111.285 Y128.413
G0 X111.374 Y128.453
G0 X111.478 Y128.478
G0 X111.550 Y128.535
G0 X111.609 Y128.605
G0 X111.668 Y128.676
G0 X111.712 Y128.761
G0 X111.760 Y128.843
G0 X111.797 Y128.934
G0 X111.810 Y128.971
G0 F3000 E11.65617
G0 X111.813 Y128.969 F7200
G0 X111.819 Y128.983
G0 X111.810 Y128.971
G0 X111.797 Y128.934
G0 X111.760 Y128.843
G0 X111.712 Y128.761
G0 X111.668 Y128.676
G0 X111.609 Y128.605
G0 X111.550 Y128.535
G0 X111.478 Y128.478
G0 X111.374 Y128.453
G0 X111.285 Y128.413
G0 X111.268 Y128.405
G0 X109.100 Y125.300
G0 F3000 E14.65617
;segType:Support
G1 X110.900 Y125.300 E14.71454 F3000
; ------------------------------------
; Layer #9
; ------------------------------------
G92 E0 ;reset extr
G0 F3000 E-2.00000
G0 F600 Z3.000
G0 X109.100 Y107.300 F7200
G0 F3000 E1.00000
;segType:Support
G1 X110.900 Y107.300 E1.05837 F3000
G1 X110.900 Y105.500 E1.11674
G1 X109.100 Y105.500 E1.17512
G0 X110.900 Y109.100 F7200
G1 X109.100 Y109.100 E1.23349 F3000
G1 X109.100 Y110.900 E1.29186
G1 X110.900 Y110.900 E1.35023
G1 X110.900 Y112.700 E1.40860
G1 X109.100 Y112.700 E1.46697
G1 X109.100 Y114.500 E1.52534
G1 X110.900 Y114.500 E1.58372
G1 X110.900 Y116.300 E1.64209
G1 X109.100 Y116.300 E1.70046
G1 X109.100 Y118.100 E1.75883
G1 X110.900 Y118.100 E1.81720
G0 X110.900 Y123.500 F7200
G1 X109.100 Y123.500 E1.87557 F3000
G0 X109.100 Y125.300 F7200
;segType:SoftSupport
G1 X110.900 Y125.300 E1.92048 F3000
G0 E-0.07952
G0 X111.913 Y132.169 F7200
G0 F3000 E2.92048
;segType:Perimeter
G1 X111.922 Y132.198 E2.92178 F719
G1 X111.935 Y132.287 E2.92602
G1 X111.922 Y132.261 E2.92732
G1 X111.921 Y132.352 E2.93131
G1 X111.919 Y132.443 E2.93534
G1 X111.918 Y132.535 E2.93940
G1 X111.917 Y132.626 E2.94349
G1 X111.914 Y132.577 E2.94564
G1 X111.913 Y132.573 E2.94585
G0 X111.918 Y132.566 F7200
G0 X111.922 Y132.261
G0 X111.913 Y132.169
G0 X111.922 Y132.198
G0 X111.935 Y132.287
G0 X111.922 Y132.261
G0 X111.921 Y132.352
G0 X111.919 Y132.443
G0 X111.918 Y132.535
G0 X111.917 Y132.626
G0 X111.914 Y132.577
G0 X111.913 Y132.573
G0 X111.918 Y132.566
G0 X111.922 Y132.261
G0 X111.913 Y132.169
G0 X111.922 Y132.198
G0 X111.935 Y132.287
G0 X111.922 Y132.261
G0 X111.921 Y132.336
G0 F3000 E0.94585
G0 X111.921 Y132.336 F7200
G0 X111.922 Y132.261
G0 X111.921 Y132.336
G0 X111.917 Y132.626
G0 X111.478 Y132.224
G0 X110.798 Y135.462
G0 F3000 E3.94585
;segType:HShell
G1 X109.296 Y136.963 E4.06237 F1799
G0 X108.731 Y136.963 F7200
G1 X110.798 Y134.896 E4.22279 F1799
G0 X110.798 Y134.330 F7200
G1 X108.165 Y136.963 E4.42712 F1799
G0 X107.599 Y136.963 F7200
G1 X108.718 Y135.844 E4.51397 F1799
G0 X108.153 Y135.844 F7200
G1 X107.105 Y136.892 E4.59529 F1799
G0 X106.425 Y137.264 F7200
G0 X106.425 Y137.324
G0 X106.425 Y137.264
;segType:Perimeter
G1 X106.425 Y135.164 E4.70006 F1799
G1 X108.481 Y135.164 E4.80264
G1 X108.481 Y132.224 E4.94930
G1 X111.478 Y132.224 E5.09882
G1 X111.478 Y135.164 E5.24548
G1 X113.575 Y135.164 E5.35013
G1 X113.575 Y137.324 E5.45789
G1 X115.537 Y137.324 E5.55576
G1 X115.537 Y137.643 E5.57169
G1 X104.463 Y137.643 E6.12417
G1 X104.463 Y137.324 E6.14009
G1 X106.365 Y137.324 E6.23497
G0 X106.425 Y137.264 F7200
G0 X106.425 Y135.664
G0 X106.825 Y136.224
;segType:Loop
G1 X106.825 Y135.564 E6.26790 F3000
G1 X108.881 Y135.564 E6.37048
G1 X108.881 Y132.624 E6.51714
G1 X111.078 Y132.624 E6.62674
G1 X111.078 Y135.564 E6.77341
G1 X113.175 Y135.564 E6.87805
G1 X113.175 Y137.243 E6.96183
G1 X106.825 Y137.243 E7.27866
G1 X106.825 Y136.424 E7.31953
G0 X107.105 Y136.326 F7200
;segType:HShell
G1 X107.587 Y135.844 E7.35694 F1799
G0 X109.161 Y135.401 F7200
G1 X110.798 Y133.765 E7.48397 F1799
G0 X110.798 Y133.199 F7200
G1 X109.161 Y134.836 E7.61099 F1799
G0 X109.161 Y134.270 F7200
G1 X110.527 Y132.904 E7.71698 F1799
G0 X109.961 Y132.904 F7200
G1 X109.161 Y133.704 E7.77906 F1799
G0 X109.161 Y133.138 F7200
G1 X109.395 Y132.904 E7.79725 F1799
G0 X112.895 Y136.758 F7200
G1 X112.690 Y136.963 E7.81313 F1799
G0 X112.125 Y136.963 F7200
G1 X112.895 Y136.193 E7.87293 F1799
G0 X112.678 Y135.844 F7200
G1 X111.559 Y136.963 E7.95978 F1799
G0 X110.993 Y136.963 F7200
G1 X112.112 Y135.844 E8.04663 F1799
G0 X111.547 Y135.844 F7200
G1 X110.428 Y136.963 E8.13348 F1799
G0 X109.862 Y136.963 F7200
G1 X110.981 Y135.844 E8.22033 F1799
G0 F3000 E6.22033
G0 X108.481 Y132.224 F7200
G0 X108.108 Y132.169
G0 X108.102 Y132.229
G0 X108.104 Y132.229
G0 F3000 E9.22033
;segType:Perimeter
G1 X108.103 Y132.241 E9.22088 F719
G0 X108.108 Y132.169 F7200
G0 X108.099 Y132.261
G0 X108.094 Y132.626
G1 X108.095 Y132.535 E9.22485 F719
G1 X108.096 Y132.443 E9.22885
G1 X108.097 Y132.352 E9.23288
G1 X108.099 Y132.261 E9.23694
G1 X108.102 Y132.229 E9.23833
G0 X108.104 Y132.229 F7200
G0 X108.103 Y132.241
G0 X108.108 Y132.169
G0 X108.099 Y132.261
G0 X108.094 Y132.626
G0 X108.095 Y132.535
G0 X108.096 Y132.443
G0 X108.097 Y132.352
G0 X108.099 Y132.261
G0 X108.102 Y132.229
G0 X108.104 Y132.229
G0 X108.103 Y132.241
G0 X108.108 Y132.169
G0 X108.099 Y132.261
G0 X108.094 Y132.626
G0 X108.095 Y132.535
G0 X108.095 Y132.509
G0 F3000 E7.23833
G0 X108.095 Y132.509 F7200
G0 X108.095 Y132.535
G0 X108.094 Y132.626
G0 X108.095 Y132.509
G0 X108.099 Y132.261
G0 X108.100 Y132.245
G0 X108.108 Y132.169
G0 X108.373 Y131.223
G0 X108.121 Y131.163
G0 X108.121 Y131.103
G0 X108.122 Y130.981
G0 X108.121 Y131.103
G0 F3000 E10.23833
G1 X108.121 Y131.072 E10.23990 F1010
G0 X108.100 Y130.981 F7200
G0 X108.100 Y129.518
G0 X108.110 Y129.426
G0 X108.122 Y129.335
G1 X108.137 Y129.243 E10.24426 F1010
G1 X108.167 Y129.152 E10.24902
G1 X108.192 Y129.061 E10.25381
G1 X108.237 Y128.969 E10.25938
G1 X108.271 Y128.878 E10.26472
G1 X108.328 Y128.786 E10.27124
G1 X108.384 Y128.695 E10.27839
G0 X108.302 Y128.836 F7200
G0 X108.349 Y128.754
G0 X108.402 Y128.677
G0 X108.454 Y128.601
G0 X108.505 Y128.522
G1 X108.481 Y128.368 E10.28618 F1010
G1 X108.781 Y127.861 E10.31558
G1 X109.056 Y127.534 E10.33690
G1 X109.136 Y127.472 E10.34194
G1 X109.805 Y127.472 E10.37531
G1 X109.896 Y127.569 E10.38519
G1 X109.988 Y127.544 E10.39162
G1 X110.079 Y127.559 E10.39823
G1 X110.170 Y127.472 E10.40450
G1 X110.879 Y127.472 E10.43983
G1 X110.985 Y127.555 E10.44658
G1 X111.150 Y127.741 E10.45897
G1 X111.511 Y128.315 E10.49276
G0 X111.530 Y128.555 F7200
G0 X111.585 Y128.630
G0 X111.638 Y128.705
G1 X111.586 Y128.603 E10.50054 F1010
G1 X111.631 Y128.695 E10.50718
G1 X111.689 Y128.786 E10.51362
G1 X111.725 Y128.878 E10.51939
G1 X111.771 Y128.969 E10.52511
G1 X111.818 Y129.061 E10.53050
G1 X111.856 Y129.152 E10.53522
G0 X111.871 Y129.243 F7200
G1 X111.891 Y129.335 E10.53970 F1010
G1 X111.905 Y129.426 E10.54395
G1 X111.916 Y129.518 E10.54808
G1 X111.916 Y131.255 E10.62594
G1 X111.927 Y131.168 E10.63009
G1 X111.894 Y131.264 E10.63408
G1 X111.902 Y131.157 E10.63928
G0 X111.916 Y131.255 F7200
G0 X111.916 Y129.518
G0 X111.905 Y129.426
G0 X111.891 Y129.335
G1 X111.871 Y129.243 E10.64381 F1010
G0 X111.812 Y129.049 F7200
G0 X111.768 Y128.963
G0 X111.725 Y128.878
G0 X111.681 Y128.792
G1 X111.638 Y128.705 E10.65012 F1010
G1 X111.585 Y128.630 E10.65650
G1 X111.530 Y128.555 E10.66321
G1 X111.357 Y128.511 E10.67212
G1 X111.085 Y128.291 E10.68959
G1 X110.550 Y127.933 E10.72171
G1 X110.006 Y127.616 E10.75309
G1 X109.171 Y128.122 E10.80183
G1 X108.641 Y128.529 E10.83514
G1 X108.505 Y128.522 E10.84533
G1 X108.454 Y128.601 E10.85190
G1 X108.402 Y128.677 E10.85807
G1 X108.349 Y128.754 E10.86392
G1 X108.302 Y128.836 E10.86967
G1 X108.261 Y128.924 E10.87516
G1 X108.216 Y129.009 E10.88022
G1 X108.179 Y129.101 E10.88538
G1 X108.122 Y129.335 E10.89653
G1 X108.110 Y129.426 E10.90072
G1 X108.100 Y129.518 E10.90484
G1 X108.100 Y130.981 E10.97040
G1 X108.489 Y130.981 E10.98981
G1 X108.674 Y130.844 E11.00127
G1 X111.284 Y130.844 E11.13147
G1 X111.450 Y130.911 E11.14044
G1 X111.478 Y131.072 E11.14857
G1 X111.478 Y131.223 E11.15610
G1 X108.373 Y131.223 E11.31100
G1 X108.179 Y131.177 E11.32094
G0 X108.121 Y131.103 F7200
G0 X108.121 Y131.072
G0 X108.100 Y130.981
G0 X108.100 Y129.518
G0 X108.102 Y129.506
G0 F3000 E9.32094
G0 X108.102 Y129.506 F7200
G0 X108.100 Y129.518
G0 X108.110 Y129.426
G0 X108.122 Y129.335
G0 X108.125 Y129.322
G0 X108.129 Y129.293
G0 X108.137 Y129.243
G0 X108.167 Y129.152
G0 X108.192 Y129.061
G0 X108.237 Y128.969
G0 X108.271 Y128.878
G0 X108.328 Y128.786
G0 X108.384 Y128.695
G0 X109.100 Y121.700
G0 F3000 E12.32094
;segType:Support
G1 X110.900 Y121.700 E12.37931 F3000
G1 X110.900 Y119.900 E12.43768
G1 X109.100 Y119.900 E12.49605
; ------------------------------------
; Layer #10
; ------------------------------------
G92 E0 ;reset extr
G0 F3000 E-2.00000
G0 F600 Z3.300
G0 X110.900 Y118.100 F7200
G0 F3000 E1.00000
;segType:Support
G1 X109.100 Y118.100 E1.05837 F2480
G0 X109.100 Y114.500 F7200
G1 X110.900 Y114.500 E1.11674 F2480
G1 X110.900 Y112.700 E1.17511
G1 X109.100 Y112.700 E1.23349
G0 X109.100 Y109.100 F7200
G1 X110.900 Y109.100 E1.29186 F2480
G0 X110.900 Y105.500 F7200
G1 X109.100 Y105.500 E1.35023 F2480
G1 X109.100 Y107.300 E1.40860
G1 X110.900 Y107.300 E1.46697
G0 X110.900 Y110.900 F7200
G1 X109.100 Y110.900 E1.52534 F2480
G0 X110.900 Y116.300 F7200
G1 X109.100 Y116.300 E1.58372 F2480
G0 X109.100 Y119.900 F7200
G1 X110.900 Y119.900 E1.64209 F2480
G1 X110.900 Y121.700 E1.70046
G1 X109.100 Y121.700 E1.75883
G0 F3000 E-0.24117
G0 X109.256 Y126.465 F7200
G0 X109.577 Y126.465
G0 X109.718 Y127.876
G0 X109.479 Y128.015
G0 X109.146 Y128.229
G0 X108.819 Y128.467
G0 X108.623 Y128.640
G0 X108.490 Y128.636
G0 X108.435 Y128.711
G0 X108.388 Y128.793
G0 X108.339 Y128.873
G0 X108.292 Y128.955
G0 X108.248 Y129.041
G0 X108.145 Y129.335
G0 X108.113 Y129.518
G0 X108.100 Y129.609
G0 X108.100 Y130.981
G0 X108.548 Y130.893
G0 X108.677 Y130.844
G0 X110.015 Y130.844
G0 X110.695 Y137.643
G0 X110.627 Y136.963
G0 F3000 E2.75883
;segType:HShell
G1 X109.161 Y135.498 E2.87257 F1799
G0 X108.942 Y135.844 F7200
G1 X110.061 Y136.963 E2.95942 F1799
G0 X109.495 Y136.963 F7200
G1 X108.376 Y135.844 E3.04627 F1799
G0 X107.810 Y135.844 F7200
G1 X108.930 Y136.963 E3.13313 F1799
G0 X108.364 Y136.963 F7200
G1 X107.245 Y135.844 E3.21998 F1799
G0 X106.785 Y135.950 F7200
G1 X107.798 Y136.963 E3.29863 F1799
G0 X107.232 Y136.963 F7200
G1 X106.785 Y136.515 E3.33338 F1799
G0 X106.505 Y137.243 F7200
G0 X106.105 Y137.443
;segType:Perimeter
G1 X106.105 Y137.264 E3.34233 F1799
G1 X106.105 Y135.164 E3.44710
G1 X108.481 Y135.164 E3.56566
G1 X108.481 Y132.535 E3.69681
G1 X108.159 Y132.443 E3.71352
G1 X108.121 Y132.352 E3.71844
G1 X108.121 Y131.072 E3.78230
G1 X108.100 Y130.981 E3.78649
G1 X108.100 Y129.609 E3.84796
G1 X108.113 Y129.518 E3.85218
G1 X108.129 Y129.426 E3.85661
G1 X108.145 Y129.335 E3.86121
G1 X108.158 Y129.243 E3.86559
G1 X108.197 Y129.152 E3.87068
G1 X108.220 Y129.061 E3.87558
G1 X108.279 Y128.969 E3.88167
G1 X108.336 Y128.878 E3.88818
G1 X108.380 Y128.786 E3.89451
G1 X108.444 Y128.695 E3.90222
G1 X108.489 Y128.603 E3.90945
G1 X108.435 Y128.711 E3.91782
G1 X108.490 Y128.636 E3.92453
G1 X108.469 Y128.486 E3.93207
G1 X108.673 Y128.119 E3.95301
G1 X109.086 Y127.488 E3.99065
G1 X109.129 Y127.346 E3.99803
G1 X109.129 Y126.734 E4.02859
G1 X109.152 Y126.501 E4.04028
G1 X109.256 Y126.465 E4.04576
G1 X110.810 Y126.465 E4.12331
G1 X110.873 Y126.562 E4.12906
G1 X110.888 Y126.775 E4.13970
G1 X110.888 Y127.345 E4.16815
G1 X110.926 Y127.480 E4.17516
G1 X111.301 Y128.051 E4.20926
G1 X111.526 Y128.430 E4.23122
G1 X111.491 Y128.594 E4.24376
G1 X111.546 Y128.669 E4.25030
G1 X111.601 Y128.743 E4.25642
G1 X111.649 Y128.824 E4.26249
G1 X111.697 Y128.906 E4.26837
G0 X111.698 Y128.878 F7200
G0 X111.728 Y128.969
G0 X111.774 Y129.061
G0 X111.821 Y129.152
G0 X111.861 Y129.243
G1 X111.871 Y129.335 E4.27289 F1799
G1 X111.890 Y129.426 E4.27736
G1 X111.905 Y129.518 E4.28161
G1 X111.916 Y129.609 E4.28574
G1 X111.916 Y132.443 E4.41277
G0 X111.920 Y132.454 F7200
G1 X111.911 Y132.441 E4.41346 F1799
G0 X111.916 Y132.443 F7200
G0 X111.916 Y129.609
G0 X111.905 Y129.518
G0 X111.890 Y129.426
G0 X111.871 Y129.335
G1 X111.783 Y129.078 E4.42839 F1799
G1 X111.740 Y128.992 E4.43401
G0 X111.697 Y128.906 F7200
G0 X111.601 Y128.743
G0 X111.546 Y128.669
G0 X111.491 Y128.594
G1 X111.322 Y128.570 E4.44254 F1799
G1 X111.019 Y128.332 E4.46174
G1 X110.466 Y127.971 E4.49471
G1 X110.008 Y127.707 E4.52110
G1 X109.479 Y128.015 E4.55161
G1 X109.146 Y128.229 E4.57139
G1 X108.819 Y128.467 E4.59155
G1 X108.623 Y128.640 E4.60461
G0 X108.490 Y128.636 F7200
G0 X108.435 Y128.711
G1 X108.388 Y128.793 E4.61076 F1799
G1 X108.339 Y128.873 E4.61648
G1 X108.292 Y128.955 E4.62193
G1 X108.248 Y129.041 E4.62726
G0 X108.145 Y129.335 F7200
G0 X108.113 Y129.518
G0 X108.100 Y129.609
G0 X108.100 Y130.981
G1 X108.548 Y130.893 E4.65000 F1799
G1 X108.677 Y130.844 E4.65691
G1 X111.285 Y130.844 E4.78703
G1 X111.478 Y131.072 E4.80192
G1 X111.478 Y135.164 E5.00606
G1 X113.895 Y135.164 E5.12666
G1 X113.895 Y137.324 E5.23443
G1 X115.752 Y137.324 E5.32708
G1 X115.752 Y137.643 E5.34301
G1 X104.248 Y137.643 E5.91699
G1 X104.248 Y137.324 E5.93292
G1 X106.045 Y137.324 E6.02257
G0 X106.105 Y137.264 F7200
G0 X106.105 Y135.664
G0 X106.505 Y135.564
G0 X106.505 Y136.224
;segType:Loop
G1 X106.505 Y135.564 E6.05550 F3000
G1 X108.881 Y135.564 E6.17406
G1 X108.881 Y132.233 E6.34023
G1 X108.521 Y131.986 E6.36201
G1 X108.521 Y131.340 E6.39424
G1 X108.756 Y131.244 E6.40693
G1 X110.902 Y131.244 E6.51398
G1 X111.078 Y131.301 E6.52320
G1 X111.078 Y135.564 E6.73590
G1 X113.495 Y135.564 E6.85650
G1 X113.495 Y137.243 E6.94028
G1 X106.505 Y137.243 E7.28906
G1 X106.505 Y136.424 E7.32993
G0 E5.32993
G0 X106.908 Y135.164 F7200
G0 X108.481 Y135.164
G0 X108.481 Y132.535
G0 X108.159 Y132.443
G0 X108.121 Y132.352
G0 X108.121 Y131.379
G0 X108.258 Y130.950
G0 X108.100 Y130.981
G0 X108.100 Y129.609
G0 X108.113 Y129.518
G0 X108.145 Y129.335
G0 X108.248 Y129.041
G0 X108.292 Y128.955
G0 X108.339 Y128.873
G0 X108.388 Y128.793
G0 X108.435 Y128.711
G0 X108.490 Y128.636
G0 X108.623 Y128.640
G0 X108.819 Y128.467
G0 X109.125 Y128.244
G0 X109.276 Y127.773
G0 F3000 E8.32993
G1 X109.357 Y127.693 E8.33389 F3000
G0 X109.501 Y127.529 F7200
G1 X109.529 Y127.405 E8.34024 F3000
G1 X109.529 Y126.958 E8.36256
G1 X109.645 Y126.865 E8.36996
G1 X110.445 Y126.865 E8.40987
G1 X110.481 Y126.958 E8.41485
G1 X110.489 Y127.403 E8.43707
G0 X110.516 Y127.529 F7200
G1 X110.653 Y127.686 E8.44439 F3000
G1 X110.733 Y127.768 E8.44774
G0 X110.653 Y127.686 F7200
G1 X110.574 Y127.604 E8.45264 F3000
G1 X110.492 Y127.525 E8.45833
G1 X110.432 Y127.423 E8.46592
G1 X110.287 Y127.406 E8.47318
G1 X110.007 Y127.244 E8.48932
G1 X109.721 Y127.411 E8.50582
G1 X109.581 Y127.432 E8.51475
G1 X109.522 Y127.535 E8.52046
G1 X109.436 Y127.611 E8.52533
G0 X109.357 Y127.693 F7200
G0 X109.276 Y127.773
G0 F3000 E6.52533
G0 X109.260 Y128.155 F7200
G0 X109.146 Y128.229
G0 X108.819 Y128.467
G0 X108.623 Y128.640
G0 X108.490 Y128.636
G0 X108.435 Y128.711
G0 X108.388 Y128.793
G0 X108.339 Y128.873
G0 X108.292 Y128.955
G0 X108.248 Y129.041
G0 X108.145 Y129.335
G0 X108.113 Y129.518
G0 X108.100 Y129.609
G0 X108.100 Y130.981
G0 X108.548 Y130.893
G0 X108.677 Y130.844
G0 X109.153 Y130.844
G0 X109.104 Y132.047
G0 F3000 E9.52533
;segType:HShell
G1 X108.801 Y131.743 E9.54888 F1799
G0 X109.147 Y131.524 F7200
G1 X110.798 Y133.174 E9.67696 F1799
G0 X110.798 Y132.609 F7200
G1 X109.713 Y131.524 E9.76114 F1799
G0 X110.279 Y131.524 F7200
G1 X110.798 Y132.043 E9.80142 F1799
G0 F3000 E7.80142
G0 X111.478 Y133.201 F7200
G0 X111.478 Y135.164
G0 X112.631 Y135.164
G0 X113.215 Y136.158
G0 F3000 E10.80142
G1 X112.902 Y135.844 E10.82576 F1799
G0 X112.336 Y135.844 F7200
G1 X113.215 Y136.723 E10.89400 F1799
G0 X112.889 Y136.963 F7200
G1 X111.770 Y135.844 E10.98086 F1799
G0 X111.205 Y135.844 F7200
G1 X112.324 Y136.963 E11.06771 F1799
G0 X111.758 Y136.963 F7200
G1 X109.161 Y134.366 E11.26926 F1799
G0 X109.161 Y134.932 F7200
G1 X111.192 Y136.963 E11.42690 F1799
G0 X110.798 Y135.437 F7200
G1 X109.161 Y133.800 E11.55392 F1799
G0 X109.161 Y133.235 F7200
G1 X110.798 Y134.871 E11.68094 F1799
G0 X110.798 Y134.306 F7200
G1 X109.161 Y132.669 E11.80796 F1799
G0 X109.161 Y132.103 F7200
G1 X110.798 Y133.740 E11.93498 F1799
G0 F3000 E9.93498
G0 X110.833 Y130.844 F7200
G0 X108.677 Y130.844
G0 X108.548 Y130.893
G0 X108.100 Y130.981
G0 X108.100 Y129.609
G0 X108.113 Y129.518
G0 X108.145 Y129.335
G0 X108.248 Y129.041
G0 X108.292 Y128.955
G0 X108.339 Y128.873
G0 X108.388 Y128.793
G0 X108.435 Y128.711
G0 X108.490 Y128.636
G0 X108.623 Y128.640
G0 X108.819 Y128.467
G0 X109.146 Y128.229
G0 X109.479 Y128.015
G0 X110.008 Y127.707
G0 X110.466 Y127.971
G0 X110.864 Y128.231
G0 X110.883 Y126.700
G0 X110.873 Y126.562
G0 X110.810 Y126.465
G0 X110.900 Y125.257
G0 F3000 E12.93498
;segType:SoftSupport
G1 X110.900 Y124.265 E12.95974 F2480
G0 X110.900 Y124.265 F7200
;segType:SupportTouch
G1 X110.900 Y123.500 E12.98453 F2480
G0 X110.900 Y123.500 F7200
G1 X109.100 Y123.500 E13.04290 F2480
G1 X109.100 Y124.250 E13.06722
G0 X109.100 Y124.250 F7200
;segType:SoftSupport
G1 X109.100 Y125.257 E13.09234 F2480
; ------------------------------------
; Layer #11
; ------------------------------------
G92 E0 ;reset extr
G0 F3000 E-2.00000
G0 F600 Z3.600
G0 X110.900 Y118.100 F7200
G0 F3000 E1.00000
;segType:Support
G1 X109.100 Y118.100 E1.05837 F2647
G0 X109.100 Y112.700 F7200
G1 X110.900 Y112.700 E1.11674 F2647
G1 X110.900 Y110.900 E1.17512
G1 X109.100 Y110.900 E1.23349
G1 X109.100 Y109.100 E1.29186
G1 X110.900 Y109.100 E1.35023
G1 X110.900 Y107.300 E1.40860
G1 X109.100 Y107.300 E1.46697
G1 X109.100 Y105.500 E1.52534
G1 X110.900 Y105.500 E1.58372
G0 X110.900 Y114.500 F7200
G1 X109.100 Y114.500 E1.64209 F2647
G1 X109.100 Y116.300 E1.70046
G1 X110.900 Y116.300 E1.75883
G0 X109.100 Y119.900 F7200
G1 X110.900 Y119.900 E1.81720 F2647
G1 X110.900 Y121.700 E1.87557
G1 X109.100 Y121.700 E1.93395
G0 F3000 E-0.06605
G0 X109.256 Y125.457 F7200
G0 X109.940 Y126.137
G0 F3000 E2.93395
;segType:HShell
G0 X109.807 Y125.987 F7200
G1 X110.008 Y126.634 E2.97196 F1208
G1 X110.179 Y127.029 E3.03097
G0 X109.242 Y127.901 F7200
;segType:Loop
G0 X109.324 Y127.821 F7200
G0 X109.484 Y127.643
G1 X109.529 Y127.493 E3.03880 F2013
G1 X109.529 Y125.929 E3.11681
G1 X109.645 Y125.857 E3.12362
G1 X110.330 Y125.857 E3.15783
G1 X110.488 Y125.929 E3.16647
G1 X110.488 Y127.500 E3.24482
G1 X110.673 Y127.666 E3.25722
G1 X110.536 Y127.642 E3.26417
G1 X110.458 Y127.559 E3.26977
G1 X110.399 Y127.456 E3.27656
G1 X110.000 Y127.331 E3.30676
G1 X109.614 Y127.465 E3.32713
G0 X109.556 Y127.568 F7200
G0 X109.478 Y127.652
G0 X109.407 Y127.743
G0 X109.324 Y127.821
G0 X108.930 Y127.818
G0 X109.954 Y127.826
;segType:Perimeter
G1 X109.173 Y128.299 E3.37268 F1208
G1 X108.788 Y128.581 E3.39649
G1 X108.606 Y128.753 E3.40895
G1 X108.477 Y128.753 E3.41826
G1 X108.421 Y128.826 E3.42457
G1 X108.365 Y128.900 E3.43054
G1 X108.325 Y128.988 E3.43655
G1 X108.281 Y129.074 E3.44226
G1 X108.237 Y129.159 E3.44778
G1 X108.201 Y129.252 E3.45304
G1 X108.127 Y129.518 E3.46573
G1 X108.113 Y129.609 E3.46989
G1 X108.100 Y129.701 E3.47402
G1 X108.100 Y132.169 E3.58466
G1 X108.100 Y132.261 E3.58807
G1 X108.100 Y132.352 E3.59069
G0 X108.100 Y132.261 F7200
G0 X108.100 Y132.169
G0 X108.100 Y129.701
G0 X108.113 Y129.609
G0 X108.127 Y129.518
G1 X108.131 Y129.426 E3.59476 F1208
G1 X108.163 Y129.335 E3.59958
G1 X108.204 Y129.243 E3.60492
G1 X108.245 Y129.152 E3.61059
G1 X108.258 Y129.061 E3.61556
G1 X108.322 Y128.969 E3.62219
G1 X108.385 Y128.878 E3.62940
G1 X108.447 Y128.786 E3.63727
G0 X108.365 Y128.900 F7200
G0 X108.421 Y128.826
G0 X108.477 Y128.753
G1 X108.457 Y128.603 E3.64481 F1208
G1 X108.627 Y128.286 E3.66277
G1 X109.087 Y127.575 E3.70501
G1 X109.129 Y127.435 E3.71230
G1 X109.129 Y125.775 E3.79513
G1 X109.167 Y125.495 E3.80923
G1 X109.256 Y125.457 E3.81407
G1 X110.719 Y125.457 E3.88705
G1 X110.867 Y125.586 E3.89686
G1 X110.888 Y125.768 E3.90597
G1 X110.888 Y127.439 E3.98935
G1 X110.932 Y127.579 E3.99668
G1 X111.300 Y128.139 E4.03010
G1 X111.487 Y128.452 E4.04830
G0 X111.509 Y128.705 F7200
G0 X111.566 Y128.778
G0 X111.616 Y128.857
G1 X111.576 Y128.786 E4.05393 F1208
G1 X111.641 Y128.878 E4.06090
G1 X111.674 Y128.969 E4.06698
G1 X111.725 Y129.061 E4.07308
G1 X111.775 Y129.152 E4.07878
G1 X111.826 Y129.243 E4.08412
G1 X111.844 Y129.335 E4.08875
G1 X111.863 Y129.426 E4.09325
G1 X111.882 Y129.518 E4.09760
G1 X111.902 Y129.609 E4.10182
G1 X111.916 Y129.701 E4.10597
G1 X111.916 Y132.169 E4.21661
G1 X111.925 Y132.261 E4.22021
G1 X111.933 Y132.352 E4.22320
G0 X111.925 Y132.261 F7200
G0 X111.916 Y132.169
G0 X111.916 Y129.701
G0 X111.902 Y129.609
G0 X111.844 Y129.335
G0 X111.751 Y129.110
G0 X111.706 Y129.026
G0 X111.660 Y128.943
G1 X111.616 Y128.857 E4.22971 F1208
G1 X111.566 Y128.778 E4.23625
G1 X111.509 Y128.705 E4.24307
G1 X111.370 Y128.715 E4.25003
G1 X111.034 Y128.432 E4.27195
G1 X110.371 Y128.004 E4.31134
G1 X110.057 Y127.825 E4.32934
G0 X109.954 Y127.826 F7200
G0 X109.173 Y128.299
G0 X108.788 Y128.581
G0 X108.636 Y128.725
G0 F3000 E2.32934
G0 X108.606 Y128.753 F7200
G0 X108.674 Y130.912
G0 X108.639 Y130.926
G0 X108.741 Y137.643
G0 X108.731 Y136.963
G0 F3000 E5.32934
;segType:HShell
G1 X110.730 Y134.964 E5.48451 F1799
G0 X110.730 Y134.398 F7200
G1 X108.165 Y136.963 E5.68359 F1799
G0 X107.599 Y136.963 F7200
G1 X108.718 Y135.844 E5.77044 F1799
G0 X108.153 Y135.844 F7200
G1 X107.034 Y136.963 E5.85729 F1799
G0 X106.509 Y136.922 F7200
G1 X107.587 Y135.844 E5.94099 F1799
G0 X107.021 Y135.844 F7200
G1 X106.509 Y136.357 E5.98079 F1799
G0 X104.054 Y137.643 F7200
G0 X104.054 Y137.324
G0 X105.828 Y137.324
G0 X105.828 Y137.443
;segType:Perimeter
G1 X105.828 Y137.264 E5.98973 F1799
G1 X105.828 Y135.164 E6.09450
G1 X108.548 Y135.164 E6.23020
G1 X108.548 Y131.044 E6.43576
G1 X108.589 Y130.948 E6.44094
G1 X108.674 Y130.912 E6.44557
G1 X111.282 Y130.912 E6.57567
G1 X111.410 Y131.033 E6.58450
G1 X111.410 Y135.164 E6.79058
G1 X114.172 Y135.164 E6.92834
G1 X114.172 Y137.324 E7.03611
G1 X115.946 Y137.324 E7.12463
G1 X115.946 Y137.643 E7.14056
G1 X104.054 Y137.643 E7.73384
G1 X104.054 Y137.324 E7.74977
G1 X105.768 Y137.324 E7.83529
G0 X105.828 Y137.264 F7200
G0 X105.828 Y135.664
G0 X106.228 Y136.224
;segType:Loop
G1 X106.228 Y135.564 E7.86823 F3000
G1 X108.948 Y135.564 E8.00392
G1 X108.948 Y131.415 E8.21091
G1 X108.959 Y131.312 E8.21610
G1 X110.902 Y131.312 E8.31303
G1 X111.010 Y131.415 E8.32050
G1 X111.010 Y135.564 E8.52749
G1 X113.772 Y135.564 E8.66526
G1 X113.772 Y137.243 E8.74904
G1 X106.228 Y137.243 E9.12537
G1 X106.228 Y136.424 E9.16624
G0 X109.296 Y136.963 F7200
;segType:HShell
G1 X110.730 Y135.529 E9.27751 F1799
G0 X110.981 Y135.844 F7200
G1 X109.862 Y136.963 E9.36437 F1799
G0 X110.428 Y136.963 F7200
G1 X111.547 Y135.844 E9.45122 F1799
G0 X112.112 Y135.844 F7200
G1 X110.993 Y136.963 E9.53807 F1799
G0 X111.559 Y136.963 F7200
G1 X112.678 Y135.844 E9.62492 F1799
G0 X113.244 Y135.844 F7200
G1 X112.125 Y136.963 E9.71177 F1799
G0 X112.690 Y136.963 F7200
G1 X113.491 Y136.162 E9.77394 F1799
G0 X113.491 Y136.728 F7200
G1 X113.256 Y136.963 E9.79221 F1799
G0 F3000 E7.79221
G0 X112.024 Y135.164 F7200
G0 X111.410 Y135.164
G0 X111.410 Y134.268
G0 X109.577 Y131.592
G0 F3000 E10.79221
G1 X109.228 Y131.940 E10.81922 F1799
G0 X109.228 Y132.505 F7200
G1 X110.142 Y131.592 E10.89013 F1799
G0 X110.691 Y131.608 F7200
G1 X109.228 Y133.071 E11.00367 F1799
G0 X109.228 Y133.637 F7200
G1 X110.730 Y132.135 E11.12021 F1799
G0 X110.730 Y132.701 F7200
G1 X109.228 Y134.202 E11.23675 F1799
G0 X109.228 Y134.768 F7200
G1 X110.730 Y133.267 E11.35329 F1799
G0 X110.730 Y133.832 F7200
G1 X109.228 Y135.334 E11.46983 F1799
G0 F3000 E9.46983
G0 X109.100 Y124.250 F7200
G0 F3000 E12.46983
;segType:SoftSupport
G1 X109.100 Y123.500 E12.48853 F2647
G1 X110.900 Y123.500 E12.53343
G0 X110.900 Y123.500 F7200
G1 X110.900 Y124.265 E12.55251 F2647
; ------------------------------------
; Layer #12
; ------------------------------------
G92 E0 ;reset extr
G0 F3000 E-2.00000
G0 F600 Z3.900
G0 X109.100 Y119.900 F7200
G0 F3000 E1.00000
;segType:Support
G1 X110.900 Y119.900 E1.05837 F3000
G1 X110.900 Y118.100 E1.11674
G1 X109.100 Y118.100 E1.17511
G1 X109.100 Y116.300 E1.23349
G1 X110.900 Y116.300 E1.29186
G1 X110.900 Y114.500 E1.35023
G1 X109.100 Y114.500 E1.40860
G1 X109.100 Y112.700 E1.46697
G1 X110.900 Y112.700 E1.52534
G1 X110.900 Y110.900 E1.58372
G1 X109.100 Y110.900 E1.64209
G0 X109.100 Y107.300 F7200
G1 X110.900 Y107.300 E1.70046 F3000
G1 X109.100 Y105.500 E1.78301
G1 X110.900 Y105.500 E1.84138
G0 X110.900 Y109.100 F7200
G1 X109.100 Y109.100 E1.89975 F3000
G0 E-0.10025
G0 X109.645 Y124.855 F7200
G0 X110.208 Y126.362
G0 F3000 E2.89975
;segType:HShell
G0 X110.008 Y126.445 F7200
G1 X110.008 Y125.597 E3.01589 F1387
G0 X110.208 Y126.928 F7200
G1 X109.809 Y126.529 E3.04686 F1387
G0 X109.529 Y127.584 F7200
G0 X109.368 Y127.866
G0 X109.287 Y127.946
;segType:Loop
G0 X109.368 Y127.866 F7200
G0 X109.529 Y127.584
G1 X109.529 Y124.901 E3.18075 F2311
G1 X109.645 Y124.855 E3.18697
G1 X110.330 Y124.860 E3.22118
G1 X110.488 Y124.901 E3.22930
G1 X110.488 Y127.583 E3.36315
G1 X110.643 Y127.859 E3.37890
G0 X110.725 Y127.938 F7200
G1 X110.643 Y127.859 E3.38232 F2311
G1 X110.565 Y127.775 E3.38650
G1 X110.483 Y127.695 E3.39159
G1 X110.424 Y127.592 E3.39765
G1 X110.277 Y127.578 E3.40740
G1 X110.007 Y127.417 E3.42310
G1 X109.732 Y127.583 E3.43913
G1 X109.588 Y127.601 E3.44635
G1 X109.529 Y127.704 E3.45402
G1 X109.446 Y127.782 E3.45974
G1 X109.368 Y127.866 E3.46481
G0 X109.446 Y127.782 F7200
G0 X109.529 Y127.704
G0 X109.588 Y127.601
G0 X109.732 Y127.583
G0 X110.007 Y127.417
G0 X110.277 Y127.578
G0 X110.349 Y127.585
G0 X110.488 Y127.545
G0 X110.641 Y127.501
;segType:Perimeter
G1 X109.956 Y127.914 E3.50472 F1387
G1 X109.205 Y128.368 E3.54852
G1 X108.683 Y128.759 E3.58103
G1 X108.512 Y128.787 E3.59393
G1 X108.457 Y128.862 E3.60045
G1 X108.402 Y128.937 E3.60663
G0 X108.358 Y129.021 F7200
G0 X108.313 Y129.105
G0 X108.267 Y129.190
G1 X108.169 Y129.426 E3.61951 F1387
G1 X108.147 Y129.518 E3.62418
G1 X108.128 Y129.609 E3.62866
G1 X108.112 Y129.701 E3.63291
G1 X108.100 Y129.792 E3.63703
G1 X108.100 Y131.255 E3.70260
G1 X108.099 Y131.346 E3.70661
G1 X108.097 Y131.438 E3.71043
G1 X108.095 Y131.529 E3.71405
G1 X108.102 Y131.621 E3.71727
G1 X108.096 Y131.604 E3.71795
G0 X108.102 Y131.621 F7200
G0 X108.095 Y131.529
G0 X108.099 Y131.346
G0 X108.100 Y131.255
G0 X108.100 Y129.792
G0 X108.112 Y129.701
G0 X108.128 Y129.609
G0 X108.147 Y129.518
G0 X108.169 Y129.426
G1 X108.192 Y129.335 E3.72274 F1387
G1 X108.238 Y129.243 E3.72837
G1 X108.288 Y129.152 E3.73443
G1 X108.321 Y129.061 E3.74011
G1 X108.381 Y128.969 E3.74714
G1 X108.420 Y128.878 E3.75363
G0 X108.402 Y128.937 F7200
G0 X108.457 Y128.862
G0 X108.512 Y128.787
G1 X108.480 Y128.627 E3.76181 F1387
G1 X108.723 Y128.219 E3.78546
G1 X109.086 Y127.668 E3.81839
G1 X109.129 Y127.525 E3.82583
G1 X109.129 Y124.768 E3.96339
G1 X109.155 Y124.581 E3.97282
G1 X109.256 Y124.451 E3.98101
G1 X110.810 Y124.464 E4.05855
G1 X110.870 Y124.581 E4.06508
G1 X110.888 Y124.764 E4.07426
G1 X110.888 Y127.528 E4.21215
G1 X110.925 Y127.658 E4.21891
G1 X111.444 Y128.466 E4.26681
G1 X111.551 Y128.664 E4.27803
G0 X111.528 Y128.816 F7200
G0 X111.584 Y128.889
G1 X111.528 Y128.786 E4.28634 F1387
G1 X111.572 Y128.878 E4.29336
G1 X111.635 Y128.969 E4.30039
G1 X111.699 Y129.061 E4.30674
G1 X111.738 Y129.152 E4.31237
G1 X111.794 Y129.243 E4.31797
G1 X111.820 Y129.335 E4.32285
G1 X111.858 Y129.426 E4.32754
G1 X111.874 Y129.518 E4.33213
G1 X111.890 Y129.609 E4.33654
G1 X111.905 Y129.701 E4.34078
G1 X111.916 Y129.792 E4.34490
G1 X111.916 Y131.255 E4.41047
G1 X111.915 Y131.346 E4.41445
G1 X111.912 Y131.438 E4.41820
G1 X111.909 Y131.529 E4.42172
G1 X111.920 Y131.621 E4.42471
G1 X111.933 Y131.712 E4.42710
G1 X111.925 Y131.652 E4.42893
G1 X111.908 Y131.539 E4.43330
G0 X111.909 Y131.529 F7200
G0 X111.915 Y131.346
G0 X111.916 Y131.255
G0 X111.916 Y129.792
G0 X111.905 Y129.701
G0 X111.874 Y129.518
G1 X111.771 Y129.220 E4.45079 F1387
G1 X111.728 Y129.133 E4.45631
G1 X111.679 Y129.053 E4.46205
G1 X111.630 Y128.973 E4.46814
G1 X111.584 Y128.889 E4.47474
G1 X111.528 Y128.816 E4.48148
G1 X111.395 Y128.820 E4.48811
G1 X111.266 Y128.701 E4.49684
G1 X110.730 Y128.314 E4.52981
G1 X110.059 Y127.914 E4.56880
G0 X109.956 Y127.914 F7200
G0 X109.205 Y128.368
G0 X108.683 Y128.759
G0 X108.614 Y128.770
G0 F3000 E2.56880
G0 X108.457 Y128.862 F7200
G0 X108.402 Y128.937
G0 X108.358 Y129.021
G0 X108.313 Y129.105
G0 X108.267 Y129.190
G0 X108.169 Y129.426
G0 X108.147 Y129.518
G0 X108.128 Y129.609
G0 X108.112 Y129.701
G0 X108.100 Y129.792
G0 X108.100 Y131.255
G0 X108.099 Y131.346
G0 X108.097 Y131.438
G0 X108.095 Y131.529
G0 X108.102 Y131.621
G0 X108.091 Y136.125
G0 F3000 E5.56880
;segType:HShell
G1 X107.810 Y135.844 E5.59058 F1173
G0 X107.245 Y135.844 F7200
G1 X108.091 Y136.690 E5.65627 F1173
G0 X107.798 Y136.963 F7200
G1 X106.679 Y135.844 E5.74312 F1173
G0 X106.268 Y135.999 F7200
G1 X107.232 Y136.963 E5.81796 F1173
G0 X106.667 Y136.963 F7200
G1 X106.268 Y136.564 E5.84890 F1173
G0 X105.988 Y136.224 F7200
;segType:Loop
G1 X105.988 Y135.564 E5.88184 F1955
G1 X108.371 Y135.564 E6.00074
G1 X108.371 Y137.243 E6.08452
G1 X105.988 Y137.243 E6.20342
G1 X105.988 Y136.424 E6.24429
G0 X103.881 Y137.643 F7200
G0 X103.881 Y137.324
G0 X105.588 Y137.324
G0 X105.588 Y137.443
;segType:Perimeter
G1 X105.588 Y137.264 E6.25323 F1173
G1 X105.588 Y135.164 E6.35801
G1 X108.771 Y135.164 E6.51682
G1 X108.771 Y137.643 E6.64051
G1 X103.881 Y137.643 E6.88450
G1 X103.881 Y137.324 E6.90042
G1 X105.528 Y137.324 E6.98260
G0 X105.588 Y137.264 F7200
G0 X105.588 Y135.664
G0 F3000 E4.98260
G0 X107.276 Y135.164 F7200
G0 X108.771 Y135.164
G0 X109.165 Y134.766
G0 X109.256 Y134.677
G0 X109.348 Y134.763
G0 X109.382 Y134.763
G0 X110.401 Y134.095
G0 X110.315 Y134.037
G0 X110.170 Y133.955
G0 X109.903 Y133.946
G0 X110.002 Y134.356
G0 F3000 E7.98260
;segType:Loop
G1 X109.988 Y134.356 E7.98333 F1200
G1 X109.873 Y134.377 E7.98933
G0 X109.759 Y134.424 F7200
G0 X109.732 Y134.501
G1 X109.661 Y134.462 E7.99336 F1200
G1 X109.777 Y134.416 E7.99649
G1 X109.893 Y134.371 E8.00105
G1 X110.029 Y134.346 E8.00771
G1 X109.988 Y134.356 E8.01005
G0 X110.102 Y134.358 F7200
G0 X109.982 Y134.338
G1 X110.108 Y134.374 E8.01740 F1200
G1 X110.225 Y134.418 E8.02333
G1 X110.216 Y134.404 E8.02393
G0 X109.689 Y134.035 F7200
G0 X110.729 Y134.763
;segType:Perimeter
G1 X109.348 Y134.763 E8.09284 F719
G1 X109.256 Y134.677 E8.10176
G1 X109.165 Y134.766 E8.10801
G1 X109.209 Y134.729 E8.11087
G1 X109.243 Y134.608 E8.11714
G1 X109.342 Y134.399 E8.12870
G1 X109.435 Y134.262 E8.13698
G1 X109.669 Y134.043 E8.15293
G1 X109.903 Y133.946 E8.16558
G1 X110.170 Y133.955 E8.17893
G1 X110.315 Y134.037 E8.18723
G1 X110.422 Y134.109 E8.19364
G1 X110.551 Y134.243 E8.20293
G1 X110.679 Y134.436 E8.21451
G1 X110.702 Y134.684 E8.23182
G1 X110.780 Y134.735 E8.23712
G1 X110.799 Y134.819 E8.24141
G0 X110.729 Y134.763 F7200
G0 X109.348 Y134.763
G0 X109.256 Y134.677
G0 X109.189 Y134.742
G0 F3000 E6.24141
G0 X109.192 Y134.743 F7200
G0 X109.165 Y134.766
G0 X109.256 Y134.677
G0 X109.348 Y134.763
G0 X110.789 Y134.763
G0 X110.799 Y134.821
G0 X111.629 Y135.564
G0 X112.492 Y135.564
G0 X114.012 Y136.232
G0 X113.732 Y136.109
G0 F3000 E9.24141
;segType:HShell
G1 X113.467 Y135.844 E9.26195 F1193
G0 X113.378 Y135.564 F7200
G0 X113.913 Y137.243
G0 X113.732 Y136.674
G1 X112.902 Y135.844 E9.32639 F1193
G0 X111.909 Y136.548 F7200
G1 X112.324 Y136.963 E9.35857 F1193
G0 X112.889 Y136.963 F7200
G1 X111.909 Y135.983 E9.43466 F1193
G0 X112.336 Y135.844 F7200
G1 X113.455 Y136.963 E9.52151 F1193
G0 X113.912 Y137.243 F7200
;segType:Loop
G1 X111.629 Y137.243 E9.63543 F1989
G1 X111.629 Y135.564 E9.71921
G1 X114.012 Y135.564 E9.83811
G1 X114.012 Y137.143 E9.91690
G0 X114.012 Y137.143 F7200
G0 X113.824 Y137.243
G0 X113.672 Y137.324
;segType:Perimeter
G1 X114.472 Y137.324 E9.95681 F1193
G1 X116.119 Y137.324 E10.03899
G1 X116.119 Y137.643 E10.05492
G1 X111.229 Y137.643 E10.29890
G1 X111.229 Y135.164 E10.42259
G1 X114.412 Y135.164 E10.58141
G1 X114.412 Y137.264 E10.68618
G0 X114.472 Y137.324 F7200
G0 X116.072 Y137.324
G0 F3000 E8.68618
G0 X114.412 Y137.324 F7200
G0 X114.412 Y135.164
G0 X111.229 Y135.164
G0 X110.900 Y121.700
G0 F3000 E11.68618
;segType:Support
G1 X109.100 Y121.700 E11.74455 F3000
; ------------------------------------
; Layer #13
; ------------------------------------
G92 E0 ;reset extr
G0 F3000 E-2.00000
G0 F600 Z4.200
G0 X109.100 Y118.100 F7200
G0 F3000 E1.00000
;segType:Support
G1 X110.900 Y118.100 E1.05837 F3000
G0 X110.900 Y119.900 F7200
;segType:SupportTouch
G1 X110.900 Y121.245 E1.10197 F3000
G0 E-0.89803
G0 X111.943 Y135.164 F7200
G0 X112.678 Y135.844
G0 F3000 E2.10197
;segType:HShell
G1 X112.623 Y135.899 E2.10622 F1171
G0 X113.244 Y135.844 F7200
G1 X112.623 Y136.464 E2.15438 F1171
G0 X112.690 Y136.963 F7200
G1 X113.810 Y135.844 E2.24123 F1171
G0 X113.942 Y136.277 F7200
G1 X113.256 Y136.963 E2.29445 F1171
G0 X113.942 Y136.843 F7200
G1 X113.822 Y136.963 E2.30377 F1171
G0 F3000 E0.30377
G0 X114.122 Y137.243 F7200
G0 F3000 E3.30377
;segType:Loop
G1 X112.343 Y137.243 E3.39251 F1951
G1 X112.343 Y135.564 E3.47629
G1 X114.222 Y135.564 E3.57003
G1 X114.222 Y137.143 E3.64882
G0 F3000 E1.64882
G0 X113.882 Y137.324 F7200
G0 F3000 E4.64882
;segType:Perimeter
G1 X114.682 Y137.324 E4.68873 F1171
G1 X116.274 Y137.324 E4.76815
G1 X116.274 Y137.643 E4.78407
G1 X111.943 Y137.643 E5.00013
G1 X111.943 Y135.164 E5.12382
G1 X114.622 Y135.164 E5.25747
G1 X114.622 Y137.264 E5.36224
G0 X114.682 Y137.324 F7200
G0 X116.274 Y137.324
G0 X116.274 Y137.332
G0 F3000 E3.36224
G0 X116.274 Y137.332 F7200
G0 X116.259 Y137.324
G0 X114.622 Y137.324
G0 X114.622 Y136.421
G0 X112.341 Y135.164
G0 X111.943 Y135.164
G0 X111.520 Y134.763
G0 X111.138 Y134.501
G0 F3000 E6.36224
;segType:Loop
G1 X111.059 Y134.230 E6.37121 F1200
G0 X111.007 Y134.121 F7200
G0 X110.890 Y133.915
G0 X110.821 Y133.822
G0 X110.744 Y133.738
G0 X110.665 Y133.655
G1 X110.330 Y133.549 E6.38873 F1200
G1 X109.911 Y133.473 E6.40998
G1 X109.645 Y133.547 E6.42377
G0 X109.338 Y133.654 F7200
G0 X109.263 Y133.741
G0 X109.111 Y133.912
G1 X109.050 Y134.013 E6.42822 F1200
G1 X108.995 Y134.119 E6.43241
G1 X108.939 Y134.225 E6.43626
G1 X108.884 Y134.386 E6.44166
G1 X108.875 Y134.501 E6.44591
G1 X108.845 Y134.442 E6.44792
G0 X108.875 Y134.501 F7200
G0 X108.884 Y134.386
G0 X108.913 Y134.272
G0 X108.975 Y134.158
G0 X109.007 Y134.043
G0 X109.096 Y133.929
G1 X109.111 Y133.912 E6.44888 F1200
G1 X109.187 Y133.827 E6.45433
G1 X109.263 Y133.741 E6.46045
G1 X109.338 Y133.654 E6.46731
G1 X109.413 Y133.567 E6.47422
G1 X109.511 Y133.504 E6.48229
G1 X109.577 Y133.308 E6.49261
G1 X109.693 Y133.214 E6.50007
G1 X109.854 Y133.133 E6.50903
G1 X110.017 Y133.109 E6.51727
G1 X110.303 Y133.209 E6.53239
G1 X110.434 Y133.316 E6.54082
G1 X110.497 Y133.499 E6.55432
G1 X110.598 Y133.561 E6.56124
G1 X110.665 Y133.655 E6.56806
G1 X110.744 Y133.738 E6.57413
G1 X110.821 Y133.822 E6.57949
G1 X110.890 Y133.915 E6.58435
G1 X110.948 Y134.018 E6.58903
G1 X111.007 Y134.121 E6.59338
G0 X111.024 Y134.158 F7200
G0 X111.080 Y134.272
G0 X111.135 Y134.386
G1 X111.138 Y134.501 E6.59707 F1200
G0 X111.517 Y134.734 F7200
G0 X110.630 Y134.187
G0 X110.596 Y134.138
G0 X110.336 Y133.956
G0 X110.222 Y133.936
G0 X110.630 Y134.187
;segType:Perimeter
G1 X110.811 Y134.447 E6.61283 F719
G1 X110.628 Y134.783 E6.63001
G1 X109.348 Y134.783 E6.68733
G1 X109.215 Y134.404 E6.70739
G1 X109.355 Y134.189 E6.72020
G1 X109.671 Y133.954 E6.73982
G1 X109.930 Y133.883 E6.75322
G1 X110.336 Y133.956 E6.77381
G1 X110.547 Y134.104 E6.78663
G0 X110.630 Y134.187 F7200
G0 X110.811 Y134.447
G0 X110.628 Y134.783
G0 X109.727 Y134.783
G0 X110.628 Y134.783
G0 X110.811 Y134.447
G0 X110.690 Y134.273
G0 X111.308 Y133.945
G0 X111.173 Y134.016
G1 X111.460 Y134.763 E6.82654 F719
G1 X110.719 Y134.763 E6.86352
G0 X110.628 Y134.783 F7200
G0 X109.348 Y134.783
G1 X109.256 Y134.763 E6.86819 F719
G1 X108.483 Y134.763 E6.90678
G1 X108.514 Y134.501 E6.91996
G1 X108.596 Y134.199 E6.93558
G1 X108.767 Y133.773 E6.95848
G1 X108.994 Y133.379 E6.98113
G1 X109.296 Y133.021 E7.00453
G1 X109.475 Y132.876 E7.01600
G1 X109.731 Y132.747 E7.03030
G1 X110.035 Y132.702 E7.04564
G1 X110.350 Y132.777 E7.06179
G1 X110.533 Y132.880 E7.07229
G1 X110.709 Y133.023 E7.08359
G1 X110.888 Y133.218 E7.09679
G1 X111.048 Y133.440 E7.11045
G1 X111.193 Y133.692 E7.12495
G1 X111.332 Y133.996 E7.14164
G1 X111.420 Y134.247 E7.15489
G1 X111.498 Y134.555 E7.17077
G1 X111.514 Y134.703 E7.17820
G0 X111.460 Y134.763 F7200
G0 X110.719 Y134.763
G0 X110.628 Y134.783
G0 X109.862 Y134.783
G0 F3000 E5.17820
G0 X109.348 Y134.783 F7200
G0 X109.223 Y134.426
G0 X109.862 Y134.783
G0 X110.628 Y134.783
G0 X110.719 Y134.763
G0 X110.900 Y135.363
G0 F3000 E8.17820
;segType:SoftSupport
G1 X110.900 Y136.100 E8.19657 F3000
G1 X109.100 Y136.100 E8.24147
G1 X109.100 Y135.363 E8.25985
G0 E6.25985
G0 X107.657 Y135.564 F7200
G0 X107.657 Y135.626
G0 X105.778 Y135.967
G0 X106.456 Y135.844
G0 F3000 E9.25985
;segType:HShell
G1 X106.058 Y136.241 E9.29070 F1013
G0 X105.778 Y136.161 F7200
G0 X107.657 Y136.700
G0 X107.377 Y136.620
G1 X107.034 Y136.963 E9.31732 F1013
G0 X106.468 Y136.963 F7200
G1 X107.377 Y136.054 E9.38785 F1013
G0 X107.021 Y135.844 F7200
G1 X106.058 Y136.807 E9.46260 F1013
G0 X105.778 Y136.224 F7200
;segType:Loop
G1 X105.778 Y135.564 E9.49553 F1689
G1 X107.657 Y135.564 E9.58927
G1 X107.657 Y137.243 E9.67305
G1 X105.778 Y137.243 E9.76678
G1 X105.778 Y136.424 E9.80765
G0 X105.778 Y137.243 F7200
G0 X105.378 Y137.443
;segType:Perimeter
G1 X105.378 Y137.264 E9.81659 F1013
G1 X105.378 Y135.164 E9.92137
G1 X108.057 Y135.164 E10.05501
G1 X108.057 Y137.643 E10.17871
G1 X103.726 Y137.643 E10.39476
G1 X103.726 Y137.324 E10.41068
G1 X105.318 Y137.324 E10.49010
G0 X105.378 Y137.264 F7200
G0 X105.378 Y135.664
G0 F3000 E8.49010
G0 X105.378 Y135.664 F7200
G0 X105.588 Y135.164
G0 X108.057 Y135.164
G0 X109.249 Y128.070
G0 X109.331 Y127.990
G0 X109.413 Y127.910
G0 X109.481 Y127.825
G0 X109.482 Y127.818
G0 X109.535 Y127.758
G0 X109.529 Y127.643
G0 X109.529 Y127.577
G0 X110.253 Y123.842
G0 X110.185 Y124.195
G0 F3000 E11.49010
;segType:HShell
G0 X109.991 Y124.106 F7200
G1 X110.008 Y124.937 E11.59955 F1452
G1 X110.008 Y125.503 E11.67698
G1 X110.008 Y126.069 E11.75440
G1 X110.008 Y126.634 E11.83182
G1 X110.026 Y127.182 E11.90700
G0 X109.249 Y128.070 F7200
;segType:Loop
G0 X109.331 Y127.990 F7200
G0 X109.535 Y127.758
G1 X109.529 Y127.643 E11.91349 F2420
G1 X109.529 Y123.872 E12.10165
G1 X109.645 Y123.842 E12.10762
G1 X110.330 Y123.842 E12.14183
G1 X110.488 Y123.872 E12.14984
G1 X110.488 Y127.643 E12.33799
G1 X110.483 Y127.758 E12.34370
G1 X110.680 Y127.983 E12.36070
G0 X110.762 Y128.063 F7200
G1 X110.680 Y127.983 E12.36377 F2420
G1 X110.597 Y127.904 E12.36760
G0 X110.526 Y127.813 F7200
G0 X110.451 Y127.727
G0 X110.392 Y127.624
G0 X110.007 Y127.507
G1 X109.620 Y127.633 E12.38792 F2420
G0 X109.561 Y127.736 F7200
G0 X109.485 Y127.821
G0 X109.413 Y127.910
G0 X109.331 Y127.990
G0 X109.413 Y127.910
G0 X109.485 Y127.821
G0 X109.561 Y127.736
G0 X109.620 Y127.633
G0 X110.007 Y127.507
G0 X110.392 Y127.624
G0 X110.414 Y127.663
G0 X110.488 Y127.640
G0 X110.643 Y127.593
;segType:Perimeter
G1 X109.957 Y128.004 E12.42783 F1452
G1 X109.272 Y128.413 E12.46763
G1 X108.865 Y128.699 E12.49245
G1 X108.626 Y128.901 E12.50807
G1 X108.493 Y128.898 E12.51779
G1 X108.439 Y128.973 E12.52430
G0 X108.392 Y129.056 F7200
G0 X108.342 Y129.135
G0 X108.296 Y129.218
G0 X108.251 Y129.302
G0 X108.207 Y129.388
G0 X108.178 Y129.488
G1 X108.121 Y129.701 E12.53443 F1452
G1 X108.109 Y129.792 E12.53860
G1 X108.104 Y129.883 E12.54261
G1 X108.103 Y129.975 E12.54659
G1 X108.103 Y130.066 E12.55055
G1 X108.102 Y130.158 E12.55448
G1 X108.101 Y130.249 E12.55838
G1 X108.100 Y130.341 E12.56225
G1 X108.099 Y130.432 E12.56610
G1 X108.102 Y130.523 E12.56964
G1 X108.101 Y130.615 E12.57256
G1 X108.100 Y130.706 E12.57486
G0 X108.102 Y130.523 F7200
G0 X108.099 Y130.432
G0 X108.104 Y129.883
G0 X108.109 Y129.792
G0 X108.121 Y129.701
G1 X108.139 Y129.609 E12.57914 F1452
G1 X108.168 Y129.518 E12.58381
G1 X108.190 Y129.426 E12.58846
G1 X108.229 Y129.335 E12.59390
G1 X108.271 Y129.243 E12.59937
G1 X108.330 Y129.152 E12.60583
G1 X108.372 Y129.061 E12.61190
G1 X108.438 Y128.969 E12.61949
G1 X108.504 Y128.878 E12.62784
G0 X108.439 Y128.973 F7200
G0 X108.493 Y128.898
G1 X108.470 Y128.746 E12.63554 F1452
G1 X108.606 Y128.498 E12.64963
G1 X109.085 Y127.758 E12.69359
G1 X109.129 Y127.623 E12.70067
G1 X109.129 Y123.758 E12.89352
G1 X109.160 Y123.483 E12.90730
G1 X109.256 Y123.442 E12.91250
G1 X110.810 Y123.442 E12.99005
G1 X110.867 Y123.575 E12.99724
G1 X110.888 Y123.758 E13.00642
G1 X110.888 Y127.620 E13.19909
G1 X110.927 Y127.751 E13.20596
G1 X111.330 Y128.365 E13.24256
G1 X111.536 Y128.719 E13.26298
G0 X111.538 Y128.935 F7200
G0 X111.644 Y129.087
G0 X111.696 Y129.165
G0 X111.743 Y129.248
G1 X111.698 Y129.152 E13.26949 F1452
G1 X111.751 Y129.243 E13.27527
G1 X111.780 Y129.335 E13.28042
G1 X111.822 Y129.426 E13.28541
G1 X111.850 Y129.518 E13.29007
G1 X111.883 Y129.609 E13.29467
G1 X111.896 Y129.701 E13.29892
G1 X111.907 Y129.792 E13.30308
G1 X111.916 Y129.883 E13.30719
G1 X111.915 Y129.975 E13.31126
G1 X111.914 Y130.066 E13.31529
G1 X111.913 Y130.158 E13.31931
G1 X111.911 Y130.249 E13.32329
G1 X111.912 Y130.341 E13.32720
G1 X111.916 Y130.432 E13.33097
G1 X111.919 Y130.523 E13.33462
G1 X111.919 Y130.514 E13.33501
G1 X111.902 Y130.626 E13.33877
G1 X111.904 Y130.615 E13.33915
G0 X111.919 Y130.523 F7200
G0 X111.912 Y130.341
G0 X111.911 Y130.249
G0 X111.916 Y129.883
G0 X111.907 Y129.792
G0 X111.896 Y129.701
G0 X111.853 Y129.526
G0 X111.819 Y129.430
G0 X111.786 Y129.334
G1 X111.743 Y129.248 E13.34476 F1452
G1 X111.696 Y129.165 E13.35047
G1 X111.644 Y129.087 E13.35641
G1 X111.591 Y129.011 E13.36272
G1 X111.538 Y128.935 E13.36941
G1 X111.410 Y128.934 E13.37580
G1 X111.247 Y128.774 E13.38718
G1 X110.703 Y128.386 E13.42052
G1 X110.060 Y128.004 E13.45787
G0 X109.957 Y128.004 F7200
G0 X109.272 Y128.413
G0 X108.865 Y128.699
G0 X108.632 Y128.896
G0 F3000 E11.45787
G0 X108.632 Y128.896 F7200
G0 X108.872 Y128.087
G0 X109.085 Y127.758
G0 X109.129 Y127.623
G0 X109.129 Y127.220
G0 X110.249 Y123.442
G0 X110.810 Y123.442
G0 X110.900 Y121.245
G0 F3000 E14.45787
;segType:SoftSupport
G1 X110.900 Y121.700 E14.46923 F3000
G1 X109.100 Y121.700 E14.51413
G1 X109.100 Y121.227 E14.52592
G0 X109.100 Y121.227 F7200
;segType:SupportTouch
G1 X109.100 Y119.900 E14.56896 F3000
G1 X110.900 Y119.900 E14.62734
G0 E12.62734
G0 X110.900 Y114.500 F7200
G0 F3000 E15.62734
;segType:Support
G1 X109.100 Y114.500 E15.68571 F3000
G1 X109.100 Y112.700 E15.74408
G1 X110.900 Y112.700 E15.80245
G0 X110.900 Y109.100 F7200
G1 X109.100 Y109.100 E15.86082 F3000
G0 X110.900 Y105.500 F7200
G1 X109.100 Y105.500 E15.91919 F3000
G1 X109.100 Y107.300 E15.97756
G1 X110.900 Y107.300 E16.03594
G0 X110.900 Y110.900 F7200
G1 X109.100 Y110.900 E16.09431 F3000
G0 X110.900 Y116.300 F7200
G1 X109.100 Y116.300 E16.15268 F3000
; ------------------------------------
; Layer #14
; ------------------------------------
G92 E0 ;reset extr
G0 F3000 E-2.00000
G0 F600 Z4.500
G0 X110.900 Y114.500 F7200
G0 F3000 E1.00000
;segType:Support
G1 X109.100 Y114.500 E1.05837 F3000
G1 X109.100 Y112.700 E1.11674
G1 X110.900 Y112.700 E1.17511
G0 X109.100 Y109.100 F7200
G1 X110.900 Y109.100 E1.23349 F3000
G0 X110.900 Y105.500 F7200
G1 X109.100 Y105.500 E1.29186 F3000
G1 X109.100 Y107.300 E1.35023
G1 X110.900 Y107.300 E1.40860
G0 X110.900 Y110.900 F7200
G1 X109.100 Y110.900 E1.46697 F3000
G0 E-0.53303
G0 X110.900 Y119.900 F7200
G0 F3000 E2.46697
;segType:SupportTouch
G1 X109.100 Y119.900 E2.52534 F3000
G1 X109.100 Y120.220 E2.53571
G0 X109.100 Y120.220 F7200
;segType:SoftSupport
G1 X109.100 Y121.227 E2.56084 F3000
G0 E0.56084
G0 X107.200 Y135.564 F7200
G0 X106.920 Y136.085
G0 F3000 E3.56084
;segType:HShell
G1 X106.679 Y135.844 E3.57956 F950
G0 X106.595 Y135.564 F7200
G0 X107.097 Y137.243
G0 X106.920 Y136.651
G1 X106.113 Y135.844 E3.64217 F950
G0 X105.875 Y136.171 F7200
G1 X106.667 Y136.963 E3.70362 F950
G0 X107.200 Y137.115 F7200
G0 X105.595 Y136.657
G0 X105.875 Y136.737
G1 X106.101 Y136.963 E3.72116 F950
G0 X106.293 Y137.243 F7200
G0 X105.595 Y136.224
G0 X105.595 Y136.224
;segType:Loop
G1 X105.595 Y135.564 E3.75409 F1583
G1 X107.200 Y135.564 E3.83419
G1 X107.200 Y137.243 E3.91797
G1 X105.595 Y137.243 E3.99806
G1 X105.595 Y136.424 E4.03893
G0 X105.595 Y137.243 F7200
G0 X105.195 Y137.443
;segType:Perimeter
G1 X105.195 Y137.264 E4.04787 F950
G1 X105.195 Y135.164 E4.15265
G1 X107.600 Y135.164 E4.27265
G1 X107.600 Y137.643 E4.39635
G1 X103.589 Y137.643 E4.59649
G1 X103.589 Y137.324 E4.61242
G1 X105.135 Y137.324 E4.68956
G0 X105.195 Y137.264 F7200
G0 X105.195 Y135.664
G0 F3000 E2.68956
G0 X105.595 Y135.633 F7200
G0 X106.495 Y135.564
G0 X107.200 Y135.564
G0 X109.100 Y135.363
G0 F3000 E5.68956
;segType:SupportTouch
G1 X109.100 Y136.100 E5.71345 F3000
G1 X110.900 Y136.100 E5.77183
G1 X110.900 Y135.363 E5.79572
G0 E3.79572
G0 X112.400 Y135.164 F7200
G0 X112.400 Y135.893
G0 X114.805 Y136.742
G0 X114.125 Y136.502
G0 F3000 E6.79572
;segType:HShell
G1 X113.467 Y135.844 E6.84676 F1032
G0 X114.033 Y135.844 F7200
G1 X114.125 Y135.936 E6.85390 F1032
G0 X114.203 Y135.164 F7200
G0 X113.952 Y137.643
G0 X114.021 Y136.963
G1 X113.080 Y136.022 E6.92692 F1032
G0 X113.080 Y136.588 F7200
G1 X113.455 Y136.963 E6.95603 F1032
G0 X114.305 Y137.243 F7200
;segType:Loop
G1 X112.800 Y137.243 E7.03114 F1720
G1 X112.800 Y135.564 E7.11492
G1 X114.405 Y135.564 E7.19501
G1 X114.405 Y137.143 E7.27380
G0 F3000 E5.27380
G0 X114.065 Y137.324 F7200
G0 F3000 E8.27380
;segType:Perimeter
G1 X114.865 Y137.324 E8.31372 F1032
G1 X116.411 Y137.324 E8.39086
G1 X116.411 Y137.643 E8.40679
G1 X112.400 Y137.643 E8.60693
G1 X112.400 Y135.164 E8.73062
G1 X114.805 Y135.164 E8.85063
G1 X114.805 Y137.264 E8.95540
G0 X114.865 Y137.324 F7200
G0 X116.411 Y137.324
G0 X116.411 Y137.378
G0 F3000 E6.95540
G0 X116.411 Y137.378 F7200
G0 X116.350 Y137.324
G0 X114.805 Y137.324
G0 X114.805 Y135.980
G0 X113.867 Y135.164
G0 X112.400 Y135.164
G0 X111.986 Y134.763
G0 X111.979 Y134.644
G0 X110.829 Y132.521
G0 F3000 E9.95540
;segType:Loop
G1 X110.738 Y132.450 E9.95898 F1694
G1 X110.643 Y132.384 E9.96327
G1 X110.547 Y132.318 E9.96826
G1 X110.446 Y132.257 E9.97381
G1 X110.216 Y132.160 E9.98777
G1 X110.102 Y132.134 E9.99487
G1 X109.988 Y132.129 E10.00166
G1 X109.873 Y132.141 E10.00827
G1 X109.759 Y132.159 E10.01495
G1 X109.645 Y132.210 E10.02119
G1 X109.456 Y132.317 E10.03020
G1 X109.358 Y132.382 E10.03454
G1 X109.264 Y132.449 E10.03826
G1 X109.174 Y132.520 E10.04123
G0 X109.264 Y132.449 F7200
G0 X109.358 Y132.382
G0 X109.456 Y132.317
G1 X109.549 Y132.249 E10.04635 F1694
G1 X109.665 Y132.203 E10.05267
G1 X109.771 Y132.147 E10.05874
G1 X109.905 Y132.120 E10.06697
G0 X109.759 Y132.159 F7200
G0 X109.873 Y132.141
G0 X109.988 Y132.129
G0 X110.102 Y132.134
G0 X110.216 Y132.160
G1 X110.330 Y132.187 E10.07308 F1694
G1 X110.226 Y132.155 E10.07938
G1 X110.345 Y132.197 E10.08560
G0 X110.446 Y132.257 F7200
G0 X110.547 Y132.318
G0 X110.738 Y132.450
G0 X110.829 Y132.521
G0 X111.847 Y133.973
G0 X111.738 Y133.614
G0 X111.608 Y133.788
;segType:Perimeter
G1 X111.662 Y134.386 E10.11554 F1016
G1 X111.698 Y134.546 E10.12376
G1 X111.450 Y134.783 E10.13912
G1 X108.525 Y134.783 E10.27016
G1 X108.302 Y134.546 E10.28639
G1 X108.354 Y134.316 E10.29819
G1 X108.481 Y133.937 E10.31810
G1 X108.734 Y133.435 E10.34615
G1 X108.920 Y133.171 E10.36225
G1 X109.104 Y132.969 E10.37590
G1 X109.337 Y132.779 E10.39091
G1 X109.700 Y132.606 E10.41098
G1 X109.947 Y132.565 E10.42343
G1 X110.227 Y132.587 E10.43745
G1 X110.635 Y132.759 E10.45955
G1 X110.863 Y132.936 E10.47396
G1 X111.078 Y133.167 E10.48971
G1 X111.251 Y133.410 E10.50461
G1 X111.436 Y133.748 E10.52381
G1 X111.628 Y134.271 E10.55160
G0 X111.662 Y134.386 F7200
G0 X111.698 Y134.546
G0 X111.450 Y134.783
G0 X110.358 Y134.783
G0 X110.358 Y134.783
G0 X111.450 Y134.783
G0 X111.698 Y134.546
G0 X111.649 Y134.327
G0 X111.556 Y134.074
G0 X111.829 Y133.912
G0 X111.847 Y133.973
G0 X111.673 Y134.004
G1 X111.926 Y134.763 E10.59152 F1016
G1 X111.542 Y134.763 E10.61070
G0 X111.450 Y134.783 F7200
G0 X108.525 Y134.783
G1 X108.433 Y134.763 E10.61538 F1016
G1 X108.021 Y134.763 E10.63594
G1 X108.054 Y134.420 E10.65316
G1 X108.211 Y133.775 E10.68624
G1 X108.351 Y133.379 E10.70723
G1 X108.599 Y132.845 E10.73659
G1 X108.869 Y132.414 E10.76197
G1 X109.061 Y132.179 E10.77709
G1 X109.372 Y131.900 E10.79795
G1 X109.690 Y131.734 E10.81586
G1 X110.027 Y131.679 E10.83286
G1 X110.195 Y131.699 E10.84130
G1 X110.477 Y131.805 E10.85635
G1 X110.765 Y132.006 E10.87387
G1 X111.062 Y132.321 E10.89548
G1 X111.344 Y132.739 E10.92061
G1 X111.590 Y133.231 E10.94807
G1 X111.738 Y133.614 E10.96856
G1 X111.847 Y133.973 E10.98726
G1 X111.932 Y134.336 E11.00589
G1 X111.979 Y134.644 E11.02143
G1 X111.983 Y134.703 E11.02437
G0 X111.926 Y134.763 F7200
G0 X111.542 Y134.763
G0 X111.450 Y134.783
G0 X110.329 Y134.783
G0 F3000 E9.02437
G0 X111.450 Y134.783 F7200
G0 X111.698 Y134.546
G0 X111.649 Y134.327
G0 X111.436 Y133.748
G0 X111.251 Y133.410
G0 X111.078 Y133.167
G0 X110.863 Y132.936
G0 X110.635 Y132.759
G0 X110.305 Y132.620
G0 X110.296 Y131.737
G0 X110.195 Y131.699
G0 X110.027 Y131.679
G0 X110.266 Y127.751
G0 X110.116 Y127.664
G0 X110.223 Y122.835
G0 X110.208 Y123.534
G0 F3000 E12.02437
;segType:HShell
G0 X110.027 Y123.070 F7200
G1 X110.008 Y123.900 E12.13323 F1631
G1 X110.008 Y124.465 E12.21065
G1 X110.008 Y125.031 E12.28807
G1 X110.008 Y125.597 E12.36550
G1 X110.008 Y126.163 E12.44292
G1 X110.008 Y126.728 E12.52035
G1 X109.899 Y127.185 E12.58476
G0 X109.294 Y128.115 F7200
;segType:Loop
G0 X109.377 Y128.036 F7200
G0 X109.515 Y127.872
G1 X109.529 Y127.766 E12.59052 F2719
G1 X109.529 Y122.843 E12.83612
G1 X109.645 Y122.835 E12.84192
G1 X110.330 Y122.835 E12.87613
G1 X110.488 Y122.843 E12.88401
G1 X110.488 Y127.763 E13.12946
G1 X110.505 Y127.872 E13.13495
G1 X110.731 Y128.094 E13.15193
G1 X110.632 Y128.031 E13.15494
G1 X110.560 Y127.941 E13.15897
G0 X110.478 Y127.862 F7200
G0 X110.419 Y127.759
G0 X110.266 Y127.751
G1 X110.003 Y127.599 E13.17411 F2719
G1 X109.742 Y127.755 E13.18926
G1 X109.594 Y127.768 E13.19670
G0 X109.535 Y127.871 F7200
G0 X109.454 Y127.951
G0 X109.377 Y128.036
G0 X109.454 Y127.951
G0 X109.535 Y127.871
G0 X109.594 Y127.768
G0 X109.742 Y127.755
G0 X110.003 Y127.599
G0 X110.266 Y127.751
G0 X110.375 Y127.757
G0 X110.488 Y127.725
G0 X110.641 Y127.683
;segType:Perimeter
G1 X109.955 Y128.094 E13.23661 F1631
G1 X109.248 Y128.518 E13.27775
G1 X108.896 Y128.764 E13.29915
G1 X108.611 Y129.016 E13.31813
G1 X108.482 Y129.016 E13.32734
G1 X108.427 Y129.090 E13.33348
G1 X108.377 Y129.170 E13.33943
G1 X108.327 Y129.249 E13.34511
G1 X108.277 Y129.329 E13.35051
G1 X108.228 Y129.408 E13.35564
G1 X108.197 Y129.507 E13.36029
G1 X108.156 Y129.595 E13.36408
G1 X108.149 Y129.609 E13.36467
G1 X108.191 Y129.518 E13.36913
G1 X108.233 Y129.426 E13.37422
G1 X108.275 Y129.335 E13.37995
G0 X108.228 Y129.408 F7200
G0 X108.427 Y129.090
G0 X108.482 Y129.016
G1 X108.502 Y128.769 E13.39231 F1631
G1 X108.719 Y128.404 E13.41352
G1 X109.091 Y127.838 E13.44729
G1 X109.129 Y127.709 E13.45401
G1 X109.129 Y122.753 E13.70124
G1 X109.169 Y122.478 E13.71514
G1 X109.256 Y122.435 E13.71999
G1 X110.810 Y122.435 E13.79753
G1 X110.874 Y122.540 E13.80365
G1 X110.888 Y122.746 E13.81395
G1 X110.888 Y127.704 E14.06131
G1 X110.931 Y127.846 E14.06870
G1 X111.413 Y128.592 E14.11303
G1 X111.533 Y128.811 E14.12547
G0 X111.506 Y128.967 F7200
G0 X111.563 Y129.040
G1 X111.520 Y128.969 E14.13144 F1631
G1 X111.588 Y129.061 E14.13887
G1 X111.634 Y129.152 E14.14531
G1 X111.695 Y129.243 E14.15163
G1 X111.736 Y129.335 E14.15726
G1 X111.793 Y129.426 E14.16293
G1 X111.832 Y129.518 E14.16749
G1 X111.879 Y129.629 E14.17202
G1 X111.850 Y129.528 E14.17701
G1 X111.802 Y129.447 E14.18186
G1 X111.754 Y129.365 E14.18705
G1 X111.707 Y129.284 E14.19257
G1 X111.659 Y129.202 E14.19842
G1 X111.611 Y129.121 E14.20461
G1 X111.563 Y129.040 E14.21130
G1 X111.506 Y128.967 E14.21817
G1 X111.329 Y128.933 E14.22717
G1 X111.041 Y128.705 E14.24553
G1 X110.476 Y128.335 E14.27921
G1 X110.058 Y128.093 E14.30329
G0 X109.955 Y128.094 F7200
G0 X109.248 Y128.518
G0 X108.896 Y128.764
G0 X108.637 Y128.994
G0 X109.294 Y128.115
G0 X109.377 Y128.036
G0 X109.515 Y127.872
G0 X109.794 Y127.415
;segType:InnerHair
G1 X109.769 Y127.459 E14.30385 F1631
G1 X109.828 Y127.356 E14.30706
G1 X110.182 Y127.349 E14.31736
G1 X110.241 Y127.452 E14.31888
G1 X109.794 Y127.415 E14.32692
G0 F3000 E12.32692
G0 X109.733 Y127.756 F7200
G0 X110.488 Y123.543
G0 X110.488 Y122.843
G0 X110.900 Y121.245
G0 F3000 E15.32692
;segType:SoftSupport
G1 X110.900 Y120.220 E15.35249 F3000
G0 X110.900 Y120.220 F7200
;segType:SupportTouch
G1 X110.900 Y119.900 E15.36285 F3000
G0 X110.900 Y118.100 F7200
;segType:Support
G1 X109.100 Y118.100 E15.42122 F3000
G1 X109.100 Y116.300 E15.47959
G1 X110.900 Y116.300 E15.53796
; ------------------------------------
; Layer #15
; ------------------------------------
G92 E0 ;reset extr
G0 F3000 E-2.00000
G0 F600 Z4.800
G0 X110.900 Y117.472 F7200
G0 F3000 E1.00000
;segType:SoftSupport
G1 X110.900 Y117.099 E1.00930 F3000
G0 X110.900 Y117.099 F7200
;segType:SupportTouch
G1 X110.900 Y116.300 E1.03523 F3000
G0 X110.900 Y116.300 F7200
G1 X109.100 Y116.300 E1.09360 F3000
G1 X109.100 Y117.099 E1.11953
G0 X109.100 Y117.099 F7200
;segType:SoftSupport
G1 X109.100 Y117.472 E1.12883 F3000
G0 X109.100 Y117.472 F7200
;segType:SupportTouch
G1 X109.100 Y118.100 E1.14918 F3000
G1 X110.900 Y118.100 E1.20755
G1 X110.900 Y117.472 E1.22790
G0 E-0.77210
G0 X109.100 Y107.300 F7200
G0 F3000 E2.22790
;segType:Support
G1 X110.900 Y107.300 E2.28628 F3000
G1 X110.900 Y105.500 E2.34465
G1 X109.100 Y105.500 E2.40302
G0 X109.100 Y109.100 F7200
G1 X110.900 Y109.100 E2.46139 F3000
G1 X110.900 Y110.900 E2.51976
G1 X109.100 Y110.900 E2.57813
G1 X109.100 Y112.700 E2.63650
G1 X110.900 Y112.700 E2.69488
G1 X110.900 Y114.500 E2.75325
G1 X109.100 Y114.500 E2.81162
G0 E0.81162
G0 X110.900 Y120.220 F7200
G0 F3000 E3.81162
;segType:SoftSupport
G1 X110.900 Y119.900 E3.81959 F3000
G0 X110.900 Y119.900 F7200
G1 X109.100 Y119.900 E3.86449 F3000
G1 X109.100 Y120.220 E3.87246
G0 E1.87246
G0 X107.259 Y135.164 F7200
G0 X105.716 Y136.584
G0 F3000 E4.87246
;segType:HShell
G1 X106.456 Y135.844 E4.92988 F889
G0 X105.890 Y135.844 F7200
G1 X105.716 Y136.018 E4.94339 F889
G0 X105.902 Y136.963 F7200
G1 X106.578 Y136.287 E4.99586 F889
G0 X106.578 Y136.853 F7200
G1 X106.468 Y136.963 E5.00444 F889
G0 X105.436 Y136.224 F7200
;segType:Loop
G1 X105.436 Y135.564 E5.03737 F1482
G1 X106.859 Y135.564 E5.10835
G1 X106.859 Y137.243 E5.19213
G1 X105.436 Y137.243 E5.26312
G1 X105.436 Y136.424 E5.30399
G0 X103.467 Y137.643 F7200
G0 X103.467 Y137.324
G0 X105.036 Y137.324
G0 X105.036 Y137.443
;segType:Perimeter
G1 X105.036 Y137.264 E5.31293 F889
G1 X105.036 Y135.164 E5.41770
G1 X107.259 Y135.164 E5.52860
G1 X107.259 Y137.643 E5.65229
G1 X103.467 Y137.643 E5.84145
G1 X103.467 Y137.324 E5.85737
G1 X104.976 Y137.324 E5.93264
G0 X105.036 Y137.264 F7200
G0 X105.036 Y135.664
G0 F3000 E3.93263
G0 X107.259 Y135.902 F7200
G0 X109.100 Y136.100
G0 F3000 E6.93264
;segType:Support
G1 X110.900 Y136.100 E6.99101 F3000
G0 E4.99101
G0 X113.142 Y135.903 F7200
G0 X114.564 Y135.778
G0 X114.564 Y135.564
G0 X113.142 Y135.564
G0 X113.810 Y135.844
G0 F3000 E7.99101
;segType:HShell
G1 X113.422 Y136.232 E8.02111 F887
G0 X113.422 Y136.798 F7200
G1 X114.284 Y135.935 E8.08805 F887
G0 X114.284 Y136.501 F7200
G1 X113.822 Y136.963 E8.12394 F887
G0 X114.464 Y137.243 F7200
;segType:Loop
G1 X113.142 Y137.243 E8.18993 F1479
G1 X113.142 Y135.564 E8.27371
G1 X114.564 Y135.564 E8.34470
G1 X114.564 Y137.143 E8.42349
G0 X114.564 Y137.143 F7200
G0 X114.376 Y137.243
G0 X114.224 Y137.324
;segType:Perimeter
G1 X115.024 Y137.324 E8.46340 F887
G1 X116.533 Y137.324 E8.53866
G1 X116.533 Y137.643 E8.55459
G1 X112.742 Y137.643 E8.74374
G1 X112.742 Y135.164 E8.86744
G1 X114.964 Y135.164 E8.97833
G1 X114.964 Y137.264 E9.08311
G0 X115.024 Y137.324 F7200
G0 X116.533 Y137.324
G0 X116.533 Y137.415
G0 F3000 E7.08311
G0 X116.533 Y137.415 F7200
G0 X116.444 Y137.324
G0 X114.964 Y137.324
G0 X114.964 Y135.799
G0 X114.347 Y135.164
G0 X112.742 Y135.164
G0 X112.332 Y134.763
G0 X112.328 Y134.674
G0 X112.241 Y134.546
G0 X112.198 Y134.272
G0 X112.179 Y134.181
G0 X112.166 Y134.110
G0 X112.162 Y134.089
G0 X112.146 Y133.998
G0 X112.124 Y133.906
G0 X112.099 Y133.815
G0 X112.073 Y133.723
G0 X112.052 Y133.632
G0 X112.022 Y133.541
G0 X111.992 Y133.449
G0 X111.851 Y133.358
G0 X111.728 Y133.045
G0 X111.405 Y132.461
G0 X111.046 Y132.016
G0 X111.004 Y131.982
G0 X110.376 Y130.832
G0 X110.582 Y130.918
G0 X110.819 Y131.091
G0 X110.676 Y131.381
G0 F3000 E10.08311
;segType:Loop
G1 X110.579 Y131.316 E10.08669 F1822
G1 X110.445 Y131.244 E10.09255
G1 X110.330 Y131.210 E10.09750
G1 X110.216 Y131.176 E10.10282
G1 X110.102 Y131.147 E10.10833
G1 X109.988 Y131.135 E10.11363
G1 X109.873 Y131.149 E10.11904
G0 X109.759 Y131.182 F7200
G0 X109.645 Y131.215
G0 X109.530 Y131.255
G0 X109.416 Y131.329
G0 X109.302 Y131.397
G1 X109.328 Y131.381 E10.11984 F1822
G1 X109.429 Y131.321 E10.12344
G1 X109.526 Y131.256 E10.12729
G1 X109.646 Y131.215 E10.13224
G1 X109.771 Y131.178 E10.13791
G1 X109.879 Y131.125 E10.14302
G0 X109.873 Y131.149 F7200
G0 X109.988 Y131.135
G0 X110.102 Y131.147
G0 X110.216 Y131.176
G0 X110.445 Y131.244
G1 X110.473 Y131.261 E10.14419 F1822
G0 X110.579 Y131.316 F7200
G0 X110.676 Y131.381
G0 X111.026 Y131.295
G0 X110.060 Y131.533
G0 X110.001 Y131.523
G0 X109.668 Y131.571
G0 X109.386 Y131.688
G0 X109.361 Y131.706
G0 X110.060 Y131.533
;segType:Perimeter
G1 X110.421 Y131.599 E10.16249 F1093
G1 X110.703 Y131.738 E10.17820
G1 X111.046 Y132.016 E10.20023
G1 X111.405 Y132.461 E10.22876
G1 X111.728 Y133.045 E10.26203
G1 X111.851 Y133.358 E10.27882
G1 X111.992 Y133.449 E10.29126
G1 X112.022 Y133.541 E10.29825
G1 X112.052 Y133.632 E10.30510
G1 X112.073 Y133.723 E10.31185
G1 X112.099 Y133.815 E10.31863
G1 X112.124 Y133.906 E10.32536
G1 X112.146 Y133.998 E10.33192
G1 X112.162 Y134.089 E10.33842
G1 X112.179 Y134.181 E10.34493
G1 X112.198 Y134.272 E10.35149
G1 X112.212 Y134.363 E10.35791
G1 X112.226 Y134.455 E10.36426
G1 X112.241 Y134.546 E10.37053
G1 X111.908 Y134.783 E10.38884
G1 X108.068 Y134.783 E10.56083
G1 X107.763 Y134.546 E10.58667
G1 X107.774 Y134.455 E10.59294
G1 X107.786 Y134.363 E10.59930
G1 X107.802 Y134.272 E10.60570
G1 X107.818 Y134.181 E10.61205
G1 X107.838 Y134.089 E10.61853
G1 X107.859 Y133.998 E10.62508
G1 X107.880 Y133.906 E10.63169
G1 X107.898 Y133.815 E10.63830
G1 X107.922 Y133.723 E10.64514
G1 X107.953 Y133.632 E10.65211
G1 X107.981 Y133.541 E10.65908
G1 X108.193 Y133.253 E10.67693
G1 X108.399 Y132.792 E10.70212
G1 X108.709 Y132.303 E10.73101
G1 X109.026 Y131.950 E10.75467
G1 X109.386 Y131.688 E10.77690
G1 X109.668 Y131.571 E10.79213
G1 X109.941 Y131.531 E10.80589
G0 X110.060 Y131.533 F7200
G0 X110.421 Y131.599
G0 X110.703 Y131.738
G0 X111.046 Y132.016
G0 X111.346 Y132.387
G0 X111.346 Y132.387
G0 X111.405 Y132.461
G0 X111.728 Y133.045
G0 X111.851 Y133.358
G0 X111.992 Y133.449
G0 X112.022 Y133.541
G0 X112.052 Y133.632
G0 X112.073 Y133.723
G0 X112.099 Y133.815
G0 X112.124 Y133.906
G0 X112.146 Y133.998
G0 X112.162 Y134.089
G0 X112.179 Y134.181
G0 X112.198 Y134.272
G0 X112.212 Y134.363
G0 X112.226 Y134.455
G0 X112.241 Y134.546
G0 X112.199 Y134.576
G0 X112.272 Y134.763
G0 X112.271 Y134.759
G1 X112.272 Y134.763 E10.80612 F1093
G1 X111.999 Y134.763 E10.81974
G0 X111.908 Y134.783 F7200
G0 X108.068 Y134.783
G1 X107.976 Y134.763 E10.82442 F1093
G1 X107.676 Y134.763 E10.83937
G1 X107.687 Y134.638 E10.84564
G0 X107.763 Y134.546 F7200
G0 X107.786 Y134.363
G0 X107.802 Y134.272
G0 X107.818 Y134.181
G0 X107.880 Y133.906
G0 X107.898 Y133.815
G0 X107.922 Y133.723
G0 X107.953 Y133.632
G0 X107.981 Y133.541
G1 X108.005 Y133.449 E10.85251 F1093
G1 X108.039 Y133.358 E10.85974
G1 X107.963 Y133.266 E10.86565
G1 X108.020 Y133.068 E10.87594
G1 X108.241 Y132.492 E10.90672
G1 X108.502 Y131.966 E10.93602
G1 X108.710 Y131.634 E10.95555
G1 X108.892 Y131.392 E10.97067
G1 X109.067 Y131.200 E10.98364
G1 X109.385 Y130.942 E11.00404
G1 X109.756 Y130.775 E11.02437
G1 X109.942 Y130.745 E11.03377
G1 X110.224 Y130.769 E11.04787
G1 X110.582 Y130.918 E11.06721
G1 X110.819 Y131.091 E11.08186
G1 X111.017 Y131.284 E11.09566
G1 X111.322 Y131.677 E11.12049
G1 X111.584 Y132.121 E11.14623
G1 X111.830 Y132.657 E11.17565
G1 X112.046 Y133.269 E11.20801
G1 X112.069 Y133.358 E11.21258
G0 X111.992 Y133.449 F7200
G0 X112.052 Y133.632
G0 X112.073 Y133.723
G0 X112.099 Y133.815
G0 X112.124 Y133.906
G0 X112.146 Y133.998
G0 X112.162 Y134.089
G0 X112.179 Y134.181
G0 X112.198 Y134.272
G0 X112.241 Y134.546
G1 X112.328 Y134.674 E11.22029 F1093
G1 X112.329 Y134.703 E11.22175
G0 X112.272 Y134.763 F7200
G0 X111.999 Y134.763
G0 X111.908 Y134.783
G0 X110.674 Y134.783
G0 F3000 E9.22175
G0 X111.908 Y134.783 F7200
G0 X112.241 Y134.546
G0 X112.226 Y134.455
G0 X112.212 Y134.363
G0 X112.198 Y134.272
G0 X112.179 Y134.181
G0 X112.162 Y134.089
G0 X112.146 Y133.998
G0 X112.124 Y133.906
G0 X112.099 Y133.815
G0 X112.073 Y133.723
G0 X112.052 Y133.632
G0 X112.022 Y133.541
