; #disp params :
; Printmode:0
; Layer:353
; Xmin:102.756 mm
; Xmax:117.509 mm
; XDimension:14.753 mm
; Ymin:100.571 mm
; Ymax:126.281 mm
; YDimension:25.71 mm
; Zmax:52.9 mm
; E0diam:0.4 mm
; E0len:0.876571 m
; E0temp:235 C
; Bedtemp:235 C
; Time:5.99884 min
; #params end
; GCode generated by CraftWare

G28 X0 Y0
G28 Z0


M104 S235 ;set head temp (no wait)
M190 S73 ;set bed temp (wait)
M109 S235 ;set head temp (wait)

; ------------------------------------
; Raft Layer #0
; ------------------------------------
M109 S242 ;set temp override (wait)
M106 S0 ;turn off fan
G21 ; mm
G90 ; abs
G92 E0 ;reset extr
G0 F600 Z0.250
;segType:Skirt
G0 F3000 E-2.00000
G0 F600 Z2.250
G0 X107.541 Y124.487 F5400
G0 F600 Z0.250
G0 F3000 E1.00000
G1 X103.953 Y120.898 E1.21099 F1200
G1 X103.953 Y118.240 E1.32150
G1 X104.019 Y117.775 E1.34104
G1 X105.880 Y115.914 E1.45044
G1 X106.079 Y115.582 E1.46654
G1 X106.079 Y113.456 E1.55495
G1 X106.611 Y112.924 E1.58620
G1 X106.611 Y112.392 E1.60831
G1 X106.478 Y111.994 E1.62578
G1 X106.478 Y108.006 E1.79155
G1 X107.807 Y106.677 E1.86969
G1 X108.272 Y106.611 E1.88924
G1 X111.994 Y106.611 E2.04395
G1 X112.326 Y106.810 E2.06008
G1 X113.389 Y107.874 E2.12259
G1 X113.389 Y115.316 E2.43202
G1 X115.915 Y117.841 E2.58049
G1 X115.915 Y120.499 E2.69100
G1 X115.848 Y120.965 E2.71055
G1 X112.126 Y124.686 E2.92935
G1 X107.874 Y124.686 E3.10617
G1 X107.541 Y124.487 E3.12229
G0 X103.687 Y117.708 F5400
G1 X105.680 Y115.715 E3.23951 F1200
G1 X105.680 Y113.588 E3.32792
G1 X105.880 Y113.256 E3.34404
G1 X106.146 Y112.990 E3.35967
G1 X106.212 Y112.259 E3.39017
G1 X106.079 Y112.126 E3.39799
G1 X106.079 Y108.405 E3.55270
G1 X106.146 Y107.940 E3.57225
G1 X107.874 Y106.212 E3.67384
G1 X108.671 Y106.212 E3.70699
G0 X108.671 Y106.212 F5400
G1 X112.126 Y106.212 E3.85065 F1200
G1 X113.721 Y107.807 E3.94443
G1 X113.788 Y108.272 E3.96397
G1 X113.788 Y115.183 E4.25130
G1 X113.987 Y115.515 E4.26740
G1 X116.114 Y117.642 E4.39243
G1 X116.313 Y117.974 E4.40855
G1 X116.313 Y120.898 E4.53011
G1 X112.326 Y124.885 E4.76454
G1 X111.994 Y125.085 E4.78067
G1 X107.741 Y125.085 E4.95748
G1 X103.554 Y120.898 E5.20365
G1 X103.554 Y118.240 E5.31416
G1 X103.621 Y117.775 E5.33371
G0 X105.946 Y107.741 F5400
G1 X107.807 Y105.880 E5.44311 F1200
G1 X108.272 Y105.813 E5.46265
G1 X111.994 Y105.813 E5.61737
G1 X112.326 Y106.013 E5.63349
G1 X114.187 Y107.874 E5.74289
G1 X114.187 Y115.316 E6.05232
G1 X116.712 Y117.841 E6.20080
G1 X116.712 Y120.499 E6.31131
G1 X116.645 Y120.965 E6.33086
G1 X112.126 Y125.484 E6.59654
G1 X107.874 Y125.484 E6.77336
G1 X107.541 Y125.284 E6.78948
G1 X103.155 Y120.898 E7.04735
G1 X103.155 Y118.240 E7.15787
G1 X103.222 Y117.775 E7.17741
G1 X105.083 Y115.914 E7.28681
G1 X105.282 Y115.582 E7.30291
G1 X105.282 Y113.456 E7.39132
G1 X105.813 Y112.924 E7.42257
G1 X105.813 Y112.392 E7.44468
G1 X105.680 Y111.994 E7.46215
G1 X105.680 Y108.272 E7.61686
G1 X105.747 Y107.940 E7.63096
G0 X105.282 Y108.006 F5400
G1 X107.674 Y105.614 E7.77162 F1200
G1 X108.006 Y105.415 E7.78775
G1 X111.728 Y105.415 E7.94246
G1 X112.193 Y105.481 E7.96201
G1 X114.585 Y107.874 E8.10267
G1 X114.585 Y115.316 E8.41210
G1 X117.111 Y117.841 E8.56057
G1 X117.111 Y120.499 E8.67108
G1 X117.044 Y120.965 E8.69063
G1 X112.126 Y125.882 E8.97975
G1 X107.874 Y125.882 E9.15657
G1 X107.541 Y125.683 E9.17270
G1 X102.756 Y120.898 E9.45401
G1 X102.756 Y118.240 E9.56452
G1 X102.823 Y117.775 E9.58407
G1 X104.684 Y115.914 E9.69347
G1 X104.883 Y115.582 E9.70957
G1 X104.883 Y113.456 E9.79797
G1 X105.415 Y112.924 E9.82923
G1 X105.415 Y112.392 E9.85133
G1 X105.282 Y111.994 E9.86881
G1 X105.282 Y108.006 E10.03457
G0 X104.883 Y108.006 F5400
G1 X107.807 Y105.083 E10.20649 F1200
G1 X108.272 Y105.016 E10.22604
G1 X111.994 Y105.016 E10.38075
G1 X112.326 Y105.215 E10.39687
G1 X114.984 Y107.874 E10.55316
G1 X114.984 Y115.316 E10.86259
G1 X117.509 Y117.841 E11.01106
G1 X117.509 Y120.499 E11.12157
G1 X117.443 Y120.965 E11.14112
G1 X112.126 Y126.281 E11.45369
G1 X108.689 Y126.281 E11.59663
;segType:Raft
G0 F3000 E9.59663
G0 X108.206 Y120.234 F5400
G0 F3000 E12.59663
G1 X107.674 Y119.702 E12.62788 F1200
G1 X107.408 Y119.436 E12.64351
G1 X107.408 Y117.841 E12.70982
G1 X107.009 Y117.177 E12.74204
G1 X107.009 Y113.987 E12.87465
G1 X107.541 Y113.456 E12.90591
G1 X107.541 Y111.861 E12.97221
G1 X107.408 Y111.462 E12.98969
G1 X107.408 Y108.538 E13.11125
G1 X108.206 Y107.741 E13.15813
G1 X108.538 Y107.541 E13.17426
G1 X111.196 Y107.541 E13.28477
G1 X111.662 Y107.608 E13.30432
G1 X112.459 Y108.405 E13.35120
G1 X112.459 Y115.050 E13.62748
G1 X112.060 Y115.449 E13.65092
G1 X112.060 Y115.715 E13.66197
G1 X112.459 Y116.114 E13.68542
G1 X112.459 Y119.303 E13.81803
G1 X112.259 Y119.636 E13.83415
G1 X111.595 Y120.300 E13.87323
G1 X111.329 Y120.300 E13.88428
G1 X111.661 Y119.702 E13.91273
G1 X111.661 Y118.905 E13.94588
G1 X111.129 Y118.373 E13.97714
G1 X110.665 Y118.307 E13.99666
G1 X108.804 Y118.307 E14.07402
G1 X108.272 Y118.838 E14.10527
G1 X108.206 Y119.303 E14.12480
G1 X108.206 Y119.835 E14.14690
G1 X108.605 Y120.234 E14.17034
G1 X108.206 Y120.234 E14.18694
G0 X111.801 Y118.506 F5400
G1 X111.801 Y116.247 E14.28087 F1200
G1 X111.801 Y115.050 E14.33061
G1 X111.801 Y108.538 E14.60136
G1 X111.401 Y108.139 E14.62484
G1 X111.401 Y118.107 E15.03925
G1 X111.001 Y117.974 E15.05678
G1 X111.001 Y108.006 E15.47119
G1 X110.601 Y108.006 E15.48782
G1 X110.601 Y117.974 E15.90224
G1 X110.201 Y117.974 E15.91887
G1 X110.201 Y108.006 E16.33328
G1 X109.801 Y108.006 E16.34991
G1 X109.801 Y117.974 E16.76433
G1 X109.401 Y117.974 E16.78096
G1 X109.401 Y108.006 E17.19537
G1 X109.001 Y108.006 E17.21200
G1 X109.001 Y117.974 E17.62642
G1 X108.601 Y117.974 E17.64305
G1 X108.601 Y108.139 E18.05194
G1 X108.201 Y108.538 E18.07542
G1 X108.201 Y118.373 E18.48431
G1 X107.801 Y117.443 E18.52641
G1 X107.801 Y113.987 E18.67008
M104 S235 ;set temp back (don't wait)


; ------------------------------------
; Layer #0
; ------------------------------------
G21 ; mm
G90 ; abs
G92 E0 ;reset extr
G0 F600 Z0.250
;segType:Perimeter
G0 X110.136 Y119.382 F5400
G1 X110.867 Y119.382 E0.03797 F1079
G0 F3000 E-1.96203
G0 X109.130 Y119.382 F5400
G0 F3000 E1.03797
G1 X109.861 Y119.382 E1.07593 F1079
; ------------------------------------
; Layer #1
; ------------------------------------
M106 S127 ;set fan speed
G92 E0 ;reset extr
G0 F3000 E-2.00000
G0 F600 Z0.400
G0 X108.856 Y119.382 F7200
G0 F3000 E1.00000
;segType:Perimeter
G1 X109.861 Y119.382 E1.03132 F719
G0 F3000 E-0.96868
G0 X110.136 Y119.382 F7200
G0 F3000 E2.03132
G1 X111.141 Y119.382 E2.06265 F719
G0 F3000 E0.06264
G0 X109.304 Y118.589 F7200
G0 F3000 E3.06265
;segType:SupportTouch
G1 X109.073 Y118.589 E3.06639 F1200
G1 X109.073 Y116.789 E3.09557
G1 X110.873 Y116.789 E3.12476
G0 X110.432 Y114.732 F7200
;segType:Support
G1 X108.632 Y114.732 E3.15395 F1200
G1 X109.128 Y114.194 E3.16582
G1 X110.928 Y114.194 E3.19501
G0 X110.900 Y110.900 F7200
G1 X109.100 Y110.900 E3.22419 F1200
G1 X109.100 Y109.100 E3.25338
G1 X110.900 Y109.100 E3.28256
G0 X110.928 Y112.394 F7200
G1 X109.128 Y112.394 E3.31175 F1200
G0 X108.632 Y116.532 F7200
G1 X110.432 Y116.532 E3.34093 F1200
G0 X110.873 Y116.789 F7200
;segType:SupportTouch
G1 X110.873 Y118.589 E3.37012 F1200
G1 X110.696 Y118.589 E3.37299
G0 X110.696 Y118.589 F7200
;segType:SoftSupport
G1 X109.304 Y118.589 E3.39035 F1200
; ------------------------------------
; Layer #2
; ------------------------------------
G92 E0 ;reset extr
G0 F3000 E-2.00000
G0 F600 Z0.550
G0 X109.128 Y114.194 F7200
G0 F3000 E1.00000
;segType:Support
G1 X110.928 Y114.194 E1.02919 F1200
G1 X110.928 Y112.394 E1.05837
G1 X109.128 Y112.394 E1.08756
G1 X109.100 Y110.900 E1.11178
G1 X110.900 Y110.900 E1.14097
G1 X110.900 Y109.100 E1.17015
G1 X109.100 Y109.100 E1.19934
G0 F3000 E-0.80066
G0 X110.432 Y114.732 F7200
G0 F3000 E2.19934
;segType:SupportTouch
G1 X108.632 Y114.732 E2.22852 F1200
G1 X108.632 Y116.532 E2.25771
G1 X110.432 Y116.532 E2.28690
G1 X110.432 Y114.732 E2.31608
G0 X110.179 Y117.632 F7200
G1 X110.142 Y117.521 E2.31799 F1200
G1 X109.805 Y117.521 E2.32345
G0 X109.805 Y117.521 F7200
G1 X109.774 Y117.632 E2.32533 F1200
G0 X109.073 Y117.632 F7200
G1 X109.073 Y116.789 E2.33900 F1200
G1 X110.873 Y116.789 E2.36819
G0 X110.873 Y116.789 F7200
G1 X110.873 Y117.632 E2.38186 F1200
G0 X110.873 Y117.632 F7200
;segType:SoftSupport
G1 X110.873 Y118.589 E2.39379 F1200
G1 X110.696 Y118.589 E2.39600
G0 F3000 E0.39600
G0 X111.416 Y119.382 F7200
G0 X108.581 Y119.382
G0 F3000 E3.39600
;segType:Perimeter
G1 X111.416 Y119.382 E3.48428 F719
G0 F3000 E1.48428
G0 X108.581 Y119.382 F7200
G0 X109.304 Y118.589
G0 F3000 E4.48428
;segType:SoftSupport
G1 X109.073 Y118.589 E4.48716 F1200
G1 X109.073 Y117.632 E4.49909
; ------------------------------------
; Layer #3
; ------------------------------------
G92 E0 ;reset extr
G0 F3000 E-2.00000
G0 F600 Z0.700
G0 X110.496 Y117.232 F7200
G0 F3000 E1.00000
;segType:SoftSupport
G1 X110.479 Y117.183 E1.00065 F1200
G1 X109.467 Y117.183 E1.01327
G1 X109.454 Y117.232 E1.01391
G0 F3000 E-0.98609
G0 X110.000 Y118.118 F7200
G0 X110.000 Y118.733
G0 X110.000 Y118.733
G0 F3000 E2.01391
;segType:Loop
G1 X110.000 Y118.118 E2.03657 F1200
G0 X110.000 Y119.032 F7200
G1 X110.000 Y118.933 E2.03965 F1200
G0 X110.000 Y118.118 F7200
G0 X110.496 Y117.893
;segType:Perimeter
G1 X110.496 Y119.078 E2.06922 F719
G1 X110.776 Y119.382 E2.08210
G1 X111.141 Y119.382 E2.09349
G0 X110.776 Y119.382 F7200
G1 X110.684 Y119.432 E2.09608 F719
G1 X109.404 Y119.432 E2.12801
G1 X109.221 Y119.382 E2.13391
G1 X108.856 Y119.382 E2.14530
G0 X109.221 Y119.382 F7200
G1 X109.504 Y119.078 E2.15567 F719
G1 X109.504 Y117.833 E2.18673
G1 X110.436 Y117.833 E2.20996
G0 X110.496 Y117.893 F7200
G0 X110.496 Y119.078
G0 X110.776 Y119.382
G0 X110.777 Y119.382
G0 F3000 E0.20996
G0 X111.141 Y119.382 F7200
G0 X110.776 Y119.382
G0 X110.496 Y119.078
G0 X110.496 Y117.833
G0 X110.873 Y117.232
G0 F3000 E3.20996
;segType:SoftSupport
G1 X110.873 Y116.789 E3.21549 F1200
G1 X109.073 Y116.789 E3.23794
G1 X109.073 Y117.232 E3.24347
G0 X109.128 Y114.194 F7200
;segType:Support
G1 X110.928 Y114.194 E3.27265 F1200
G1 X110.928 Y112.394 E3.30184
G1 X109.128 Y112.394 E3.33102
G1 X109.100 Y110.900 E3.35525
G1 X110.900 Y110.900 E3.38443
G1 X110.900 Y109.100 E3.41362
G1 X109.100 Y109.100 E3.44281
G0 F3000 E1.44281
G0 X110.432 Y114.732 F7200
G0 F3000 E4.44281
;segType:SupportTouch
G1 X108.632 Y114.732 E4.47199 F1200
G1 X108.632 Y116.532 E4.50118
G1 X108.941 Y116.532 E4.50619
G0 X108.941 Y116.532 F7200
;segType:SoftSupport
G1 X110.432 Y116.532 E4.52478 F1200
G1 X110.432 Y114.773 E4.54672
G0 X110.432 Y114.773 F7200
;segType:SupportTouch
G1 X110.432 Y114.732 E4.54739 F1200
; ------------------------------------
; Layer #4
; ------------------------------------
G92 E0 ;reset extr
G0 F3000 E-2.00000
G0 F600 Z0.850
G0 X109.100 Y109.100 F7200
G0 F3000 E1.00000
;segType:Support
G1 X110.900 Y109.100 E1.02919 F1200
G1 X110.900 Y110.900 E1.05837
G1 X109.100 Y110.900 E1.08756
G1 X109.128 Y112.394 E1.11178
G1 X110.928 Y112.394 E1.14097
G1 X110.928 Y114.194 E1.17015
G1 X109.128 Y114.194 E1.19934
G0 X108.886 Y114.732 F7200
;segType:SoftSupport
G1 X110.432 Y114.732 E1.21862 F1200
G0 X110.432 Y114.732 F7200
G1 X110.432 Y114.773 E1.21914 F1200
G0 X108.941 Y116.532 F7200
G1 X108.812 Y116.532 E1.22075 F1200
G0 X108.812 Y116.532 F7200
;segType:SupportTouch
G1 X108.632 Y116.532 E1.22366 F1200
G1 X108.632 Y114.732 E1.25285
G1 X108.886 Y114.732 E1.25697
G0 F3000 E-0.74303
G0 X109.588 Y118.233 F7200
G0 X109.934 Y118.233
G0 X110.173 Y119.032
G0 X110.089 Y118.752
G0 F3000 E2.25697
;segType:HShell
G1 X109.868 Y118.531 E2.26553 F959
G0 X109.588 Y118.322 F7200
G0 X110.402 Y118.930
G0 X110.402 Y118.930
;segType:Loop
G1 X110.318 Y119.032 E2.26884 F1200
G1 X109.633 Y119.032 E2.28594
G1 X109.588 Y118.918 E2.28899
G1 X109.588 Y118.233 E2.30609
G1 X110.412 Y118.233 E2.32663
G1 X110.412 Y118.733 E2.33910
G0 X110.412 Y118.918 F7200
G0 X110.318 Y119.032
G0 X110.269 Y119.032
G0 X110.412 Y118.733
G0 X110.412 Y118.233
G0 X110.812 Y117.893
;segType:Perimeter
G1 X110.812 Y119.078 E2.36867 F719
G1 X111.050 Y119.382 E2.38070
G1 X111.141 Y119.382 E2.38355
G0 X111.050 Y119.382 F7200
G1 X110.958 Y119.432 E2.38615 F719
G1 X109.130 Y119.432 E2.43176
G1 X108.947 Y119.382 E2.43766
G1 X108.856 Y119.382 E2.44051
G0 X108.947 Y119.382 F7200
G1 X109.188 Y119.078 E2.45020 F719
G1 X109.188 Y117.833 E2.48126
G1 X110.752 Y117.833 E2.52026
G0 X110.812 Y117.893 F7200
G0 X110.812 Y119.078
G0 X111.050 Y119.382
G0 X111.078 Y119.382
G0 F3000 E0.52026
G0 X111.141 Y119.382 F7200
G0 X111.507 Y119.382
G0 X111.781 Y119.382
G0 X111.624 Y119.170
G0 X111.624 Y119.627
G0 F3000 E3.52026
G1 X111.624 Y119.170 E3.53082 F719
G1 X111.781 Y119.382 E3.53906
G1 X111.507 Y119.382 E3.54761
G0 X111.624 Y119.170 F7200
G0 X111.624 Y119.567
G0 X111.598 Y119.573
G0 X111.507 Y119.382
G0 X111.781 Y119.382
G0 X111.624 Y119.627
G0 X111.624 Y119.170
G0 X111.781 Y119.382
G0 X111.679 Y119.382
G0 F3000 E1.54761
G0 X111.624 Y119.385 F7200
G0 X111.512 Y119.392
G0 X111.507 Y119.382
G0 X108.490 Y119.382
G0 X108.405 Y119.565
G0 X108.376 Y119.567
G0 F3000 E4.54761
G1 X108.376 Y119.170 E4.55678 F719
G1 X108.490 Y119.382 E4.56430
G1 X108.216 Y119.382 E4.57284
G0 X108.376 Y119.170 F7200
G0 X108.376 Y119.627
G0 X108.216 Y119.382
G0 X108.490 Y119.382
G1 X108.401 Y119.572 E4.57660 F719
G0 X108.376 Y119.567 F7200
G0 X108.376 Y119.170
G0 X108.490 Y119.382
G0 X108.216 Y119.382
G0 X108.376 Y119.170
G0 X108.376 Y119.590
; ------------------------------------
; Layer #5
; ------------------------------------
G92 E0 ;reset extr
G0 F3000 E-2.00000
G0 F600 Z1.000
G0 X108.390 Y119.382 F7200
G0 X108.764 Y119.382
G0 X108.968 Y119.078
G0 X108.968 Y117.890
G0 X109.142 Y117.615
G0 X109.141 Y115.055
G0 X109.221 Y114.974
G0 X109.100 Y109.100
G0 F3000 E1.00000
;segType:Support
G1 X110.900 Y109.100 E1.02919 F1200
G1 X110.900 Y110.900 E1.05837
G1 X109.100 Y110.900 E1.08756
G1 X109.128 Y112.394 E1.11178
G1 X110.928 Y112.394 E1.14097
G1 X110.928 Y114.194 E1.17015
G1 X109.128 Y114.194 E1.19934
G0 F3000 E-0.80066
G0 X109.221 Y114.974 F7200
G0 X110.158 Y115.655
G0 F3000 E2.19934
;segType:HShell
G1 X109.822 Y115.992 E2.21241 F959
G0 X109.822 Y116.558 F7200
G1 X110.178 Y116.201 E2.22626 F959
G0 X110.178 Y116.767 F7200
G1 X109.822 Y117.123 E2.24010 F959
G0 X109.822 Y117.689 F7200
G1 X110.178 Y117.332 E2.25394 F959
G0 X110.212 Y117.865 F7200
G0 X109.834 Y117.960
G1 X110.121 Y118.521 E2.29719 F959
G0 X110.632 Y118.665 F7200
;segType:Loop
G1 X110.632 Y118.918 E2.30351 F1200
G1 X110.547 Y119.032 E2.30706
G1 X109.404 Y119.032 E2.33557
G1 X109.368 Y118.918 E2.33855
G1 X109.368 Y118.006 E2.36131
G1 X109.542 Y117.731 E2.36941
G1 X109.541 Y115.375 E2.42819
G1 X109.633 Y115.374 E2.43047
G1 X110.318 Y115.374 E2.44757
G1 X110.459 Y115.375 E2.45107
G1 X110.458 Y117.731 E2.50984
G1 X110.632 Y118.006 E2.51794
G1 X110.632 Y118.465 E2.52940
G0 X110.891 Y117.666 F7200
;segType:Perimeter
G1 X111.032 Y117.890 E2.53600 F719
G1 X111.032 Y119.078 E2.56565
G1 X111.233 Y119.382 E2.57700
G1 X111.873 Y119.382 E2.59693
G0 X111.233 Y119.382 F7200
G1 X111.141 Y119.432 E2.59952 F719
G1 X108.947 Y119.432 E2.65426
G1 X108.764 Y119.382 E2.66016
G1 X108.124 Y119.382 E2.68009
G0 X108.764 Y119.382 F7200
G1 X108.968 Y119.078 E2.68923 F719
G1 X108.968 Y117.890 E2.71887
G1 X109.142 Y117.615 E2.72697
G1 X109.141 Y115.055 E2.79083
G1 X109.221 Y114.974 E2.79368
G1 X110.776 Y114.974 E2.83245
G1 X110.859 Y115.055 E2.83535
G1 X110.858 Y117.555 E2.89772
G0 X110.891 Y117.666 F7200
G0 X111.032 Y117.890
G0 X111.032 Y119.078
G0 X111.113 Y119.201
; ------------------------------------
; Layer #6
; ------------------------------------
G92 E0 ;reset extr
G0 F3000 E-2.00000
G0 F600 Z1.150
G0 X110.776 Y119.032 F7200
G0 X110.803 Y118.918
G0 X110.803 Y118.028
G0 X110.588 Y117.753
G0 X110.588 Y116.566
G0 X110.325 Y115.244
G0 X109.518 Y115.244
G0 X109.100 Y109.100
G0 F3000 E1.00000
;segType:Support
G1 X110.900 Y109.100 E1.02919 F1200
G1 X110.900 Y110.900 E1.05837
G1 X109.100 Y110.900 E1.08756
G1 X109.128 Y112.394 E1.11178
G1 X110.928 Y112.394 E1.14097
G1 X110.928 Y114.194 E1.17015
G1 X109.128 Y114.194 E1.19934
G0 F3000 E-0.80066
G0 X109.412 Y115.261 F7200
G0 X109.412 Y117.580
G0 X109.534 Y119.032
G0 X109.509 Y118.737
G0 F3000 E2.19934
;segType:HShell
G1 X109.523 Y118.752 E2.19990 F959
G0 X109.477 Y118.140 F7200
G1 X110.089 Y118.752 E2.22365 F959
G0 X110.523 Y118.620 F7200
G1 X109.692 Y117.789 E2.25588 F959
G0 X110.308 Y116.142 F7200
G0 X110.024 Y115.575
G1 X110.000 Y116.400 E2.31248 F959
G1 X110.000 Y116.966 E2.35129
G1 X110.000 Y117.531 E2.39009
G0 X110.803 Y118.641 F7200
;segType:Loop
G1 X110.803 Y118.918 E2.39701 F1200
G1 X110.776 Y119.032 E2.39993
G1 X109.290 Y119.032 E2.43699
G1 X109.197 Y118.918 E2.44066
G1 X109.197 Y118.028 E2.46287
G1 X109.412 Y117.753 E2.47156
G1 X109.412 Y115.261 E2.53374
G1 X109.518 Y115.244 E2.53642
G1 X110.547 Y115.244 E2.56208
G1 X110.588 Y115.261 E2.56318
G1 X110.588 Y117.753 E2.62535
G1 X110.803 Y118.028 E2.63405
G1 X110.803 Y118.441 E2.64436
G0 X110.803 Y118.028 F7200
G0 X111.025 Y117.662
;segType:Perimeter
G1 X111.203 Y117.890 E2.65156 F719
G1 X111.203 Y119.078 E2.68121
G1 X111.416 Y119.382 E2.69277
G1 X111.964 Y119.382 E2.70985
G0 X111.416 Y119.382 F7200
G1 X111.324 Y119.432 E2.71245 F719
G1 X108.764 Y119.432 E2.77631
G1 X108.581 Y119.382 E2.78221
G1 X108.033 Y119.382 E2.79930
G0 X108.581 Y119.382 F7200
G1 X108.797 Y119.078 E2.80860 F719
G1 X108.797 Y117.890 E2.83825
G1 X109.012 Y117.615 E2.84694
G1 X109.012 Y114.924 E2.91409
G1 X109.077 Y114.844 E2.91665
G1 X110.916 Y114.844 E2.96253
G1 X110.988 Y115.055 E2.96808
G1 X110.988 Y117.555 E3.03044
G0 X111.025 Y117.662 F7200
G0 X111.203 Y117.890
G0 X111.203 Y119.078
G0 X111.273 Y119.179
; ------------------------------------
; Layer #7
; ------------------------------------
G92 E0 ;reset extr
G0 F3000 E-2.00000
G0 F600 Z1.300
G0 X110.890 Y119.032 F7200
G0 X110.940 Y118.918
G0 X110.940 Y118.233
G0 X110.600 Y118.233
G0 X110.600 Y116.055
G0 X110.422 Y115.233
G0 X109.290 Y115.233
G0 X109.100 Y109.100
G0 F3000 E1.00000
;segType:Support
G1 X110.900 Y109.100 E1.02919 F1200
G1 X110.900 Y110.900 E1.05837
G1 X109.100 Y110.900 E1.08756
G1 X109.128 Y112.394 E1.11178
G1 X110.928 Y112.394 E1.14097
G1 X110.928 Y114.194 E1.17015
G1 X109.128 Y114.194 E1.19934
G0 F3000 E-0.80066
G0 X109.290 Y115.233 F7200
G0 X109.431 Y115.233
G0 X110.537 Y119.032
G0 X110.456 Y118.752
G0 F3000 E2.19934
;segType:HShell
G1 X110.660 Y118.548 E2.20727 F959
G0 X109.890 Y118.752 F7200
G1 X109.922 Y118.720 E2.20849 F959
G0 X109.564 Y118.513 F7200
G1 X109.341 Y118.736 E2.21713 F959
G0 F3000 E0.21713
G0 X109.310 Y119.032 F7200
G0 X109.393 Y118.233
G0 X109.400 Y118.233
G0 X109.400 Y118.161
G0 X109.704 Y115.233
G0 X109.290 Y115.233
G0 X109.221 Y115.379
G0 X109.400 Y115.638
G0 X109.668 Y115.580
G0 F3000 E3.21713
G0 X109.557 Y115.408 F7200
G1 X109.991 Y115.823 E3.23360 F959
G0 X109.681 Y116.699 F7200
G1 X110.320 Y116.060 E3.25840 F959
G0 X110.320 Y116.626 F7200
G1 X109.681 Y117.265 E3.28320 F959
G0 X109.681 Y117.830 F7200
G1 X110.320 Y117.191 E3.30799 F959
G0 X110.320 Y117.757 F7200
G1 X109.681 Y118.396 E3.33279 F959
G0 X110.129 Y118.513 F7200
G1 X110.320 Y118.323 E3.34017 F959
G0 X110.940 Y118.592 F7200
;segType:Loop
G1 X110.940 Y118.918 E3.34831 F1200
G1 X110.890 Y119.032 E3.35142
G1 X109.061 Y119.032 E3.39703
G1 X109.060 Y118.918 E3.39988
G1 X109.060 Y118.233 E3.41697
G1 X109.400 Y118.233 E3.42547
G1 X109.400 Y115.638 E3.49020
G1 X109.221 Y115.379 E3.49807
G1 X109.290 Y115.233 E3.50209
G1 X110.653 Y115.233 E3.53609
G1 X110.845 Y115.404 E3.54251
G1 X110.600 Y115.584 E3.55011
G1 X110.600 Y118.233 E3.61619
G1 X110.940 Y118.233 E3.62469
G1 X110.940 Y118.392 E3.62866
G0 X110.940 Y118.392 F7200
G0 X110.747 Y118.233
G0 X110.600 Y118.233
G0 X110.600 Y118.112
G0 X110.260 Y117.833
;segType:Perimeter
G1 X111.060 Y117.833 E3.64862 F719
G1 X111.340 Y117.833 E3.65562
G1 X111.340 Y119.078 E3.68669
G1 X111.598 Y119.382 E3.69911
G1 X112.147 Y119.382 E3.71620
G0 X111.598 Y119.382 F7200
G1 X111.507 Y119.432 E3.71879 F719
G1 X108.581 Y119.432 E3.79177
G1 X108.398 Y119.382 E3.79768
G1 X107.941 Y119.382 E3.81191
G0 X108.398 Y119.382 F7200
G1 X108.660 Y119.078 E3.82192 F719
G1 X108.660 Y117.833 E3.85298
G1 X109.000 Y117.833 E3.86148
G1 X109.000 Y115.787 E3.91252
G1 X108.764 Y115.512 E3.92156
G1 X108.754 Y115.147 E3.93069
G1 X108.892 Y115.131 E3.93416
G1 X108.997 Y114.889 E3.94073
G1 X109.094 Y114.833 E3.94353
G1 X110.776 Y114.833 E3.98549
G1 X111.240 Y115.147 E3.99947
G1 X111.250 Y115.249 E4.00204
G1 X111.250 Y115.604 E4.01088
G1 X111.000 Y115.787 E4.01861
G1 X111.000 Y117.773 E4.06815
G0 X111.060 Y117.833 F7200
G0 X111.340 Y117.833
G0 X111.340 Y119.078
G0 X111.388 Y119.134
; ------------------------------------
; Layer #8
; ------------------------------------
G92 E0 ;reset extr
G0 F3000 E-2.00000
G0 F600 Z1.450
G0 X111.393 Y119.432 F7200
G0 X111.368 Y117.833
G0 X111.000 Y117.833
G0 X111.000 Y115.787
G0 X111.324 Y115.702
G0 X111.324 Y115.700
G0 X111.314 Y115.066
G0 X111.324 Y115.057
G0 X111.324 Y114.992
G0 F3000 E1.00000
;segType:Perimeter
G1 X111.331 Y114.872 E1.00177 F719
G1 X111.329 Y114.964 E1.00315
G1 X111.327 Y115.055 E1.00455
G1 X111.314 Y115.066 E1.00484
G0 X111.324 Y114.992 F7200
G1 X111.326 Y115.035 E1.00512 F719
G0 X111.327 Y115.035 F7200
G0 X111.331 Y114.872
G0 X111.337 Y114.913
G0 X111.324 Y114.992
G0 X111.331 Y114.872
G0 X111.329 Y114.964
G0 X111.327 Y115.055
G0 X111.314 Y115.066
G0 X111.324 Y114.992
G0 X111.326 Y115.035
G0 X111.327 Y115.035
G0 X111.331 Y114.872
G0 X111.337 Y114.913
G0 X111.324 Y114.992
G0 X111.331 Y114.872
G0 X111.329 Y114.964
G0 X111.327 Y115.055
G0 X111.314 Y115.066
G0 X111.324 Y114.992
G0 X111.326 Y115.035
G0 X111.327 Y115.035
G0 X111.331 Y114.879
G0 F3000 E-0.99488
G0 X111.331 Y114.872 F7200
G0 X110.928 Y112.394
G0 F3000 E2.00512
;segType:Support
G1 X109.128 Y112.394 E2.03431 F1200
G0 X109.100 Y109.100 F7200
G1 X110.900 Y109.100 E2.06349 F1200
G1 X110.900 Y110.900 E2.09268
G1 X109.100 Y110.900 E2.12186
G0 X109.128 Y114.194 F7200
G1 X110.928 Y114.194 E2.15105 F1200
G0 F3000 E0.15105
G0 X110.776 Y114.833 F7200
G0 X110.938 Y114.889
G0 X110.940 Y115.041
G0 F3000 E3.15105
;segType:Perimeter
G1 X109.130 Y115.041 E3.19619 F719
G1 X109.038 Y114.944 E3.20110
G1 X108.947 Y114.959 E3.20435
G0 X109.038 Y114.944 F7200
G1 X109.130 Y114.833 E3.20795 F719
G1 X110.776 Y114.833 E3.24900
G1 X111.000 Y114.911 E3.25491
G1 X111.000 Y115.147 E3.26080
G1 X111.000 Y115.101 E3.26195
G0 X110.940 Y115.041 F7200
G0 X109.340 Y115.041
G0 F3000 E1.26195
G0 X109.218 Y114.833 F7200
G0 X109.340 Y115.041
G0 X111.000 Y115.041
G0 X111.000 Y115.147
G0 X111.233 Y115.639
G0 X111.141 Y115.724
G0 X110.320 Y116.720
G0 F3000 E4.26195
;segType:HShell
G1 X110.178 Y116.578 E4.26743 F959
G0 X110.320 Y117.285 F7200
G1 X110.178 Y117.144 E4.27291 F959
G0 X109.284 Y118.513 F7200
G0 X109.257 Y118.769
G1 X109.697 Y118.360 E4.30769 F959
G1 X109.730 Y117.828 E4.32232
G1 X109.751 Y117.283 E4.33729
G0 X109.681 Y116.646 F7200
G0 X109.502 Y116.185
G1 X110.249 Y117.780 E4.38562 F959
G1 X110.303 Y118.400 E4.40269
G1 X110.089 Y118.752 E4.41399
G0 X110.416 Y118.513 F7200
G1 X110.655 Y118.752 E4.42326 F959
G0 X110.286 Y118.100 F7200
;segType:Infill
G1 X109.822 Y117.636 E4.43964 F1200
G0 X109.400 Y117.347 F7200
G0 X110.600 Y118.169
G0 X110.600 Y118.233
G0 X110.693 Y118.233
G0 X111.053 Y118.479
;segType:Loop
G1 X111.053 Y118.918 E4.45059 F1200
G1 X111.004 Y119.032 E4.45368
G1 X108.947 Y119.032 E4.50500
G1 X108.947 Y118.918 E4.50784
G1 X108.947 Y118.233 E4.52493
G1 X109.400 Y118.233 E4.53625
G1 X109.400 Y116.124 E4.58885
G1 X110.600 Y116.124 E4.61876
G1 X110.600 Y118.233 E4.67136
G1 X111.053 Y118.233 E4.68267
G1 X111.053 Y118.279 E4.68383
G0 X110.970 Y118.233 F7200
G0 X110.600 Y118.233
G0 X110.600 Y118.024
G0 X110.260 Y117.833
;segType:Perimeter
G1 X111.060 Y117.833 E4.70379 F719
G1 X111.453 Y117.833 E4.71360
G1 X111.453 Y119.078 E4.74467
G1 X111.690 Y119.382 E4.75668
G1 X112.147 Y119.382 E4.77091
G0 X111.690 Y119.382 F7200
G1 X111.598 Y119.432 E4.77351 F719
G1 X108.490 Y119.432 E4.85105
G1 X108.307 Y119.382 E4.85695
G1 X107.850 Y119.382 E4.87119
G0 X108.307 Y119.382 F7200
G1 X108.547 Y119.078 E4.88086 F719
G1 X108.547 Y117.833 E4.91192
G1 X109.000 Y117.833 E4.92323
G1 X109.000 Y115.787 E4.97427
G0 X108.695 Y115.693 F7200
G1 X108.673 Y115.711 E4.97485 F719
G1 X108.764 Y115.640 E4.97640
G1 X108.856 Y115.724 E4.97951
G1 X111.141 Y115.724 E5.03652
G1 X111.233 Y115.639 E5.03828
G1 X111.324 Y115.700 E5.04057
G1 X111.324 Y115.702 E5.04061
G0 X111.324 Y115.700 F7200
G0 X111.324 Y115.702
G1 X111.000 Y115.787 E5.04898 F719
G1 X111.000 Y117.773 E5.09852
G0 X111.060 Y117.833 F7200
G0 X111.453 Y117.833
G0 X111.453 Y119.039
; ------------------------------------
; Layer #9
; ------------------------------------
G92 E0 ;reset extr
G0 F3000 E-2.00000
G0 F600 Z1.600
G0 X111.466 Y119.432 F7200
G0 X111.414 Y117.833
G0 X111.000 Y117.833
G0 X111.000 Y115.695
G0 X111.318 Y115.147
G0 X111.323 Y114.995
G0 F3000 E1.00000
;segType:Perimeter
G1 X111.324 Y114.964 E1.00046 F719
G1 X111.327 Y114.872 E1.00180
G1 X111.329 Y114.781 E1.00315
G1 X111.321 Y114.690 E1.00437
G0 X111.329 Y114.781 F7200
G0 X111.318 Y115.147
G1 X111.319 Y115.115 E1.00483 F719
G0 X111.323 Y114.995 F7200
G0 X111.324 Y114.964
G0 X111.327 Y114.872
G0 X111.329 Y114.781
G0 X111.321 Y114.690
G0 X111.329 Y114.781
G0 X111.318 Y115.147
G0 X111.319 Y115.115
G0 X111.323 Y114.995
G0 X111.324 Y114.964
G0 X111.327 Y114.872
G0 X111.329 Y114.781
G0 X111.321 Y114.690
G0 X111.329 Y114.781
G0 X111.321 Y115.067
G0 F3000 E-0.99517
G0 X111.329 Y114.781 F7200
G0 X111.321 Y114.690
G0 X110.928 Y112.394
G0 F3000 E2.00483
;segType:Support
G1 X109.128 Y112.394 E2.03402 F1200
G0 X109.100 Y109.100 F7200
G1 X110.900 Y109.100 E2.06320 F1200
G1 X110.900 Y110.900 E2.09239
G1 X109.100 Y110.900 E2.12157
G0 X109.128 Y114.194 F7200
G1 X110.928 Y114.194 E2.15076 F1200
G0 F3000 E0.15076
G0 X110.867 Y114.833 F7200
G0 X110.922 Y114.857
G0 F3000 E3.15076
;segType:Perimeter
G1 X110.980 Y114.882 E3.15234 F719
G1 X110.978 Y115.013 E3.15653
G1 X111.000 Y115.070 E3.15805
G1 X109.038 Y115.070 E3.20697
G1 X108.947 Y114.976 E3.21179
G1 X108.856 Y115.070 E3.21506
G1 X108.764 Y115.105 E3.21706
G1 X108.753 Y115.055 E3.21833
G1 X108.757 Y114.872 E3.22289
G1 X108.680 Y114.781 E3.22469
G1 X108.664 Y114.690 E3.22588
G0 X108.680 Y114.781 F7200
G1 X109.024 Y114.987 E3.24000 F719
G1 X109.073 Y114.833 E3.24405
G1 X110.807 Y114.833 E3.28730
G0 X110.922 Y114.857 F7200
G0 X110.980 Y114.882
G0 X110.978 Y115.013
G0 X111.000 Y115.070
G0 X109.655 Y115.070
G0 F3000 E1.28730
G0 X111.000 Y115.070 F7200
G0 X111.000 Y115.695
G0 X110.907 Y115.695
G0 X110.355 Y119.432
G0 X110.456 Y118.752
G0 F3000 E4.28730
;segType:HShell
G1 X110.509 Y118.699 E4.28934 F959
G0 X110.695 Y118.513 F7200
G1 X110.523 Y118.685 E4.29602 F959
G0 X110.129 Y118.513 F7200
G1 X110.320 Y118.323 E4.30340 F959
G0 X109.564 Y118.513 F7200
G0 X109.477 Y118.599 F7200
G1 X109.325 Y118.752 E4.30933 F959
G0 X109.681 Y118.396 F7200
G1 X110.320 Y117.757 E4.33413 F959
G0 X110.005 Y116.375 F7200
G1 X109.681 Y116.699 E4.34671 F959
G0 X109.681 Y117.265 F7200
G1 X110.320 Y116.626 E4.37150 F959
G0 X110.320 Y117.191 F7200
G1 X109.681 Y117.830 E4.39630 F959
G0 X109.400 Y117.734 F7200
G0 X110.600 Y118.146
G0 X110.600 Y118.233
G0 X110.854 Y118.233
G0 X111.146 Y118.333
;segType:Loop
G1 X111.146 Y118.918 E4.41090 F1200
G1 X111.118 Y119.032 E4.41382
G1 X108.947 Y119.032 E4.46799
G1 X108.854 Y118.918 E4.47166
G1 X108.854 Y118.233 E4.48875
G1 X109.400 Y118.233 E4.50237
G1 X109.400 Y116.095 E4.55571
G1 X110.600 Y116.095 E4.58563
G1 X110.600 Y118.233 E4.63896
G1 X111.046 Y118.233 E4.65009
G0 X110.600 Y118.233 F7200
G0 X110.600 Y118.006
G0 X110.260 Y117.833
;segType:Perimeter
G1 X111.060 Y117.833 E4.67005 F719
G1 X111.546 Y117.833 E4.68218
G1 X111.546 Y119.078 E4.71324
G1 X111.781 Y119.382 E4.72522
G1 X112.238 Y119.382 E4.73946
G0 X111.781 Y119.382 F7200
G1 X111.690 Y119.432 E4.74206 F719
G1 X108.398 Y119.432 E4.82416
G1 X108.216 Y119.382 E4.83006
G1 X107.758 Y119.382 E4.84430
G0 X108.216 Y119.382 F7200
G1 X108.454 Y119.078 E4.85395 F719
G1 X108.454 Y117.833 E4.88501
G1 X109.000 Y117.833 E4.89864
G1 X109.000 Y115.695 E4.95197
G1 X111.000 Y115.695 E5.00184
G1 X111.000 Y117.773 E5.05368
G0 X111.060 Y117.833 F7200
G0 X111.546 Y117.833
G0 X111.546 Y118.947
; ------------------------------------
; Layer #10
; ------------------------------------
G92 E0 ;reset extr
G0 F3000 E-2.00000
G0 F600 Z1.750
G0 X111.666 Y119.432 F7200
G0 X111.269 Y117.833
G0 X111.000 Y117.833
G0 X111.000 Y116.748
G0 X110.524 Y114.833
G0 X109.092 Y114.833
G0 X109.100 Y109.100
G0 F3000 E1.00000
;segType:Support
G1 X110.900 Y109.100 E1.02919 F1200
G1 X110.900 Y110.900 E1.05837
G1 X109.100 Y110.900 E1.08756
G1 X109.128 Y112.394 E1.11178
G1 X110.928 Y112.394 E1.14097
G1 X110.928 Y114.194 E1.17015
G1 X109.165 Y114.194 E1.19875
G0 F3000 E-0.80125
G0 X109.215 Y114.833 F7200
G0 X109.577 Y119.432
G0 X109.523 Y118.752
G0 F3000 E2.19875
;segType:HShell
G1 X109.284 Y118.513 E2.20802 F959
G0 X110.655 Y118.752 F7200
G1 X110.416 Y118.513 E2.21730 F959
G0 X109.681 Y118.343 F7200
G1 X110.089 Y118.752 E2.23316 F959
G0 X110.207 Y119.032 F7200
G0 X109.400 Y117.110
G0 X109.400 Y118.233
G0 X109.681 Y117.778
G1 X110.320 Y118.417 E2.25795 F959
G0 X110.320 Y117.851 F7200
G1 X109.681 Y117.212 E2.28275 F959
G0 X110.319 Y115.588 F7200
G1 X110.244 Y115.513 E2.28566 F959
G0 X109.679 Y115.513 F7200
G1 X110.320 Y116.154 E2.31053 F959
G0 X110.320 Y116.720 F7200
G1 X109.681 Y116.081 E2.33533 F959
G0 X109.681 Y116.646 F7200
G1 X110.320 Y117.285 E2.36012 F959
G0 X110.600 Y117.611 F7200
G0 X110.600 Y118.233
G0 X111.135 Y118.233
G0 X111.222 Y118.333
;segType:Loop
G1 X111.222 Y118.918 E2.37472 F1200
G1 X111.118 Y119.032 E2.37856
G1 X108.833 Y119.032 E2.43557
G1 X108.778 Y118.918 E2.43872
G1 X108.778 Y118.233 E2.45582
G1 X109.400 Y118.233 E2.47133
G1 X109.400 Y115.632 E2.53622
G1 X109.150 Y115.357 E2.54547
G1 X109.150 Y115.147 E2.55073
G1 X109.290 Y115.233 E2.55482
G1 X110.737 Y115.233 E2.59093
G1 X110.850 Y115.147 E2.59446
G1 X110.850 Y115.357 E2.59972
G1 X110.600 Y115.632 E2.60898
G1 X110.600 Y118.233 E2.67386
G1 X111.122 Y118.233 E2.68688
G0 X110.600 Y118.233 F7200
G0 X110.600 Y117.991
G0 X110.260 Y117.833
;segType:Perimeter
G1 X111.060 Y117.833 E2.70684 F719
G1 X111.622 Y117.833 E2.72086
G1 X111.622 Y119.078 E2.75192
G1 X111.873 Y119.382 E2.76421
G1 X112.056 Y119.382 E2.76990
G0 X111.873 Y119.382 F7200
G1 X111.781 Y119.432 E2.77250 F719
G1 X108.307 Y119.432 E2.85916
G1 X108.124 Y119.382 E2.86507
G1 X107.941 Y119.382 E2.87076
G0 X108.124 Y119.382 F7200
G1 X108.378 Y119.078 E2.88065 F719
G1 X108.378 Y117.833 E2.91172
G1 X109.000 Y117.833 E2.92723
G1 X109.000 Y115.787 E2.97827
G1 X108.750 Y115.512 E2.98753
G1 X108.750 Y114.964 E3.00121
G1 X108.675 Y114.872 E3.00305
G1 X108.672 Y114.781 E3.00444
G1 X108.670 Y114.690 E3.00581
G1 X108.668 Y114.598 E3.00714
G1 X108.657 Y114.620 E3.00754
G0 X108.668 Y114.598 F7200
G0 X108.675 Y114.872
G1 X109.010 Y114.879 E3.01592 F719
G1 X109.092 Y114.833 E3.01827
G1 X110.776 Y114.833 E3.06025
G1 X110.981 Y114.872 E3.06547
G0 X111.325 Y114.872 F7200
G0 X111.325 Y114.598
G1 X111.328 Y114.576 E3.06580 F719
G1 X111.305 Y114.557 E3.06619
G1 X111.325 Y114.598 E3.06690
G1 X111.325 Y114.872 E3.07116
G1 X111.250 Y114.964 E3.07412
G1 X111.250 Y115.512 E3.08780
G1 X111.000 Y115.787 E3.09706
G1 X111.000 Y117.773 E3.14661
G0 X111.060 Y117.833 F7200
G0 X111.622 Y117.833
G0 X111.622 Y118.871
; ------------------------------------
; Layer #11
; ------------------------------------
G92 E0 ;reset extr
G0 F3000 E-2.00000
G0 F600 Z1.900
G0 X111.672 Y119.432 F7200
G0 X111.528 Y117.833
G0 X110.966 Y117.833
G0 X110.966 Y114.964
G0 X111.321 Y114.440
G0 X111.323 Y114.410
G0 X111.325 Y114.415
G0 X111.325 Y115.512
G0 X111.331 Y115.485
G0 X111.319 Y115.526
G0 F3000 E1.00000
;segType:Perimeter
G1 X111.331 Y115.485 E1.00071 F719
G1 X111.325 Y115.512 E1.00114
G1 X111.325 Y114.415 E1.01819
G1 X111.323 Y114.410 E1.01828
G1 X111.321 Y114.440 E1.01877
G0 X111.325 Y114.415 F7200
G0 X111.325 Y115.512
G1 X111.320 Y115.527 E1.01880 F719
G0 X111.319 Y115.526 F7200
G0 X111.331 Y115.485
G0 X111.325 Y115.512
G0 X111.325 Y114.415
G0 X111.323 Y114.410
G0 X111.321 Y114.440
G0 X111.325 Y114.415
G0 X111.325 Y114.785
G0 F3000 E-0.98120
G0 X111.325 Y114.415 F7200
G0 X110.928 Y112.394
G0 F3000 E2.01880
;segType:Support
G1 X109.128 Y112.394 E2.04799 F1200
G0 X109.100 Y109.100 F7200
G1 X110.900 Y109.100 E2.07718 F1200
G1 X110.900 Y110.900 E2.10636
G1 X109.100 Y110.900 E2.13555
G0 X110.856 Y114.194 F7200
G1 X109.147 Y114.194 E2.16326 F1200
G0 F3000 E0.16326
G0 X108.675 Y114.415 F7200
G0 X108.675 Y114.475
G0 F3000 E3.16326
;segType:Perimeter
G1 X108.675 Y115.512 E3.17938 F719
G1 X108.666 Y115.535 E3.17972
G0 X108.675 Y115.512 F7200
G0 X108.675 Y114.415
G1 X108.688 Y114.393 E3.18009 F719
G1 X108.685 Y114.450 E3.18103
G0 X108.675 Y114.475 F7200
G0 X108.675 Y115.512
G0 X108.666 Y115.535
G0 X108.675 Y115.512
G0 X108.675 Y114.998
G0 F3000 E1.18103
G0 X108.675 Y115.512 F7200
G0 X108.666 Y115.535
G0 X109.034 Y115.055
G0 X109.034 Y116.196
G0 X110.834 Y119.432
G0 X110.456 Y118.752
G0 F3000 E4.18103
;segType:HShell
G1 X110.695 Y118.513 E4.19030 F959
G0 X109.564 Y118.513 F7200
G1 X109.325 Y118.752 E4.19958 F959
G0 X109.291 Y119.032 F7200
G0 X109.387 Y118.233
G0 X109.434 Y118.233
G0 X109.434 Y117.849
G0 X109.746 Y115.266
G0 X109.714 Y115.534
G0 X109.594 Y115.371
G1 X109.978 Y115.836 E4.21612 F959
G1 X110.000 Y116.379 E4.25342
G1 X110.000 Y116.945 E4.29222
G1 X110.000 Y117.511 E4.33103
G1 X110.000 Y118.076 E4.36983
G1 X110.088 Y118.554 E4.40315
G0 X111.282 Y118.333 F7200
;segType:Loop
G1 X111.282 Y118.918 E4.41775 F1200
G1 X111.233 Y119.032 E4.42085
G1 X108.718 Y119.032 E4.48357
G1 X108.718 Y118.918 E4.48641
G1 X108.718 Y118.233 E4.50351
G1 X109.434 Y118.233 E4.52137
G1 X109.434 Y115.375 E4.59265
G1 X109.518 Y115.266 E4.59609
G1 X110.547 Y115.266 E4.62175
G1 X110.566 Y115.375 E4.62451
G1 X110.566 Y118.233 E4.69579
G1 X111.182 Y118.233 E4.71116
G0 X110.566 Y118.233 F7200
G0 X110.566 Y117.975
G0 X110.226 Y117.833
;segType:Perimeter
G1 X111.026 Y117.833 E4.73112 F719
G1 X111.682 Y117.833 E4.74749
G1 X111.682 Y119.078 E4.77855
G1 X111.791 Y119.170 E4.78209
G1 X111.791 Y119.432 E4.78864
G1 X108.209 Y119.432 E4.87799
G1 X108.209 Y119.170 E4.88453
G1 X108.318 Y119.078 E4.88807
G1 X108.318 Y117.833 E4.91914
G1 X109.034 Y117.833 E4.93700
G1 X109.034 Y115.055 E5.00629
G1 X109.130 Y114.866 E5.01158
G1 X110.867 Y114.866 E5.05491
G1 X110.966 Y114.964 E5.05838
G1 X110.966 Y117.773 E5.12845
G0 X111.026 Y117.833 F7200
G0 X111.682 Y117.833
G0 X111.682 Y118.777
; ------------------------------------
; Layer #12
; ------------------------------------
G92 E0 ;reset extr
G0 F3000 E-2.00000
G0 F600 Z2.050
G0 X111.330 Y118.918 F7200
G0 X111.330 Y118.374
G0 X111.206 Y118.233
G0 X108.670 Y118.233
G0 X108.663 Y115.403
G0 X108.673 Y115.384
G0 X108.673 Y115.343
G0 X108.673 Y115.343
G0 F3000 E1.00000
;segType:Perimeter
G1 X108.675 Y115.330 E1.00022 F719
G1 X108.675 Y114.324 E1.01585
G1 X108.687 Y114.232 E1.01709
G1 X108.682 Y114.258 E1.01747
G0 X108.675 Y114.324 F7200
G0 X108.675 Y115.330
G1 X108.676 Y115.346 E1.01756 F719
G0 X108.673 Y115.343 F7200
G0 X108.675 Y115.330
G0 X108.675 Y114.324
G0 X108.687 Y114.232
G0 X108.682 Y114.258
G0 X108.675 Y114.324
G0 X108.675 Y114.719
G0 F3000 E-0.98244
G0 X108.675 Y114.324 F7200
G0 X108.682 Y114.258
G0 X108.687 Y114.232
G0 X109.128 Y112.394
G0 F3000 E2.01756
;segType:Support
G1 X110.928 Y112.394 E2.04674 F1200
G0 X109.100 Y109.100 F7200
G1 X110.900 Y109.100 E2.07593 F1200
G1 X110.900 Y110.900 E2.10511
G1 X109.100 Y110.900 E2.13430
G0 X109.200 Y114.194 F7200
G1 X110.800 Y114.194 E2.16025 F1200
G0 F3000 E0.16025
G0 X111.320 Y114.283 F7200
G0 X111.317 Y114.306
G0 F3000 E3.16025
;segType:Perimeter
G1 X111.320 Y114.283 E3.16059 F719
G1 X111.325 Y114.324 E3.16123
G1 X111.325 Y115.330 E3.17686
G1 X111.325 Y115.335 E3.17694
G0 X111.325 Y115.270 F7200
G0 X111.325 Y114.324
G0 X111.317 Y114.306
G0 X111.320 Y114.283
G0 X111.325 Y114.324
G0 X111.325 Y114.894
G0 F3000 E1.17694
G0 X111.325 Y115.330 F7200
G0 X111.326 Y115.351
G0 X111.330 Y118.233
G0 X109.465 Y118.233
G0 X108.949 Y119.032
G0 X109.284 Y118.513
G0 F3000 E4.17694
;segType:HShell
G1 X109.523 Y118.752 E4.18621 F959
G0 X110.089 Y118.752 F7200
G1 X109.850 Y118.513 E4.19549 F959
G0 X110.416 Y118.513 F7200
G1 X110.655 Y118.752 E4.20476 F959
G0 F3000 E2.20476
G0 X111.049 Y118.581 F7200
G0 F3000 E5.20476
G1 X110.982 Y118.513 E5.20740 F959
G0 X110.846 Y118.233 F7200
G0 X111.233 Y119.032
;segType:Loop
G1 X108.718 Y119.032 E5.27011 F1200
G1 X108.670 Y118.918 E5.27320
G1 X108.670 Y118.233 E5.29029
G1 X111.330 Y118.233 E5.35663
G1 X111.330 Y118.918 E5.37372
G1 X111.233 Y119.032 E5.37745
G0 X110.996 Y118.233 F7200
G0 X110.957 Y118.100
;segType:Perimeter
G1 X111.730 Y117.893 E5.39741 F719
G1 X111.730 Y119.078 E5.42697
G0 X111.964 Y119.382 F7200
G0 X112.421 Y119.382
G1 X111.964 Y119.382 E5.44121 F719
G1 X111.873 Y119.432 E5.44381
G1 X108.216 Y119.432 E5.53504
G1 X108.033 Y119.382 E5.54094
G1 X107.576 Y119.382 E5.55518
G0 X108.033 Y119.382 F7200
G1 X108.270 Y119.078 E5.56481 F719
G1 X108.270 Y117.833 E5.59587
G1 X111.670 Y117.833 E5.68066
G0 X111.730 Y117.893 F7200
G0 X111.730 Y119.078
G0 X111.964 Y119.382
G0 X111.995 Y119.382
; ------------------------------------
; Layer #13
; ------------------------------------
G92 E0 ;reset extr
G0 F3000 E-2.00000
G0 F600 Z2.200
G0 X111.995 Y119.382 F7200
G0 X111.964 Y119.382
G0 X111.764 Y119.078
G0 X111.764 Y117.942
G0 X111.747 Y117.833
G0 X111.315 Y115.238
G0 X111.321 Y115.216
G0 X111.323 Y115.186
G0 X111.322 Y115.178
G0 X111.322 Y115.178
G0 F3000 E1.00000
;segType:Perimeter
G0 X111.325 Y115.147 F7200
G0 X111.325 Y114.141
G1 X111.340 Y114.071 E1.00098 F719
G1 X111.325 Y114.141 E1.00210
G1 X111.325 Y115.147 E1.01773
G1 X111.323 Y115.179 E1.01822
G0 X111.322 Y115.178 F7200
G0 X111.325 Y115.147
G0 X111.325 Y114.141
G0 X111.340 Y114.071
G0 X111.325 Y114.141
G0 X111.325 Y114.560
G0 F3000 E-0.98178
G0 X111.325 Y114.560 F7200
G0 X111.325 Y115.147
G0 X111.321 Y115.216
G0 X111.315 Y115.238
G0 X111.348 Y117.833
G0 X111.368 Y119.432
G0 X111.362 Y118.933
G0 F3000 E2.01822
;segType:Loop
G1 X111.347 Y119.032 E2.02073 F1200
G1 X110.931 Y119.032 E2.03110
G1 X110.931 Y118.233 E2.05104
G1 X111.364 Y118.233 E2.06184
G1 X111.364 Y118.733 E2.07432
G0 X111.364 Y118.918 F7200
G0 X111.347 Y119.032
G0 X111.222 Y119.032
G0 X111.364 Y118.733
G0 X111.364 Y118.233
G0 X111.764 Y117.893
;segType:Perimeter
G1 X111.764 Y119.078 E2.10388 F719
G1 X111.964 Y119.382 E2.11522
G1 X112.421 Y119.382 E2.12946
G0 X111.964 Y119.382 F7200
G1 X111.873 Y119.432 E2.13206 F719
G1 X110.531 Y119.432 E2.16553
G1 X110.531 Y117.833 E2.20542
G1 X111.704 Y117.833 E2.23468
G0 X111.764 Y117.893 F7200
G0 X111.764 Y119.078
G0 X111.964 Y119.382
G0 X112.015 Y119.382
G0 F3000 E0.23468
G0 X112.015 Y119.382 F7200
G0 X111.964 Y119.382
G0 X111.949 Y119.359
G0 X110.531 Y118.854
G0 X110.531 Y117.833
G0 X109.069 Y118.233
G0 X109.069 Y118.333
G0 F3000 E3.23468
;segType:Loop
G1 X109.069 Y119.032 E3.25212 F1200
G1 X108.718 Y119.032 E3.26086
G1 X108.636 Y118.918 E3.26438
G1 X108.636 Y118.233 E3.28147
G1 X108.969 Y118.233 E3.28978
G0 X108.636 Y118.233 F7200
G0 X108.296 Y117.833
;segType:Perimeter
G1 X109.469 Y117.833 E3.31904 F719
G1 X109.469 Y119.432 E3.35893
G1 X108.216 Y119.432 E3.39019
G1 X108.033 Y119.382 E3.39609
G1 X107.576 Y119.382 E3.41033
G0 X108.033 Y119.382 F7200
G1 X108.236 Y119.078 E3.41946 F719
G1 X108.236 Y117.893 E3.44903
G0 X108.296 Y117.833 F7200
G0 X109.469 Y117.833
G0 X109.469 Y118.260
G0 F3000 E1.44903
G0 X109.069 Y118.233 F7200
G0 X109.896 Y117.432
G0 X110.052 Y117.432
G0 F3000 E4.44903
G1 X109.896 Y117.432 E4.45292 F719
G1 X110.005 Y117.341 E4.45823
G1 X110.007 Y117.250 E4.46151
G1 X109.999 Y117.158 E4.46460
G1 X109.983 Y117.043 E4.46807
G1 X110.010 Y117.145 E4.47174
G1 X110.021 Y116.975 E4.47595
G1 X110.010 Y117.067 E4.47863
G0 X109.999 Y117.158 F7200
G0 X110.007 Y117.250
G0 X110.005 Y117.341
G1 X110.120 Y117.524 E4.48401 F719
G1 X110.117 Y117.492 E4.48482
G0 X110.052 Y117.432 F7200
G0 X109.896 Y117.432
G0 X110.005 Y117.341
G0 X110.007 Y117.250
G0 X109.999 Y117.158
G0 X109.983 Y117.043
G0 X110.010 Y117.145
G0 X110.021 Y116.975
G0 X110.010 Y117.067
G0 X109.999 Y117.158
G0 X110.007 Y117.250
G0 X110.005 Y117.341
G0 X110.120 Y117.524
G0 X110.117 Y117.492
G0 X110.052 Y117.432
G0 X110.030 Y117.432
G0 F3000 E2.48482
G0 X109.985 Y117.358 F7200
G0 X110.005 Y117.341
G0 X110.007 Y117.250
G0 X109.999 Y117.158
G0 X109.983 Y117.043
G0 X108.658 Y115.269
G0 X108.686 Y115.167
G0 X108.678 Y115.217
G0 X108.675 Y115.212
G0 X108.674 Y115.211
G0 F3000 E5.48482
G1 X108.686 Y115.167 E5.48558 F719
G1 X108.675 Y115.238 E5.48670
G1 X108.675 Y114.141 E5.50375
G1 X108.667 Y114.092 E5.50448
G1 X108.674 Y114.120 E5.50494
G0 X108.675 Y114.141 F7200
G0 X108.675 Y115.213
G0 X108.674 Y115.211
G0 X108.686 Y115.167
G0 X108.675 Y115.238
G0 X108.675 Y114.141
G0 X108.667 Y114.092
G0 X108.674 Y114.120
G0 X108.675 Y114.141
G0 X108.675 Y114.426
G0 F3000 E3.50494
G0 X108.675 Y114.141 F7200
G0 X109.200 Y114.194
G0 F3000 E6.50494
;segType:Support
G1 X110.800 Y114.194 E6.53088 F1200
G1 X110.928 Y112.394 E6.56014
G1 X109.128 Y112.394 E6.58933
G1 X109.100 Y110.900 E6.61355
G1 X110.900 Y110.900 E6.64274
G1 X110.900 Y109.100 E6.67192
G1 X109.100 Y109.100 E6.70111
; ------------------------------------
; Layer #14
; ------------------------------------
G92 E0 ;reset extr
G0 F3000 E-2.00000
G0 F600 Z2.350
G0 X109.200 Y114.194 F7200
G0 F3000 E1.00000
;segType:Support
G1 X110.800 Y114.194 E1.02594 F1200
G0 F3000 E-0.97406
G0 X111.296 Y113.958 F7200
G0 F3000 E2.02594
;segType:Perimeter
G1 X111.314 Y114.050 E2.02738 F719
G1 X111.325 Y114.141 E2.02881
G1 X111.325 Y115.052 E2.04296
G0 X111.325 Y114.995 F7200
G0 X111.325 Y114.141
G0 X111.314 Y114.050
G0 X111.296 Y113.958
G0 X111.314 Y114.050
G0 X111.325 Y114.141
G0 X111.325 Y114.516
G0 F3000 E0.04296
G0 X111.325 Y114.516 F7200
G0 X111.325 Y114.141
G0 X111.314 Y114.050
G0 X111.296 Y113.958
G0 X110.900 Y109.100
G0 F3000 E3.04296
;segType:Support
G1 X109.100 Y109.100 E3.07215 F1200
G1 X109.100 Y110.900 E3.10133
G1 X110.900 Y110.900 E3.13052
G1 X110.928 Y112.394 E3.15474
G1 X109.128 Y112.394 E3.18393
G0 F3000 E1.18393
G0 X108.717 Y113.867 F7200
G0 X108.701 Y113.958
G0 X108.686 Y114.050
G0 X108.675 Y114.141
G0 X108.675 Y114.995
G0 F3000 E4.18393
;segType:Perimeter
G1 X108.675 Y114.141 E4.19720 F719
G1 X108.686 Y114.050 E4.19858
G1 X108.701 Y113.958 E4.19991
G1 X108.717 Y113.867 E4.20117
G0 X108.686 Y114.050 F7200
G0 X108.675 Y114.141
G0 X108.675 Y115.044
G0 X108.675 Y114.995
G0 X108.675 Y114.141
G0 X108.686 Y114.050
G0 X108.701 Y113.958
G0 X108.717 Y113.867
G0 X108.686 Y114.050
G0 X108.675 Y114.141
G0 X108.675 Y114.332
G0 F3000 E2.20117
G0 X108.675 Y114.332 F7200
G0 X108.675 Y115.055
G0 X108.613 Y118.233
G0 X108.945 Y118.233
G0 X108.953 Y118.333
G0 X108.953 Y118.333
G0 F3000 E5.20117
;segType:Loop
G1 X108.953 Y119.032 E5.21862 F1200
G1 X108.718 Y119.032 E5.22447
G1 X108.613 Y118.918 E5.22834
G1 X108.613 Y118.233 E5.24544
G1 X108.853 Y118.233 E5.25143
G0 X108.613 Y118.233 F7200
G0 X108.273 Y117.833
;segType:Perimeter
G1 X109.353 Y117.833 E5.27837 F719
G1 X109.353 Y119.432 E5.31826
G1 X108.124 Y119.432 E5.34892
G1 X107.941 Y119.382 E5.35482
G1 X107.576 Y119.382 E5.36621
G0 X107.941 Y119.382 F7200
G1 X108.213 Y119.078 E5.37639 F719
G1 X108.213 Y117.893 E5.40595
G0 X108.273 Y117.833 F7200
G0 X109.353 Y117.833
G0 X109.353 Y118.353
G0 F3000 E3.40595
G0 X108.953 Y118.233 F7200
G0 X108.933 Y118.233
G0 X108.953 Y118.239
G0 X108.953 Y119.032
G0 X111.047 Y119.032
G0 X111.047 Y118.946
G0 X111.382 Y118.932
G0 F3000 E6.40595
;segType:Loop
G1 X111.347 Y119.032 E6.40860 F1200
G1 X111.047 Y119.032 E6.41609
G1 X111.047 Y118.233 E6.43602
G1 X111.387 Y118.233 E6.44451
G1 X111.387 Y118.733 E6.45698
G0 X111.387 Y118.918 F7200
G0 X111.347 Y119.032
G0 X111.244 Y119.032
G0 X111.387 Y118.733
G0 X111.387 Y118.233
G0 X111.787 Y117.893
;segType:Perimeter
G1 X111.787 Y119.078 E6.48655 F719
G1 X112.056 Y119.382 E6.49919
G1 X112.421 Y119.382 E6.51058
G0 X112.056 Y119.382 F7200
G1 X111.964 Y119.432 E6.51317 F719
G1 X110.647 Y119.432 E6.54603
G1 X110.647 Y117.833 E6.58593
G1 X111.727 Y117.833 E6.61287
G0 X111.787 Y117.893 F7200
G0 X111.787 Y119.078
G0 X112.056 Y119.382
G0 X112.064 Y119.382
G0 F3000 E4.61287
G0 X112.056 Y119.382 F7200
G0 X111.964 Y119.279
G0 X110.647 Y117.918
G0 X110.647 Y117.833
G0 X110.236 Y117.432
G0 X110.176 Y117.432
G0 F3000 E7.61287
G1 X109.765 Y117.432 E7.62312 F719
G1 X109.785 Y117.082 E7.63186
G1 X109.835 Y116.813 E7.63870
G1 X110.000 Y116.509 E7.64733
G1 X110.071 Y116.578 E7.64980
G1 X110.144 Y116.740 E7.65423
G1 X110.223 Y117.152 E7.66470
G1 X110.234 Y117.372 E7.67018
G0 X110.176 Y117.432 F7200
G0 X109.765 Y117.432
G0 X109.785 Y117.082
G0 X109.835 Y116.813
G0 X110.000 Y116.509
G0 X110.071 Y116.578
G0 X110.120 Y116.688
; ------------------------------------
; Layer #15
; ------------------------------------
G92 E0 ;reset extr
G0 F3000 E-2.00000
G0 F600 Z2.500
G0 X109.787 Y116.525 F7200
G0 X109.847 Y116.343
G0 X109.887 Y116.277
G0 X110.006 Y116.487
G0 X110.179 Y116.459
G0 X110.275 Y116.701
G0 X110.302 Y116.792
G0 X110.324 Y116.884
G0 X110.337 Y116.975
G0 X110.344 Y117.067
G0 X110.351 Y117.158
G0 X110.356 Y117.250
G0 X110.361 Y117.341
G0 X111.095 Y118.233
G0 X111.095 Y118.473
G0 X111.392 Y118.932
G0 X111.392 Y118.932
G0 F3000 E1.00000
;segType:Loop
G1 X111.347 Y119.032 E1.00275 F1200
G1 X111.095 Y119.032 E1.00904
G1 X111.095 Y118.233 E1.02898
G1 X111.398 Y118.233 E1.03655
G1 X111.398 Y118.733 E1.04902
G0 X111.398 Y118.918 F7200
G0 X111.347 Y119.032
G0 X111.256 Y119.032
G0 X111.398 Y118.733
G0 X111.398 Y118.233
G0 X111.798 Y117.893
;segType:Perimeter
G1 X111.798 Y119.078 E1.07859 F719
G1 X112.056 Y119.382 E1.09101
G1 X112.421 Y119.382 E1.10240
G0 X112.056 Y119.382 F7200
G1 X111.964 Y119.432 E1.10499 F719
G1 X110.695 Y119.432 E1.13666
G1 X110.695 Y117.833 E1.17655
G1 X111.738 Y117.833 E1.20258
G0 X111.798 Y117.893 F7200
G0 X111.798 Y119.078
G0 X112.056 Y119.382
G0 X112.072 Y119.382
G0 F3000 E-0.79742
G0 X112.056 Y119.382 F7200
G0 X112.049 Y119.375
G0 X110.695 Y118.926
G0 X110.695 Y117.833
G0 X108.905 Y118.233
G0 X108.905 Y118.333
G0 F3000 E2.20258
;segType:Loop
G1 X108.905 Y119.032 E2.22003 F1200
G1 X108.604 Y119.032 E2.22754
G1 X108.602 Y118.918 E2.23038
G1 X108.602 Y118.233 E2.24748
G1 X108.805 Y118.233 E2.25255
G0 X108.905 Y118.233 F7200
G0 X108.905 Y118.306
G0 X108.805 Y118.233
G0 X108.602 Y118.233
G0 X108.262 Y117.833
;segType:Perimeter
G1 X109.305 Y117.833 E2.27858 F719
G1 X109.305 Y119.432 E2.31848
G1 X108.124 Y119.432 E2.34794
G1 X107.941 Y119.382 E2.35384
G1 X107.576 Y119.382 E2.36523
G0 X107.941 Y119.382 F7200
G1 X108.202 Y119.078 E2.37522 F719
G1 X108.202 Y117.893 E2.40479
G0 X108.262 Y117.833 F7200
G0 X109.305 Y117.833
G0 X109.305 Y118.389
G0 F3000 E0.40479
G0 X109.305 Y117.833 F7200
G0 X109.770 Y117.507
G0 X109.641 Y117.341
G0 X109.647 Y117.250
G0 X109.653 Y117.158
G0 X109.660 Y117.067
G0 X109.668 Y116.975
G0 X109.680 Y116.884
G0 X109.716 Y116.714
G0 X109.738 Y116.606
G0 X109.783 Y116.522
G0 X109.861 Y116.510
G0 X109.985 Y116.214
G0 F3000 E3.40479
G1 X110.036 Y116.214 E3.40606 F719
G1 X110.114 Y116.273 E3.40850
G1 X110.179 Y116.411 E3.41231
G1 X110.220 Y116.610 E3.41736
G0 X110.275 Y116.701 F7200
G0 X110.302 Y116.792
G0 X110.324 Y116.884
G0 X110.337 Y116.975
G0 X110.344 Y117.067
G0 X110.351 Y117.158
G0 X110.361 Y117.341
G1 X110.356 Y117.250 E3.41887 F719
G1 X110.351 Y117.158 E3.42041
G1 X110.344 Y117.067 E3.42197
G1 X110.337 Y116.975 E3.42355
G1 X110.324 Y116.884 E3.42520
G1 X110.302 Y116.792 E3.42703
G1 X110.275 Y116.701 E3.42898
G1 X110.179 Y116.459 E3.43614
G0 X109.783 Y116.522 F7200
G0 X109.738 Y116.606
G0 X109.716 Y116.714
G1 X109.680 Y116.884 E3.43918 F719
G1 X109.668 Y116.975 E3.44082
G1 X109.660 Y117.067 E3.44243
G1 X109.653 Y117.158 E3.44398
G1 X109.647 Y117.250 E3.44550
G1 X109.641 Y117.341 E3.44696
G1 X109.770 Y117.507 E3.45023
G1 X110.227 Y117.507 E3.45734
G0 X109.770 Y117.507 F7200
G0 X109.641 Y117.341
G0 X109.660 Y117.067
G0 X109.668 Y116.975
G0 X109.680 Y116.884
G1 X109.695 Y116.792 E3.45900 F719
G1 X109.720 Y116.701 E3.46085
G1 X109.787 Y116.525 E3.46556
G1 X109.847 Y116.343 E3.47034
G1 X109.894 Y116.265 E3.47261
G0 X109.985 Y116.214 F7200
G0 X110.036 Y116.214
G0 X110.114 Y116.273
G0 X110.179 Y116.411
G0 X110.220 Y116.610
G0 X110.275 Y116.701
G0 X110.302 Y116.792
G0 X110.324 Y116.884
G0 X110.337 Y116.975
G0 X110.344 Y117.067
G0 X110.351 Y117.158
G0 X110.361 Y117.341
G0 X110.356 Y117.250
G0 X110.351 Y117.158
G0 X110.344 Y117.067
G0 X110.339 Y117.001
G0 F3000 E1.47261
G0 X110.227 Y117.507 F7200
G0 X110.104 Y117.507
G0 X109.770 Y117.507
G0 X109.641 Y117.341
G0 X109.660 Y117.067
G0 X109.668 Y116.975
G0 X109.680 Y116.884
G0 X109.695 Y116.792
G0 X109.720 Y116.701
G0 X109.787 Y116.525
G0 X109.847 Y116.343
G0 X109.925 Y116.213
G0 X110.036 Y116.214
G0 X110.114 Y116.273
G0 X110.179 Y116.411
G0 X110.220 Y116.610
G0 X110.275 Y116.701
G0 X110.179 Y116.459
G0 X111.325 Y114.872
G0 X111.325 Y114.872
G0 X111.325 Y114.872
G0 X111.325 Y114.872
G0 F3000 E4.47260
G0 X111.325 Y114.872 F7200
G0 X111.325 Y114.324
G0 X111.322 Y114.232
G0 X111.277 Y114.050
G0 X111.242 Y113.958
G1 X111.157 Y113.800 E4.47555 F719
G1 X111.208 Y113.878 E4.47700
G1 X111.247 Y113.969 E4.47863
G1 X111.285 Y114.060 E4.48037
G1 X111.277 Y114.050 E4.48059
G1 X111.300 Y114.141 E4.48211
G1 X111.322 Y114.232 E4.48355
G1 X111.325 Y114.324 E4.48497
G1 X111.325 Y114.812 E4.49256
G0 X111.325 Y114.872 F7200
G0 X111.325 Y114.872
G0 X111.325 Y114.324
G0 X111.322 Y114.232
G0 X111.277 Y114.050
G0 X111.242 Y113.958
G0 X111.157 Y113.800
G0 X111.208 Y113.878
G0 X111.247 Y113.969
G0 X111.285 Y114.060
G0 X111.277 Y114.050
G0 X111.300 Y114.141
G0 X111.322 Y114.232
G0 X111.322 Y114.234
G0 F3000 E2.49256
G0 X111.322 Y114.234 F7200
G0 X111.322 Y114.232
G0 X111.300 Y114.141
G0 X111.277 Y114.050
G0 X110.759 Y114.194
G0 F3000 E5.49256
;segType:SupportTouch
G1 X109.240 Y114.194 E5.51720 F1200
G0 F3000 E3.51720
G0 X108.728 Y114.050 F7200
G0 X108.758 Y113.958
G0 X108.791 Y113.867
G0 F3000 E6.51720
;segType:Perimeter
G1 X108.792 Y113.851 E6.51746 F719
G0 X108.861 Y113.790 F7200
G0 X108.925 Y113.725
G1 X108.861 Y113.790 E6.51884 F719
G1 X108.758 Y113.958 E6.52205
G1 X108.728 Y114.050 E6.52362
G1 X108.698 Y114.141 E6.52520
G1 X108.679 Y114.232 E6.52661
G1 X108.678 Y114.324 E6.52800
G1 X108.678 Y114.415 E6.52939
G1 X108.677 Y114.507 E6.53078
G1 X108.677 Y114.598 E6.53218
G1 X108.676 Y114.690 E6.53359
G1 X108.676 Y114.781 E6.53500
G1 X108.675 Y114.859 E6.53621
G0 X108.676 Y114.812 F7200
G0 X108.678 Y114.324
G0 X108.679 Y114.232
G0 X108.698 Y114.141
G0 X108.758 Y113.958
G0 X108.791 Y113.867
G0 X108.792 Y113.851
G0 X108.861 Y113.790
G0 X108.925 Y113.725
G0 X108.861 Y113.790
G0 X108.758 Y113.958
G0 X108.728 Y114.050
G0 X108.712 Y114.100
G0 F3000 E4.53621
G0 X108.712 Y114.100 F7200
G0 X108.758 Y113.958
G0 X108.791 Y113.867
G0 X108.792 Y113.851
G0 X108.861 Y113.790
G0 X108.925 Y113.725
G0 X109.128 Y113.257
G0 F3000 E7.53621
;segType:SupportTouch
G1 X109.128 Y112.394 E7.55021 F1200
G1 X110.928 Y112.394 E7.57939
G0 X110.900 Y109.100 F7200
;segType:Support
G1 X109.100 Y109.100 E7.60858 F1200
G1 X109.100 Y110.900 E7.63777
G1 X110.900 Y110.900 E7.66695
G0 X110.928 Y112.394 F7200
;segType:SupportTouch
G1 X110.928 Y113.262 E7.68103 F1200
; ------------------------------------
; Layer #16
; ------------------------------------
G92 E0 ;reset extr
G0 F3000 E-2.00000
G0 F600 Z2.650
G0 X110.666 Y114.194 F7200
G0 F3000 E1.00000
;segType:SupportTouch
G1 X109.328 Y114.194 E1.02169 F1200
G0 F3000 E-0.97831
G0 X108.853 Y113.911 F7200
G0 X108.907 Y113.836
G0 X108.961 Y113.761
G0 X109.023 Y113.693
G0 X109.042 Y113.679
G0 X109.038 Y113.673
G0 F3000 E2.02169
;segType:Perimeter
G1 X109.130 Y113.623 E2.02351 F719
G1 X109.221 Y113.586 E2.02474
G1 X109.096 Y113.638 E2.02734
G1 X109.023 Y113.693 E2.02927
G1 X108.961 Y113.761 E2.03114
G1 X108.907 Y113.836 E2.03289
G1 X108.853 Y113.911 E2.03450
G1 X108.807 Y113.995 E2.03616
G1 X108.762 Y114.079 E2.03782
G1 X108.690 Y114.324 E2.04165
G1 X108.675 Y114.415 E2.04309
G1 X108.673 Y114.507 E2.04449
G1 X108.671 Y114.598 E2.04587
G1 X108.670 Y114.690 E2.04723
G1 X108.678 Y114.781 E2.04847
G1 X108.668 Y114.738 E2.04913
G0 X108.670 Y114.690 F7200
G0 X108.675 Y114.415
G0 X108.690 Y114.324
G1 X108.705 Y114.232 E2.05046 F719
G1 X108.739 Y114.141 E2.05204
G1 X108.764 Y114.076 E2.05324
G0 X108.791 Y114.026 F7200
G0 X108.853 Y113.911
G0 X108.907 Y113.836
G0 X108.961 Y113.761
G0 X109.023 Y113.693
G0 X109.038 Y113.673
G0 X109.130 Y113.623
G0 X109.221 Y113.586
G0 X109.096 Y113.638
G0 X109.023 Y113.693
G0 X108.961 Y113.761
G0 X108.907 Y113.836
G0 X108.853 Y113.911
G0 X108.807 Y113.995
G0 X108.762 Y114.079
G0 X108.690 Y114.324
G0 X108.688 Y114.337
G0 F3000 E0.05324
G0 X108.688 Y114.337 F7200
G0 X108.690 Y114.324
G0 X108.705 Y114.232
G0 X108.739 Y114.141
G0 X108.774 Y114.050
G0 X108.762 Y114.079
G0 X108.809 Y113.993
G0 X108.853 Y113.911
G0 X108.907 Y113.836
G0 X108.961 Y113.761
G0 X109.023 Y113.693
G0 X109.096 Y113.638
G0 X109.221 Y113.586
G0 X109.128 Y113.084
G0 F3000 E3.05324
;segType:SupportTouch
G1 X109.128 Y112.394 E3.06443 F1200
G1 X110.928 Y112.394 E3.09362
G0 X110.900 Y110.900 F7200
;segType:Support
G1 X109.100 Y110.900 E3.12280 F1200
G1 X109.100 Y109.100 E3.15199
G1 X110.900 Y109.100 E3.18117
G0 X110.928 Y112.394 F7200
;segType:SupportTouch
G1 X110.928 Y113.080 E3.19230 F1200
G0 F3000 E1.19230
G0 X110.845 Y113.595 F7200
G0 X110.921 Y113.649
G0 X110.994 Y113.704
G0 X111.050 Y113.778
G0 X111.105 Y113.852
G0 X111.117 Y113.870
G0 X111.158 Y113.928
G0 X111.259 Y114.141
G0 X111.314 Y114.324
G0 X111.323 Y114.415
G0 X111.319 Y114.690
G0 X111.329 Y114.791
G0 X111.327 Y114.781
G0 X111.322 Y114.727
G0 X111.324 Y114.732
G0 X111.324 Y114.732
G0 F3000 E4.19230
;segType:Perimeter
G0 X111.319 Y114.690 F7200
G0 X111.323 Y114.415
G0 X111.314 Y114.324
G0 X111.259 Y114.141
G1 X111.158 Y113.928 E4.19657 F719
G1 X111.105 Y113.852 E4.19836
G1 X111.050 Y113.778 E4.20023
G1 X110.994 Y113.704 E4.20217
G1 X110.921 Y113.649 E4.20390
G1 X110.845 Y113.595 E4.20547
G1 X110.867 Y113.613 E4.20595
G0 X110.845 Y113.595 F7200
G0 X110.921 Y113.649
G0 X110.994 Y113.704
G0 X111.105 Y113.852
G0 X111.158 Y113.928
G1 X111.207 Y114.008 E4.20754 F719
G1 X111.247 Y114.098 E4.20923
G1 X111.243 Y114.050 E4.21002
G1 X111.259 Y114.141 E4.21157
G1 X111.286 Y114.232 E4.21306
G1 X111.314 Y114.324 E4.21446
G1 X111.323 Y114.415 E4.21590
G1 X111.322 Y114.507 E4.21731
G1 X111.321 Y114.598 E4.21870
G1 X111.319 Y114.690 E4.22007
G1 X111.323 Y114.732 E4.22068
G0 X111.324 Y114.732 F7200
G0 X111.319 Y114.690
G0 X111.323 Y114.415
G0 X111.314 Y114.324
G0 X111.259 Y114.141
G0 X111.158 Y113.928
G0 X111.105 Y113.852
G0 X111.050 Y113.778
G0 X110.994 Y113.704
G0 X110.921 Y113.649
G0 X110.845 Y113.595
G0 X110.867 Y113.613
G0 X110.845 Y113.595
G0 X110.921 Y113.649
G0 X110.994 Y113.704
G0 X111.030 Y113.752
G0 F3000 E2.22068
G0 X111.030 Y113.752 F7200
G0 X111.105 Y113.852
G0 X111.158 Y113.928
G0 X111.207 Y114.008
G0 X111.247 Y114.098
G0 X110.097 Y115.943
G0 X110.118 Y115.974
G0 X110.088 Y116.024
G0 F3000 E5.22068
G1 X110.227 Y116.152 E5.22505 F719
G1 X110.300 Y116.335 E5.22865
G1 X110.327 Y116.427 E5.23029
G1 X110.346 Y116.518 E5.23186
G1 X110.356 Y116.610 E5.23336
G1 X110.365 Y116.701 E5.23482
G1 X110.371 Y116.792 E5.23627
G1 X110.371 Y116.884 E5.23771
G1 X110.370 Y116.975 E5.23915
G1 X110.370 Y117.067 E5.24060
G1 X110.370 Y117.158 E5.24204
G1 X110.369 Y117.250 E5.24348
G1 X110.369 Y117.341 E5.24492
G1 X110.227 Y117.507 E5.24832
G1 X109.770 Y117.507 E5.25542
G1 X109.632 Y117.341 E5.25879
G1 X109.632 Y117.250 E5.26021
G1 X109.631 Y117.158 E5.26162
G1 X109.630 Y117.067 E5.26301
G1 X109.630 Y116.975 E5.26440
G1 X109.630 Y116.884 E5.26578
G1 X109.635 Y116.792 E5.26722
G1 X109.641 Y116.701 E5.26872
G1 X109.647 Y116.610 E5.27027
G1 X109.657 Y116.518 E5.27183
G0 X109.702 Y116.313 F7200
G0 X109.735 Y116.216
G1 X109.785 Y116.137 E5.27403 F719
G1 X109.993 Y116.014 E5.28139
G0 X110.088 Y116.024 F7200
G0 X110.227 Y116.152
G0 X110.300 Y116.335
G0 X110.327 Y116.427
G0 X110.346 Y116.518
G0 X110.356 Y116.610
G0 X110.365 Y116.701
G0 X110.371 Y116.792
G0 X110.371 Y116.884
G0 X110.370 Y116.975
G0 X110.370 Y117.067
G0 X110.370 Y117.158
G0 X110.369 Y117.250
G0 X110.369 Y117.341
G0 X110.239 Y117.494
G0 X110.369 Y117.341
G0 X110.369 Y117.250
G0 X110.370 Y117.158
G0 X110.370 Y117.067
G0 X110.370 Y116.975
G0 X110.371 Y116.884
G0 X110.371 Y116.792
G0 X110.365 Y116.701
G0 X110.356 Y116.610
G0 X110.346 Y116.518
G0 X110.327 Y116.427
G0 X110.300 Y116.335
G0 X110.227 Y116.152
G0 X110.049 Y115.988
G0 X110.040 Y115.917
G1 X110.097 Y115.943 E5.28293 F719
G0 X110.183 Y116.067 F7200
G0 X110.227 Y116.152
G1 X110.274 Y116.244 E5.28491 F719
G0 X110.300 Y116.335 F7200
G0 X110.327 Y116.427
G0 X110.346 Y116.518
G0 X110.365 Y116.701
G0 X110.371 Y116.792
G0 X110.371 Y116.884
G0 X110.369 Y117.341
G0 X110.227 Y117.507
G0 X109.770 Y117.507
G0 X109.632 Y117.341
G0 X109.630 Y116.975
G0 X109.630 Y116.884
G0 X109.641 Y116.701
G0 X109.647 Y116.610
G0 X109.657 Y116.518
G1 X109.669 Y116.427 E5.28650 F719
G1 X109.693 Y116.335 E5.28829
G1 X109.720 Y116.244 E5.29011
G0 X109.785 Y116.137 F7200
G1 X109.826 Y116.048 E5.29231 F719
G1 X109.943 Y115.933 E5.29630
G0 X110.040 Y115.917 F7200
G0 X110.097 Y115.943
G0 X110.183 Y116.067
G0 X110.227 Y116.152
G0 X110.274 Y116.244
G0 X110.300 Y116.335
G0 X110.327 Y116.427
G0 X110.346 Y116.518
G0 X110.365 Y116.701
G0 X110.371 Y116.792
G0 X110.371 Y116.884
G0 X110.369 Y117.341
G0 X110.317 Y117.402
G0 F3000 E3.29630
G0 X110.227 Y117.507 F7200
G0 X111.095 Y118.233
G0 X111.095 Y118.568
G0 X111.392 Y118.932
G0 X111.392 Y118.932
G0 F3000 E6.29630
;segType:Loop
G1 X111.347 Y119.032 E6.29905 F1200
G1 X111.095 Y119.032 E6.30535
G1 X111.095 Y118.233 E6.32528
G1 X111.398 Y118.233 E6.33285
G1 X111.398 Y118.733 E6.34533
G0 X111.398 Y118.918 F7200
G0 X111.347 Y119.032
G0 X111.256 Y119.032
G0 X111.398 Y118.733
G0 X111.398 Y118.233
G0 X111.798 Y117.893
;segType:Perimeter
G1 X111.798 Y119.078 E6.37489 F719
G1 X112.056 Y119.382 E6.38731
G1 X112.421 Y119.382 E6.39870
G0 X112.056 Y119.382 F7200
G1 X111.964 Y119.432 E6.40129 F719
G1 X110.695 Y119.432 E6.43296
G1 X110.695 Y117.833 E6.47286
G1 X111.738 Y117.833 E6.49889
G0 X111.798 Y117.893 F7200
G0 X111.798 Y119.078
G0 X112.056 Y119.382
G0 X112.072 Y119.382
G0 F3000 E4.49889
G0 X112.056 Y119.382 F7200
G0 X112.049 Y119.375
G0 X110.695 Y118.926
G0 X110.695 Y117.833
G0 X108.905 Y118.233
G0 X108.905 Y118.333
G0 F3000 E7.49889
;segType:Loop
G1 X108.905 Y119.032 E7.51633 F1200
G1 X108.604 Y119.032 E7.52384
G1 X108.602 Y118.918 E7.52669
G1 X108.602 Y118.233 E7.54378
G1 X108.805 Y118.233 E7.54886
G0 X108.905 Y118.233 F7200
G0 X108.905 Y118.306
G0 X108.805 Y118.233
G0 X108.602 Y118.233
G0 X108.262 Y117.833
;segType:Perimeter
G1 X109.305 Y117.833 E7.57488 F719
G1 X109.305 Y119.432 E7.61478
G1 X108.124 Y119.432 E7.64424
G1 X107.941 Y119.382 E7.65014
G1 X107.576 Y119.382 E7.66153
G0 X107.941 Y119.382 F7200
G1 X108.202 Y119.078 E7.67153 F719
G1 X108.202 Y117.893 E7.70109
G0 X108.262 Y117.833 F7200
G0 X109.305 Y117.833
G0 X109.305 Y118.389
; ------------------------------------
; Layer #17
; ------------------------------------
G92 E0 ;reset extr
G0 F3000 E-2.00000
G0 F600 Z2.800
G0 X109.353 Y117.833 F7200
G0 X109.701 Y117.341
G0 X109.691 Y117.250
G0 X109.682 Y117.158
G0 X109.672 Y117.067
G0 X109.662 Y116.975
G0 X109.654 Y116.884
G0 X109.647 Y116.792
G0 X109.641 Y116.701
G0 X109.634 Y116.610
G0 X109.627 Y116.518
G0 X109.628 Y116.427
G0 X109.635 Y116.335
G0 X109.642 Y116.244
G0 X109.658 Y116.152
G0 X109.720 Y115.942
G0 X109.757 Y115.850
G0 X109.908 Y115.715
G0 F3000 E1.00000
;segType:Perimeter
G1 X109.757 Y115.850 E1.00441 F719
G0 X109.720 Y115.942 F7200
G1 X109.658 Y116.152 E1.00798 F719
G1 X109.642 Y116.244 E1.00940
G1 X109.635 Y116.335 E1.01083
G1 X109.628 Y116.427 E1.01227
G1 X109.627 Y116.518 E1.01367
G1 X109.634 Y116.610 E1.01511
G1 X109.641 Y116.701 E1.01657
G1 X109.647 Y116.792 E1.01807
G1 X109.654 Y116.884 E1.01960
G1 X109.662 Y116.975 E1.02117
G1 X109.672 Y117.067 E1.02281
G1 X109.682 Y117.158 E1.02451
G1 X109.691 Y117.250 E1.02628
G1 X109.701 Y117.341 E1.02812
G1 X109.953 Y117.507 E1.03281
G1 X110.044 Y117.507 E1.03423
G1 X110.227 Y117.432 E1.03916
G0 X110.044 Y117.507 F7200
G0 X109.953 Y117.507
G1 X109.770 Y117.432 E1.04410 F719
G0 X109.701 Y117.341 F7200
G0 X109.662 Y116.975
G0 X109.654 Y116.884
G0 X109.627 Y116.518
G0 X109.628 Y116.427
G0 X109.635 Y116.335
G0 X109.642 Y116.244
G0 X109.658 Y116.152
G1 X109.670 Y116.061 E1.04563 F719
G1 X109.707 Y115.970 E1.04750
G0 X109.757 Y115.850 F7200
G0 X109.819 Y115.782
G1 X109.861 Y115.655 E1.05077 F719
G0 X109.953 Y115.675 F7200
G0 X110.044 Y115.657
G1 X110.078 Y115.654 E1.05163 F719
G1 X110.177 Y115.686 E1.05354
G0 X110.190 Y115.801 F7200
G1 X110.209 Y115.878 E1.05551 F719
G1 X110.306 Y115.970 E1.05771
G0 X110.322 Y116.061 F7200
G0 X110.353 Y116.244
G0 X110.364 Y116.335
G0 X110.367 Y116.518
G0 X110.366 Y116.610
G0 X110.363 Y116.701
G0 X110.357 Y116.792
G0 X110.299 Y117.341
G1 X110.309 Y117.250 E1.05950 F719
G1 X110.318 Y117.158 E1.06123
G1 X110.328 Y117.067 E1.06290
G1 X110.338 Y116.975 E1.06452
G1 X110.347 Y116.884 E1.06607
G1 X110.357 Y116.792 E1.06756
G1 X110.363 Y116.701 E1.06904
G1 X110.366 Y116.610 E1.07053
G1 X110.367 Y116.518 E1.07199
G1 X110.365 Y116.427 E1.07341
G1 X110.364 Y116.335 E1.07479
G1 X110.353 Y116.244 E1.07625
G1 X110.338 Y116.152 E1.07784
G1 X110.322 Y116.061 E1.07956
G0 X110.242 Y115.879 F7200
G1 X110.190 Y115.801 E1.08188 F719
G1 X110.006 Y115.704 E1.08795
G0 X109.908 Y115.715 F7200
G0 X109.757 Y115.850
G0 X109.720 Y115.942
G0 X109.658 Y116.152
G0 X109.642 Y116.244
G0 X109.635 Y116.335
G0 X109.628 Y116.427
G0 X109.627 Y116.518
G0 X109.634 Y116.610
G0 X109.641 Y116.701
G0 X109.647 Y116.792
G0 X109.654 Y116.884
G0 X109.662 Y116.975
G0 X109.672 Y117.067
G0 X109.682 Y117.158
G0 X109.689 Y117.227
G0 F3000 E-0.91205
G0 X109.689 Y117.227 F7200
G0 X109.691 Y117.250
G0 X109.701 Y117.341
G0 X109.662 Y116.975
G0 X109.654 Y116.884
G0 X109.627 Y116.518
G0 X109.628 Y116.427
G0 X109.629 Y116.413
G0 X109.635 Y116.335
G0 X109.642 Y116.244
G0 X109.658 Y116.152
G0 X109.670 Y116.061
G0 X109.707 Y115.970
G0 X109.757 Y115.850
G0 X109.819 Y115.782
G0 X109.861 Y115.655
G0 X109.467 Y114.194
G0 F3000 E2.08795
;segType:SupportTouch
G1 X110.531 Y114.194 E2.10521 F1200
G0 F3000 E0.10521
G0 X110.684 Y113.526 F7200
G0 X110.636 Y113.508
G0 X110.638 Y113.500
G0 X110.638 Y113.500
G0 X110.638 Y113.497
G0 F3000 E3.10521
;segType:Perimeter
G1 X110.684 Y113.526 E3.10657 F719
G1 X110.593 Y113.493 E3.10859
G1 X110.501 Y113.460 E3.11021
G1 X110.410 Y113.427 E3.11143
G1 X110.473 Y113.450 E3.11247
G1 X110.587 Y113.465 E3.11512
G1 X110.663 Y113.518 E3.11734
G1 X110.739 Y113.572 E3.11964
G1 X110.812 Y113.628 E3.12195
G1 X110.871 Y113.698 E3.12411
G1 X110.929 Y113.770 E3.12618
G1 X110.986 Y113.841 E3.12814
G1 X111.044 Y113.913 E3.13001
G1 X111.102 Y113.985 E3.13177
G1 X111.153 Y114.063 E3.13344
G1 X111.200 Y114.145 E3.13507
G0 X111.274 Y114.324 F7200
G0 X111.295 Y114.415
G0 X111.317 Y114.507
G0 X111.322 Y114.598
G1 X111.317 Y114.507 E3.13655 F719
G1 X111.295 Y114.415 E3.13805
G1 X111.274 Y114.324 E3.13954
G1 X111.247 Y114.232 E3.14111
G1 X111.251 Y114.223 E3.14127
G0 X111.200 Y114.145 F7200
G0 X111.153 Y114.063
G0 X111.102 Y113.985
G0 X110.871 Y113.698
G0 X110.812 Y113.628
G0 X110.739 Y113.572
G0 X110.636 Y113.499
G0 X110.638 Y113.497
G0 X110.684 Y113.526
G0 X110.593 Y113.493
G0 X110.501 Y113.460
G0 X110.410 Y113.427
G0 X110.473 Y113.450
G0 X110.587 Y113.465
G0 X110.663 Y113.518
G0 X110.739 Y113.572
G0 X110.812 Y113.628
G0 X110.871 Y113.698
G0 X110.929 Y113.770
G0 X110.986 Y113.841
G0 X111.044 Y113.913
G0 X111.102 Y113.985
G0 X111.153 Y114.063
G0 X111.200 Y114.145
G0 X111.256 Y114.281
G0 F3000 E1.14127
G0 X111.235 Y114.199 F7200
G0 X111.200 Y114.145
G0 X111.153 Y114.063
G0 X111.102 Y113.985
G0 X110.871 Y113.698
G0 X110.812 Y113.628
G0 X110.739 Y113.572
G0 X110.587 Y113.465
G0 X110.928 Y112.987
G0 F3000 E4.14127
;segType:SupportTouch
G1 X110.928 Y112.394 E4.15089 F1200
G0 X110.928 Y112.394 F7200
G1 X109.128 Y112.394 E4.18008 F1200
G1 X109.128 Y112.956 E4.18919
G0 X109.100 Y110.900 F7200
;segType:Support
G1 X110.900 Y110.900 E4.21838 F1200
G1 X110.900 Y109.100 E4.24756
G1 X109.100 Y109.100 E4.27675
G0 F3000 E2.27675
G0 X109.551 Y113.446 F7200
G0 X109.455 Y113.479
G0 X109.369 Y113.503
G0 X109.370 Y113.508
G0 F3000 E5.27675
;segType:Perimeter
G1 X109.404 Y113.496 E5.27751 F719
G1 X109.496 Y113.465 E5.27911
G1 X109.551 Y113.446 E5.27993
G1 X109.455 Y113.479 E5.28180
G1 X109.354 Y113.507 E5.28431
G1 X109.278 Y113.560 E5.28660
G1 X109.202 Y113.614 E5.28897
G1 X109.141 Y113.682 E5.29115
G1 X109.082 Y113.753 E5.29323
G1 X109.025 Y113.825 E5.29524
G1 X108.968 Y113.897 E5.29716
G1 X108.913 Y113.972 E5.29897
G1 X108.859 Y114.047 E5.30065
G1 X108.808 Y114.126 E5.30228
G0 X108.768 Y114.214 F7200
G1 X108.701 Y114.415 E5.30556 F719
G1 X108.683 Y114.507 E5.30700
G1 X108.680 Y114.598 E5.30828
G0 X108.683 Y114.507 F7200
G0 X108.701 Y114.415
G1 X108.722 Y114.324 E5.30968 F719
G1 X108.760 Y114.232 E5.31128
G1 X108.790 Y114.141 E5.31287
G0 X108.808 Y114.126 F7200
G0 X108.859 Y114.047
G0 X108.913 Y113.972
G0 X108.968 Y113.897
G0 X109.082 Y113.753
G0 X109.141 Y113.682
G0 X109.202 Y113.614
G0 X109.278 Y113.560
G0 X109.342 Y113.515
G0 X109.370 Y113.508
G0 X109.404 Y113.496
G0 X109.496 Y113.465
G0 X109.551 Y113.446
G0 X109.455 Y113.479
G0 X109.354 Y113.507
G0 X109.278 Y113.560
G0 X109.202 Y113.614
G0 X109.141 Y113.682
G0 X109.082 Y113.753
G0 X109.025 Y113.825
G0 X108.968 Y113.897
G0 X108.913 Y113.972
G0 X108.859 Y114.047
G0 X108.808 Y114.126
G0 X108.768 Y114.214
G0 X108.701 Y114.415
G0 X108.690 Y114.474
G0 F3000 E3.31287
G0 X108.690 Y114.474 F7200
G0 X108.683 Y114.507
G0 X108.680 Y114.598
G0 X108.953 Y118.333
G0 F3000 E6.31287
;segType:Loop
G1 X108.953 Y119.032 E6.33031 F1200
G1 X108.718 Y119.032 E6.33616
G1 X108.613 Y118.918 E6.34004
G1 X108.613 Y118.233 E6.35713
G1 X108.853 Y118.233 E6.36312
G0 X108.613 Y118.233 F7200
G0 X108.273 Y117.833
;segType:Perimeter
G1 X109.353 Y117.833 E6.39006 F719
G1 X109.353 Y119.432 E6.42995
G1 X108.124 Y119.432 E6.46061
G1 X107.941 Y119.382 E6.46651
G1 X107.576 Y119.382 E6.47790
G0 X107.941 Y119.382 F7200
G1 X108.213 Y119.078 E6.48808 F719
G1 X108.213 Y117.893 E6.51764
G0 X108.273 Y117.833 F7200
G0 X109.353 Y117.833
G0 X109.353 Y118.353
G0 F3000 E4.51764
G0 X109.353 Y119.432 F7200
G0 X111.047 Y119.032
G0 X111.047 Y119.015
G0 X111.382 Y118.932
G0 X111.382 Y118.932
G0 F3000 E7.51764
;segType:Loop
G1 X111.347 Y119.032 E7.52029 F1200
G1 X111.047 Y119.032 E7.52778
G1 X111.047 Y118.233 E7.54771
G1 X111.387 Y118.233 E7.55620
G1 X111.387 Y118.733 E7.56867
G0 X111.387 Y118.918 F7200
G0 X111.347 Y119.032
G0 X111.244 Y119.032
G0 X111.387 Y118.733
G0 X111.387 Y118.233
G0 X111.787 Y117.893
;segType:Perimeter
G1 X111.787 Y119.078 E7.59824 F719
G1 X112.056 Y119.382 E7.61088
G1 X112.421 Y119.382 E7.62227
G0 X112.056 Y119.382 F7200
G1 X111.964 Y119.432 E7.62487 F719
G1 X110.647 Y119.432 E7.65773
G1 X110.647 Y117.833 E7.69762
G1 X111.727 Y117.833 E7.72456
G0 X111.787 Y117.893 F7200
G0 X111.787 Y119.078
G0 X112.056 Y119.382
G0 X112.064 Y119.382
; ------------------------------------
; Layer #18
; ------------------------------------
G92 E0 ;reset extr
G0 F3000 E-2.00000
G0 F600 Z2.950
G0 X111.964 Y119.382 F7200
G0 X111.934 Y119.337
G0 X110.531 Y118.845
G0 X110.531 Y117.833
G0 X109.069 Y118.233
G0 X109.069 Y118.333
G0 F3000 E1.00000
;segType:Loop
G1 X109.069 Y119.032 E1.01744 F1200
G1 X108.718 Y119.032 E1.02618
G1 X108.636 Y118.918 E1.02970
G1 X108.636 Y118.233 E1.04679
G1 X108.969 Y118.233 E1.05510
G0 X108.636 Y118.233 F7200
G0 X108.296 Y117.833
;segType:Perimeter
G1 X109.469 Y117.833 E1.08436 F719
G1 X109.469 Y119.432 E1.12425
G1 X108.216 Y119.432 E1.15551
G1 X108.033 Y119.382 E1.16141
G1 X107.576 Y119.382 E1.17565
G0 X108.033 Y119.382 F7200
G1 X108.236 Y119.078 E1.18478 F719
G1 X108.236 Y117.893 E1.21435
G0 X108.296 Y117.833 F7200
G0 X109.469 Y117.833
G0 X109.469 Y118.260
G0 F3000 E-0.78565
G0 X109.469 Y119.432 F7200
G0 X110.531 Y119.432
G0 X110.531 Y119.152
G0 X111.764 Y118.827
G0 X111.362 Y118.933
G0 F3000 E2.21435
;segType:Loop
G1 X111.347 Y119.032 E2.21685 F1200
G1 X110.931 Y119.032 E2.22723
G1 X110.931 Y118.233 E2.24717
G1 X111.364 Y118.233 E2.25797
G1 X111.364 Y118.733 E2.27044
G0 X111.364 Y118.918 F7200
G0 X111.347 Y119.032
G0 X111.222 Y119.032
G0 X111.364 Y118.733
G0 X111.364 Y118.233
G0 X111.764 Y117.893
;segType:Perimeter
G1 X111.764 Y119.078 E2.30001 F719
G1 X111.964 Y119.382 E2.31135
G1 X112.421 Y119.382 E2.32559
G0 X111.964 Y119.382 F7200
G1 X111.873 Y119.432 E2.32818 F719
G1 X110.531 Y119.432 E2.36165
G1 X110.531 Y117.833 E2.40154
G1 X111.704 Y117.833 E2.43080
G0 X111.764 Y117.893 F7200
G0 X111.764 Y119.078
G0 X111.964 Y119.382
G0 X112.015 Y119.382
G0 F3000 E0.43080
G0 X111.964 Y119.382 F7200
G0 X111.764 Y119.078
G0 X111.764 Y118.653
G0 X111.482 Y117.833
G0 X110.531 Y117.833
G0 X109.100 Y110.900
G0 F3000 E3.43080
;segType:Support
G1 X110.900 Y110.900 E3.45999 F1200
G1 X110.900 Y109.100 E3.48918
G1 X109.100 Y109.100 E3.51836
G0 F3000 E1.51836
G0 X110.411 Y113.382 F7200
G0 X110.439 Y113.400
G0 X110.441 Y113.404
G0 X110.441 Y113.404
G0 X110.445 Y113.418
G0 F3000 E4.51836
;segType:Perimeter
G1 X110.410 Y113.405 E4.51945 F719
G1 X110.318 Y113.372 E4.52187
G1 X110.227 Y113.339 E4.52390
G1 X110.136 Y113.306 E4.52552
G1 X110.044 Y113.272 E4.52674
G1 X109.953 Y113.273 E4.52790
G1 X109.861 Y113.306 E4.52952
G1 X109.770 Y113.338 E4.53154
G1 X109.678 Y113.371 E4.53396
G1 X109.587 Y113.404 E4.53676
G1 X109.496 Y113.436 E4.53997
G0 X109.603 Y113.369 F7200
G0 X109.528 Y113.423
G0 X109.454 Y113.478
G0 X109.331 Y113.614
G0 X109.271 Y113.683
G0 X108.975 Y114.034
G0 X108.916 Y114.104
G0 X108.864 Y114.182
G1 X108.883 Y114.141 E4.54078 F719
G1 X108.840 Y114.232 E4.54258
G1 X108.791 Y114.324 E4.54430
G1 X108.741 Y114.415 E4.54588
G1 X108.730 Y114.436 E4.54622
G1 X108.776 Y114.351 E4.54776
G1 X108.821 Y114.267 E4.54942
G1 X108.864 Y114.182 E4.55123
G1 X108.916 Y114.104 E4.55300
G1 X108.975 Y114.034 E4.55486
G1 X109.034 Y113.964 E4.55685
G1 X109.093 Y113.893 E4.55897
G1 X109.152 Y113.823 E4.56121
G1 X109.212 Y113.753 E4.56357
G1 X109.271 Y113.683 E4.56607
G1 X109.331 Y113.614 E4.56870
G1 X109.393 Y113.546 E4.57150
G1 X109.454 Y113.478 E4.57445
G1 X109.528 Y113.423 E4.57738
G1 X109.603 Y113.369 E4.58025
G1 X109.720 Y113.356 E4.58295
G1 X109.815 Y113.322 E4.58485
G1 X109.911 Y113.288 E4.58632
G1 X110.109 Y113.296 E4.58941
G1 X110.204 Y113.330 E4.59141
G1 X110.299 Y113.365 E4.59384
G1 X110.411 Y113.382 E4.59738
G1 X110.486 Y113.436 E4.60037
G1 X110.557 Y113.495 E4.60333
G1 X110.618 Y113.563 E4.60613
G1 X110.679 Y113.631 E4.60878
G1 X110.741 Y113.699 E4.61128
G1 X110.802 Y113.767 E4.61363
G1 X110.863 Y113.836 E4.61583
G1 X110.924 Y113.904 E4.61788
G1 X110.982 Y113.975 E4.61984
G1 X111.039 Y114.047 E4.62171
G1 X111.095 Y114.121 E4.62347
G1 X111.146 Y114.199 E4.62514
G1 X111.194 Y114.280 E4.62681
G1 X111.239 Y114.365 E4.62841
G1 X111.263 Y114.415 E4.62930
G1 X111.218 Y114.324 E4.63106
G0 X111.194 Y114.280 F7200
G0 X111.146 Y114.199
G0 X111.095 Y114.121
G0 X111.039 Y114.047
G0 X110.982 Y113.975
G0 X110.924 Y113.904
G0 X110.557 Y113.495
G0 X110.486 Y113.436
G0 X110.411 Y113.382
G1 X110.450 Y113.407 E4.63172 F719
G0 X110.445 Y113.418 F7200
G0 X110.410 Y113.405
G0 X110.318 Y113.372
G0 X110.227 Y113.339
G0 X110.136 Y113.306
G0 X110.044 Y113.272
G0 X109.953 Y113.273
G0 X109.861 Y113.306
G0 X109.770 Y113.338
G0 X109.678 Y113.371
G0 X109.587 Y113.404
G0 X109.496 Y113.436
G0 X109.603 Y113.369
G0 X109.528 Y113.423
G0 X109.454 Y113.478
G0 X109.331 Y113.614
G0 X109.271 Y113.683
G0 X109.264 Y113.691
G0 F3000 E2.63172
G0 X109.212 Y113.753 F7200
G0 X109.152 Y113.823
G0 X109.093 Y113.893
G0 X109.034 Y113.964
G0 X108.975 Y114.034
G0 X108.916 Y114.104
G0 X108.864 Y114.182
G0 X108.821 Y114.267
G0 X108.776 Y114.351
G0 X108.730 Y114.436
G0 X109.861 Y115.432
G0 X109.835 Y115.485
G0 X109.877 Y115.525
G0 F3000 E5.63172
G1 X110.194 Y115.539 E5.63957 F719
G1 X110.255 Y115.607 E5.64140
G1 X110.317 Y115.787 E5.64471
G1 X110.338 Y115.878 E5.64624
G1 X110.359 Y115.970 E5.64768
G1 X110.369 Y116.061 E5.64913
G1 X110.365 Y116.152 E5.65063
G1 X110.358 Y116.244 E5.65217
G1 X110.351 Y116.335 E5.65374
G1 X110.342 Y116.427 E5.65532
G0 X110.290 Y116.641 F7200
G0 X110.258 Y116.739
G0 X110.227 Y116.837
G1 X109.847 Y116.920 E5.66760 F719
G1 X109.791 Y116.847 E5.67001
G1 X109.697 Y116.610 E5.67492
G1 X109.677 Y116.518 E5.67662
G1 X109.660 Y116.427 E5.67816
G1 X109.643 Y116.335 E5.67957
G1 X109.639 Y116.244 E5.68096
G1 X109.633 Y116.152 E5.68234
G1 X109.631 Y116.061 E5.68374
G1 X109.639 Y115.970 E5.68526
G1 X109.654 Y115.878 E5.68682
G0 X109.715 Y115.679 F7200
G1 X109.761 Y115.595 E5.68896 F719
G1 X109.780 Y115.570 E5.68969
G0 X109.877 Y115.525 F7200
G0 X110.194 Y115.539
G0 X110.255 Y115.607
G0 X110.317 Y115.787
G0 X110.338 Y115.878
G0 X110.359 Y115.970
G0 X110.369 Y116.061
G0 X110.365 Y116.152
G0 X110.358 Y116.244
G0 X110.351 Y116.335
G0 X110.342 Y116.427
G0 X110.290 Y116.641
G0 X110.258 Y116.739
G0 X110.249 Y116.769
G0 X110.224 Y116.792
G0 X110.270 Y116.701
G0 X110.261 Y116.720
G0 X110.249 Y116.769
G0 X110.227 Y116.837
G0 X110.194 Y116.992
G0 X110.086 Y117.432
G1 X109.854 Y117.432 E5.69549 F719
G1 X109.832 Y117.162 E5.70225
G1 X109.773 Y116.792 E5.71158
G1 X109.680 Y116.701 E5.71357
G0 X109.697 Y116.610 F7200
G0 X109.677 Y116.518
G0 X109.643 Y116.335
G0 X109.639 Y116.244
G0 X109.633 Y116.152
G0 X109.631 Y116.061
G0 X109.639 Y115.970
G0 X109.654 Y115.878
G1 X109.656 Y115.787 E5.71500 F719
G1 X109.706 Y115.695 E5.71697
G0 X109.761 Y115.595 F7200
G0 X109.817 Y115.522
G1 X109.861 Y115.432 E5.71970 F719
G1 X109.953 Y115.388 E5.72200
G1 X110.044 Y115.434 E5.72500
G1 X110.100 Y115.424 E5.72642
G0 X110.194 Y115.539 F7200
G0 X110.255 Y115.607
G1 X110.300 Y115.692 E5.72824 F719
G1 X110.334 Y115.695 E5.72871
G0 X110.317 Y115.787 F7200
G0 X110.359 Y115.970
G0 X110.369 Y116.061
G0 X110.365 Y116.152
G0 X110.351 Y116.335
G0 X110.342 Y116.427
G1 X110.329 Y116.518 E5.73029 F719
G1 X110.300 Y116.610 E5.73211
G1 X110.270 Y116.701 E5.73412
G1 X110.224 Y116.792 E5.73668
G1 X110.168 Y117.163 E5.74601
G1 X110.151 Y117.372 E5.75126
G0 X110.086 Y117.432 F7200
G0 X109.854 Y117.432
G0 X109.832 Y117.162
G0 X109.773 Y116.792
G0 X109.680 Y116.701
G0 X109.697 Y116.610
G0 X109.677 Y116.518
G0 X109.643 Y116.335
G0 X109.639 Y116.244
G0 X109.633 Y116.152
G0 X109.633 Y116.116
; ------------------------------------
; Layer #19
; ------------------------------------
G92 E0 ;reset extr
G0 F3000 E-2.00000
G0 F600 Z3.100
G0 X109.654 Y116.061 F7200
G0 X109.646 Y115.996
G0 X109.633 Y115.878
G0 X109.635 Y115.787
G0 X109.641 Y115.695
G0 X109.655 Y115.604
G0 X109.710 Y115.438
G0 X109.717 Y115.372
G0 X109.759 Y115.335
G0 X109.824 Y115.270
G0 X109.893 Y115.210
G0 X110.030 Y115.186
G0 X110.297 Y113.496
G0 X110.000 Y113.253
G0 X109.954 Y113.291
G0 X109.952 Y113.250
G0 X109.954 Y113.291
G0 F3000 E1.00000
;segType:Perimeter
G1 X109.718 Y113.483 E1.00759 F719
G1 X109.580 Y113.475 E1.01265
G1 X109.522 Y113.547 E1.01580
G1 X109.459 Y113.613 E1.01881
G1 X109.398 Y113.681 E1.02165
G1 X109.337 Y113.749 E1.02434
G1 X109.276 Y113.818 E1.02689
G1 X109.217 Y113.887 E1.02930
G1 X109.157 Y113.957 E1.03157
G1 X109.097 Y114.026 E1.03371
G1 X109.039 Y114.098 E1.03569
G1 X108.981 Y114.168 E1.03752
G1 X108.922 Y114.239 E1.03918
G1 X108.947 Y114.229 E1.03973
G1 X108.856 Y114.296 E1.04140
G1 X108.852 Y114.299 E1.04146
G0 X108.922 Y114.239 F7200
G0 X109.039 Y114.098
G0 X109.097 Y114.026
G0 X109.276 Y113.818
G0 X109.337 Y113.749
G0 X109.459 Y113.613
G0 X109.522 Y113.547
G0 X109.580 Y113.475
G1 X109.589 Y113.249 E1.04710 F719
G1 X109.678 Y113.217 E1.04947
G1 X109.770 Y113.315 E1.05444
G1 X109.861 Y113.282 E1.05765
G1 X109.953 Y113.250 E1.06047
G1 X110.044 Y113.249 E1.06311
G1 X110.136 Y113.281 E1.06631
G1 X110.227 Y113.314 E1.06990
G1 X110.419 Y113.261 E1.07487
G0 X110.433 Y113.490 F7200
G0 X110.491 Y113.561
G0 X110.553 Y113.628
G0 X110.676 Y113.764
G0 X110.736 Y113.833
G0 X111.095 Y114.250
G1 X111.163 Y114.311 E1.07617 F719
G1 X111.141 Y114.288 E1.07668
G1 X111.050 Y114.222 E1.07908
G1 X111.095 Y114.250 E1.08006
G1 X111.035 Y114.180 E1.08188
G1 X110.975 Y114.111 E1.08385
G1 X110.916 Y114.042 E1.08594
G1 X110.856 Y113.972 E1.08817
G1 X110.796 Y113.903 E1.09054
G1 X110.736 Y113.833 E1.09305
G1 X110.676 Y113.764 E1.09569
G1 X110.614 Y113.696 E1.09849
G1 X110.553 Y113.628 E1.10145
G1 X110.491 Y113.561 E1.10455
G1 X110.433 Y113.490 E1.10788
G1 X110.297 Y113.496 E1.11127
G1 X110.046 Y113.291 E1.11936
G0 X109.954 Y113.291 F7200
G0 X109.718 Y113.483
G0 X109.580 Y113.475
G0 X109.522 Y113.547
G0 X109.459 Y113.613
G0 X109.398 Y113.681
G0 X109.337 Y113.749
G0 X109.276 Y113.818
G0 X109.217 Y113.887
G0 X109.157 Y113.957
G0 X109.097 Y114.026
G0 X109.039 Y114.098
G0 X108.981 Y114.168
G0 X108.922 Y114.239
G0 X108.947 Y114.229
G0 X108.856 Y114.296
G0 X108.852 Y114.299
G0 X108.855 Y114.296
G0 F3000 E-0.88064
G0 X108.922 Y114.239 F7200
G0 X109.039 Y114.098
G0 X109.097 Y114.026
G0 X109.276 Y113.818
G0 X109.337 Y113.749
G0 X109.459 Y113.613
G0 X109.522 Y113.547
G0 X109.580 Y113.475
G0 X109.589 Y113.249
G0 X109.678 Y113.217
G0 X109.100 Y109.100
G0 F3000 E2.11936
;segType:Support
G1 X110.900 Y109.100 E2.14854 F1200
G1 X110.900 Y110.900 E2.17773
G1 X109.100 Y110.900 E2.20691
G0 F3000 E0.20691
G0 X109.893 Y115.210 F7200
G0 X109.824 Y115.270
G0 X109.802 Y115.292
G0 X109.803 Y115.301
G0 X109.759 Y115.335
G0 X109.715 Y115.420
G0 X109.655 Y115.604
G0 X109.641 Y115.695
G0 X109.635 Y115.787
G0 X109.633 Y115.878
G0 X109.654 Y116.061
G0 X109.719 Y116.273
G0 X109.756 Y116.365
G0 X109.989 Y116.465
G0 X110.035 Y116.753
G0 X110.146 Y116.632
G0 X110.207 Y116.427
G0 X109.989 Y116.465
G0 F3000 E3.20691
;segType:Perimeter
G1 X109.756 Y116.365 E3.21242 F719
G1 X109.719 Y116.273 E3.21439
G0 X109.654 Y116.061 F7200
G0 X109.633 Y115.878
G0 X109.635 Y115.787
G0 X109.641 Y115.695
G0 X109.655 Y115.604
G1 X109.715 Y115.420 E3.21807 F719
G0 X109.759 Y115.335 F7200
G0 X109.953 Y115.185
G0 X110.185 Y115.289
G1 X110.245 Y115.358 E3.21992 F719
G0 X110.323 Y115.512 F7200
G0 X110.356 Y115.695
G0 X110.367 Y115.787
G0 X110.367 Y115.878
G0 X110.363 Y115.970
G1 X110.319 Y116.153 E3.22328 F719
G1 X110.296 Y116.260 E3.22548
G1 X110.262 Y116.355 E3.22759
G1 X110.095 Y116.457 E3.23228
G0 X109.989 Y116.465 F7200
G0 X109.756 Y116.365
G0 X109.719 Y116.273
G0 X109.654 Y116.061
G0 X109.633 Y115.878
G0 X109.635 Y115.787
G0 X109.641 Y115.695
G0 X109.655 Y115.604
G0 X109.715 Y115.420
G0 X109.759 Y115.335
G0 X109.953 Y115.185
G0 X109.982 Y115.198
G0 X109.952 Y115.200
G0 X109.933 Y115.201
G0 X109.953 Y115.185
G0 X109.952 Y115.200
G1 X110.030 Y115.186 E3.23424 F719
G1 X110.162 Y115.183 E3.23662
G1 X110.185 Y115.289 E3.23921
G1 X110.195 Y115.330 E3.24024
G0 X110.296 Y115.421 F7200
G1 X110.323 Y115.512 E3.24199 F719
G1 X110.340 Y115.604 E3.24357
G1 X110.356 Y115.695 E3.24502
G1 X110.367 Y115.787 E3.24639
G1 X110.367 Y115.878 E3.24781
G1 X110.363 Y115.970 E3.24926
G0 X110.345 Y116.061 F7200
G0 X110.319 Y116.152
G0 X110.294 Y116.244
G1 X110.207 Y116.427 E3.25431 F719
G1 X110.146 Y116.632 E3.25965
G1 X109.999 Y116.792 E3.26714
G1 X109.999 Y116.884 E3.26991
G1 X110.006 Y116.975 E3.27222
G1 X109.988 Y116.986 E3.27273
G1 X110.016 Y116.881 E3.27618
G0 X109.999 Y116.884 F7200
G0 X109.999 Y116.792
G1 X109.834 Y116.573 E3.28305 F719
G1 X109.776 Y116.335 E3.28914
G0 X109.707 Y116.244 F7200
G0 X109.669 Y116.152
G1 X109.654 Y116.061 E3.29065 F719
G1 X109.643 Y115.970 E3.29207
G1 X109.633 Y115.878 E3.29344
G1 X109.635 Y115.787 E3.29488
G1 X109.641 Y115.695 E3.29641
G1 X109.655 Y115.604 E3.29796
G0 X109.671 Y115.512 F7200
G0 X109.661 Y115.421
G1 X109.759 Y115.335 E3.30067 F719
G1 X109.824 Y115.270 E3.30277
G1 X109.848 Y115.250 E3.30352
G0 X109.952 Y115.200 F7200
G0 X110.030 Y115.186
G0 X110.162 Y115.183
G0 X110.185 Y115.289
G0 X110.195 Y115.330
G0 X110.296 Y115.421
G0 X110.323 Y115.512
G0 X110.340 Y115.604
G0 X110.356 Y115.695
G0 X110.367 Y115.787
G0 X110.367 Y115.878
G0 X110.363 Y115.970
G0 X110.345 Y116.061
G0 X110.319 Y116.152
G0 X110.294 Y116.244
G0 X110.207 Y116.427
G0 X110.190 Y116.485
G0 F3000 E1.30352
G0 X110.190 Y116.485 F7200
G0 X110.019 Y116.771
G0 X109.999 Y116.792
G0 X109.999 Y116.804
G0 X109.999 Y116.884
G0 X109.155 Y118.233
G0 X108.693 Y118.972
G0 X108.670 Y118.918
G0 X108.671 Y118.233
G0 X108.951 Y118.560
G0 F3000 E4.30352
;segType:HShell
G0 X108.739 Y118.489 F7200
G1 X109.444 Y118.632 E4.32326 F959
G1 X110.010 Y118.632 E4.34644
G0 X110.695 Y118.513 F7200
G1 X110.456 Y118.752 E4.35572 F959
G0 X111.233 Y119.032 F7200
;segType:Loop
G1 X108.718 Y119.032 E4.41844 F1200
G1 X108.670 Y118.918 E4.42152
G1 X108.671 Y118.233 E4.43862
G1 X111.329 Y118.233 E4.50494
G1 X111.330 Y118.918 E4.52204
G1 X111.233 Y119.032 E4.52577
G0 X110.996 Y118.233 F7200
G0 X110.957 Y118.100
;segType:Perimeter
G1 X111.729 Y117.893 E4.54572 F719
G1 X111.730 Y119.078 E4.57529
G0 X111.964 Y119.382 F7200
G0 X112.421 Y119.382
G1 X111.964 Y119.382 E4.58953 F719
G1 X111.873 Y119.432 E4.59212
G1 X108.216 Y119.432 E4.68335
G1 X108.033 Y119.382 E4.68925
G1 X107.576 Y119.382 E4.70349
G0 X108.033 Y119.382 F7200
G1 X108.270 Y119.078 E4.71312 F719
G1 X108.271 Y117.833 E4.74418
G1 X111.669 Y117.833 E4.82896
G0 X111.729 Y117.893 F7200
G0 X111.730 Y119.078
G0 X111.964 Y119.382
G0 X111.995 Y119.382
; ------------------------------------
; Layer #20
; ------------------------------------
G92 E0 ;reset extr
G0 F3000 E-2.00000
G0 F600 Z3.250
G0 X111.021 Y114.195 F7200
G0 X110.958 Y114.160
G0 X110.936 Y114.151
G0 X110.796 Y114.032
G0 X110.728 Y113.971
G0 X110.666 Y113.903
G0 X110.428 Y113.624
G0 X110.359 Y113.564
G0 X110.217 Y113.576
G0 X110.000 Y113.399
G0 X109.954 Y113.437
G0 X109.825 Y113.063
G0 X109.770 Y113.063
G0 X109.642 Y113.253
G0 X109.954 Y113.437
G0 F3000 E1.00000
;segType:Perimeter
G1 X109.656 Y113.680 E1.00959 F719
G1 X109.526 Y113.680 E1.01416
G1 X109.469 Y113.752 E1.01717
G1 X109.408 Y113.820 E1.02001
G1 X109.346 Y113.888 E1.02269
G1 X109.285 Y113.956 E1.02521
G1 X109.224 Y114.024 E1.02757
G1 X109.313 Y113.964 E1.03044
G1 X109.221 Y114.015 E1.03306
G1 X109.130 Y114.090 E1.03548
G1 X109.038 Y114.166 E1.03742
G1 X109.004 Y114.192 E1.03805
G1 X109.075 Y114.134 E1.03969
G1 X109.147 Y114.076 E1.04165
G0 X109.224 Y114.024 F7200
G0 X109.408 Y113.820
G0 X109.469 Y113.752
G0 X109.526 Y113.680
G1 X109.507 Y113.531 E1.04539 F719
G1 X109.642 Y113.253 E1.05310
G1 X109.770 Y113.063 E1.05883
G1 X110.227 Y113.063 E1.07023
G1 X110.338 Y113.135 E1.07355
G1 X110.391 Y113.318 E1.07830
G1 X110.428 Y113.624 E1.08969
G1 X110.488 Y113.694 E1.09290
G1 X110.547 Y113.764 E1.09592
G1 X110.606 Y113.834 E1.09874
G1 X110.666 Y113.903 E1.10138
G1 X110.728 Y113.971 E1.10387
G1 X110.796 Y114.032 E1.10610
G1 X110.866 Y114.091 E1.10806
G1 X110.936 Y114.151 E1.10974
G1 X111.021 Y114.195 E1.11094
G1 X110.958 Y114.160 E1.11214
G0 X110.936 Y114.151 F7200
G0 X110.796 Y114.032
G0 X110.728 Y113.971
G0 X110.666 Y113.903
G0 X110.428 Y113.624
G1 X110.359 Y113.564 E1.11556 F719
G1 X110.217 Y113.576 E1.11911
G1 X110.047 Y113.437 E1.12460
G0 X109.954 Y113.437 F7200
G0 X109.656 Y113.680
G0 X109.526 Y113.680
G0 X109.469 Y113.752
G0 X109.408 Y113.820
G0 X109.346 Y113.888
G0 X109.285 Y113.956
G0 X109.224 Y114.024
G0 X109.313 Y113.964
G0 X109.221 Y114.015
G0 X109.130 Y114.090
G0 X109.038 Y114.166
G0 X109.004 Y114.192
G0 X109.075 Y114.134
G0 X109.109 Y114.107
G0 F3000 E-0.87540
G0 X109.147 Y114.076 F7200
G0 X109.224 Y114.024
G0 X109.408 Y113.820
G0 X109.469 Y113.752
G0 X109.526 Y113.680
G0 X109.507 Y113.531
G0 X109.642 Y113.253
G0 X109.770 Y113.063
G0 X109.100 Y109.100
G0 F3000 E2.12460
;segType:Support
G1 X110.900 Y109.100 E2.15379 F1200
G1 X110.900 Y110.900 E2.18297
G1 X109.100 Y110.900 E2.21216
G0 F3000 E0.21216
G0 X109.861 Y114.992 F7200
G0 X109.840 Y115.028
G0 X109.779 Y115.096
G0 X109.746 Y115.142
G0 X109.746 Y115.142
G0 X109.724 Y115.171
G0 X109.666 Y115.330
G0 X109.648 Y115.421
G0 X109.633 Y115.512
G0 X109.630 Y115.604
G0 X109.641 Y115.695
G0 X109.661 Y115.787
G0 X109.724 Y116.009
G0 X109.774 Y116.088
G0 X109.901 Y116.164
G0 F3000 E3.21216
;segType:Perimeter
G0 X109.774 Y116.088 F7200
G0 X109.724 Y116.009
G0 X109.661 Y115.787
G0 X109.641 Y115.695
G0 X109.630 Y115.604
G0 X109.633 Y115.512
G0 X109.648 Y115.421
G0 X109.666 Y115.330
G1 X109.724 Y115.171 E3.21534 F719
G0 X109.779 Y115.096 F7200
G0 X109.953 Y114.981
G0 X110.168 Y115.047
G0 X110.232 Y115.113
G0 X110.328 Y115.330
G0 X110.353 Y115.421
G0 X110.372 Y115.512
G0 X110.362 Y115.604
G0 X110.338 Y115.787
G1 X110.281 Y115.986 E3.21938 F719
G1 X110.232 Y116.066 E3.22154
G1 X110.178 Y116.142 E3.22391
G1 X110.011 Y116.181 E3.22821
G0 X109.901 Y116.164 F7200
G0 X109.774 Y116.088
G0 X109.724 Y116.009
G0 X109.661 Y115.787
G0 X109.641 Y115.695
G0 X109.630 Y115.604
G0 X109.633 Y115.512
G0 X109.648 Y115.421
G0 X109.666 Y115.330
G0 X109.724 Y115.171
G0 X109.779 Y115.096
G0 X109.953 Y114.981
G0 X110.138 Y115.038
G0 X110.168 Y115.047
G0 X110.232 Y115.113
G0 X110.328 Y115.330
G0 X110.353 Y115.421
G0 X110.372 Y115.512
G0 X110.362 Y115.604
G0 X110.338 Y115.787
G0 X110.281 Y115.986
G0 X110.232 Y116.066
G0 X110.178 Y116.142
G0 X109.996 Y116.185
G0 X109.970 Y116.392
G1 X109.922 Y116.350 E3.22982 F719
G1 X109.830 Y116.162 E3.23497
G1 X109.774 Y116.088 E3.23703
G1 X109.724 Y116.009 E3.23898
G1 X109.714 Y115.970 E3.23975
G1 X109.670 Y115.878 E3.24134
G1 X109.661 Y115.787 E3.24290
G1 X109.641 Y115.695 E3.24446
G1 X109.630 Y115.604 E3.24589
G1 X109.633 Y115.512 E3.24735
G1 X109.648 Y115.421 E3.24892
G1 X109.666 Y115.330 E3.25056
G0 X109.674 Y115.238 F7200
G1 X109.779 Y115.096 E3.25430 F719
G1 X109.840 Y115.028 E3.25625
G1 X109.861 Y114.992 E3.25726
G1 X109.953 Y114.981 E3.25961
G1 X110.001 Y114.956 E3.26096
G1 X110.085 Y115.002 E3.26334
G1 X110.168 Y115.047 E3.26550
G1 X110.232 Y115.113 E3.26732
G1 X110.287 Y115.187 E3.26904
G1 X110.339 Y115.238 E3.27005
G1 X110.328 Y115.330 E3.27167
G1 X110.353 Y115.421 E3.27324
G1 X110.372 Y115.512 E3.27465
G1 X110.362 Y115.604 E3.27609
G1 X110.350 Y115.695 E3.27762
G1 X110.338 Y115.787 E3.27923
G0 X110.346 Y115.878 F7200
G0 X110.290 Y115.970
G1 X110.134 Y116.260 E3.28747 F719
G1 X110.050 Y116.383 E3.29118
G0 X109.970 Y116.392 F7200
G0 X109.922 Y116.350
G0 X109.830 Y116.162
G0 X109.774 Y116.088
G0 X109.724 Y116.009
G0 X109.714 Y115.970
G0 X109.670 Y115.878
G0 X109.661 Y115.787
G0 X109.641 Y115.695
G0 X109.630 Y115.604
G0 X109.633 Y115.512
G0 X109.648 Y115.421
G0 X109.666 Y115.330
G0 X109.674 Y115.238
G0 X109.779 Y115.096
G0 X109.840 Y115.028
G0 X109.861 Y114.992
G0 X109.902 Y114.987
G0 F3000 E1.29118
G0 X109.902 Y114.987 F7200
G0 X109.897 Y115.018
G0 X109.953 Y114.981
G0 X109.861 Y114.992
G0 X109.840 Y115.028
G0 X109.779 Y115.096
G0 X109.674 Y115.238
G0 X109.666 Y115.330
G0 X109.648 Y115.421
G0 X109.633 Y115.512
G0 X109.630 Y115.604
G0 X109.641 Y115.695
G0 X109.661 Y115.787
G0 X109.670 Y115.878
G0 X109.714 Y115.970
G0 X109.723 Y116.007
G0 X109.723 Y116.007
G0 X109.724 Y116.009
G0 X109.774 Y116.088
G0 X109.953 Y116.195
G0 X109.365 Y118.233
G0 X109.135 Y119.032
G0 X109.284 Y118.513
G0 F3000 E4.29118
;segType:HShell
G1 X109.523 Y118.752 E4.30045 F959
G0 X110.089 Y118.752 F7200
G1 X109.850 Y118.513 E4.30972 F959
G0 X110.416 Y118.513 F7200
G1 X110.655 Y118.752 E4.31900 F959
G0 X111.002 Y118.534 F7200
G1 X110.982 Y118.513 E4.31980 F959
G0 X110.784 Y118.233 F7200
G0 X111.276 Y118.932
G0 X111.276 Y118.932
;segType:Loop
G1 X111.233 Y119.032 E4.32253 F1200
G1 X108.718 Y119.032 E4.38525
G1 X108.718 Y118.918 E4.38810
G1 X108.718 Y118.233 E4.40519
G1 X111.282 Y118.233 E4.46917
G1 X111.282 Y118.733 E4.48164
G0 X111.282 Y118.733 F7200
G0 X110.988 Y118.233
G0 X110.910 Y118.100
;segType:Perimeter
G1 X111.682 Y117.893 E4.50160 F719
G1 X111.682 Y119.078 E4.53116
G1 X111.791 Y119.170 E4.53470
G1 X111.791 Y119.432 E4.54125
G1 X108.209 Y119.432 E4.63060
G1 X108.209 Y119.170 E4.63715
G1 X108.318 Y119.078 E4.64069
G1 X108.318 Y117.833 E4.67175
G1 X111.622 Y117.833 E4.75418
G0 X111.682 Y117.893 F7200
G0 X111.682 Y119.078
G0 X111.791 Y119.170
G0 X111.791 Y119.432
G0 X111.781 Y119.432
; ------------------------------------
; Layer #21
; ------------------------------------
G92 E0 ;reset extr
G0 F3000 E-2.00000
G0 F600 Z3.400
G0 X111.719 Y119.197 F7200
G0 X111.622 Y119.078
G0 X111.622 Y118.819
G0 X111.366 Y117.833
G0 X108.378 Y117.833
G0 X109.100 Y109.100
G0 F3000 E1.00000
;segType:Support
G1 X110.900 Y109.100 E1.02919 F1200
G1 X110.900 Y110.900 E1.05837
G1 X109.100 Y110.900 E1.08756
G0 F3000 E-0.91244
G0 X110.003 Y113.204 F7200
G0 F3000 E2.08756
;segType:Loop
G1 X109.996 Y113.318 E2.08955 F1200
G1 X109.976 Y113.248 E2.09083
G1 X110.090 Y113.243 E2.09276
G1 X110.074 Y113.256 E2.09304
G0 X110.090 Y113.243 F7200
G0 X109.976 Y113.248
G0 X109.996 Y113.318
G0 X109.954 Y113.582
;segType:Perimeter
G1 X109.737 Y113.761 E2.10006 F719
G1 X109.595 Y113.748 E2.10538
G1 X109.538 Y113.821 E2.10860
G1 X109.496 Y113.894 E2.11071
G1 X109.404 Y113.922 E2.11315
G1 X109.313 Y113.990 E2.11532
G1 X109.221 Y114.020 E2.11680
G1 X109.220 Y114.020 E2.11681
G1 X109.312 Y113.982 E2.11903
G1 X109.384 Y113.925 E2.12143
G1 X109.455 Y113.868 E2.12417
G0 X109.538 Y113.821 F7200
G0 X109.595 Y113.748
G1 X109.612 Y113.485 E2.13076 F719
G1 X109.699 Y113.080 E2.14109
G1 X109.770 Y112.908 E2.14572
G1 X110.136 Y112.908 E2.15484
G1 X110.307 Y112.952 E2.15926
G1 X110.338 Y113.337 E2.16889
G1 X110.402 Y113.501 E2.17327
G1 X110.419 Y113.762 E2.18300
G1 X110.492 Y113.819 E2.18605
G1 X110.563 Y113.877 E2.18874
G1 X110.634 Y113.935 E2.19107
G1 X110.706 Y113.993 E2.19305
G1 X110.798 Y114.030 E2.19446
G1 X110.776 Y114.017 E2.19486
G1 X110.684 Y113.966 E2.19718
G1 X110.593 Y113.943 E2.19932
G1 X110.501 Y113.891 E2.20194
G1 X110.360 Y113.841 E2.20567
G1 X110.046 Y113.582 E2.21583
G0 X109.954 Y113.582 F7200
G0 X109.737 Y113.761
G0 X109.595 Y113.748
G0 X109.538 Y113.821
G0 X109.496 Y113.894
G0 X109.404 Y113.922
G0 X109.313 Y113.990
G0 X109.221 Y114.020
G0 X109.220 Y114.020
G0 X109.312 Y113.982
G0 X109.384 Y113.925
G0 X109.455 Y113.868
G0 X109.538 Y113.821
G0 X109.595 Y113.748
G0 X109.610 Y113.526
G0 F3000 E0.21583
G0 X109.638 Y113.752 F7200
G0 X109.737 Y113.761
G0 X109.953 Y114.763
G0 X109.824 Y114.847
G0 X109.826 Y114.864
G0 X109.742 Y114.930
G0 X109.699 Y115.016
G0 X109.657 Y115.147
G0 X109.640 Y115.238
G0 X109.638 Y115.330
G0 X109.640 Y115.421
G0 X109.657 Y115.512
G0 X109.735 Y115.739
G0 X109.912 Y115.929
G0 F3000 E3.21583
G1 X109.735 Y115.739 E3.22093 F719
G1 X109.657 Y115.512 E3.22466
G1 X109.640 Y115.421 E3.22601
G1 X109.638 Y115.330 E3.22742
G1 X109.640 Y115.238 E3.22894
G1 X109.657 Y115.147 E3.23044
G0 X109.699 Y115.016 F7200
G1 X109.742 Y114.930 E3.23232 F719
G1 X109.953 Y114.763 E3.23913
G1 X110.207 Y114.880 E3.24527
G1 X110.272 Y114.944 E3.24702
G1 X110.344 Y115.147 E3.25068
G1 X110.360 Y115.238 E3.25211
G1 X110.367 Y115.330 E3.25348
G1 X110.364 Y115.421 E3.25490
G0 X110.310 Y115.627 F7200
G1 X110.281 Y115.728 E3.25705 F719
G1 X110.231 Y115.807 E3.25901
G1 X110.165 Y115.870 E3.26121
G1 X110.007 Y115.947 E3.26229
G0 X109.912 Y115.929 F7200
G0 X109.735 Y115.739
G0 X109.657 Y115.512
G0 X109.640 Y115.421
G0 X109.638 Y115.330
G0 X109.640 Y115.238
G0 X109.657 Y115.147
G0 X109.699 Y115.016
G0 X109.742 Y114.930
G0 X109.953 Y114.763
G0 X110.161 Y114.859
G0 X110.207 Y114.880
G0 X110.187 Y114.770
G0 X110.183 Y114.770
G0 X110.161 Y114.859
G0 X109.953 Y114.763
G0 X109.742 Y114.930
G0 X109.699 Y115.016
G0 X109.657 Y115.147
G0 X109.640 Y115.238
G0 X109.638 Y115.330
G0 X109.640 Y115.421
G0 X109.657 Y115.512
G0 X109.735 Y115.739
G0 X109.902 Y115.919
G0 X109.891 Y115.966
G1 X109.840 Y115.893 E3.26461 F719
G1 X109.777 Y115.826 E3.26647
G0 X109.735 Y115.739 F7200
G1 X109.683 Y115.662 E3.26810 F719
G1 X109.669 Y115.604 E3.26905
G0 X109.657 Y115.512 F7200
G0 X109.640 Y115.421
G0 X109.638 Y115.330
G0 X109.640 Y115.238
G0 X109.657 Y115.147
G1 X109.681 Y115.055 E3.27059 F719
G1 X109.682 Y114.964 E3.27185
G0 X109.742 Y114.930 F7200
G1 X109.802 Y114.861 E3.27372 F719
G0 X109.953 Y114.763 F7200
G0 X110.044 Y114.757
G1 X110.046 Y114.782 E3.27434 F719
G1 X110.187 Y114.770 E3.27636
G0 X110.207 Y114.880 F7200
G0 X110.272 Y114.944
G1 X110.288 Y114.964 E3.27683 F719
G1 X110.361 Y115.055 E3.27829
G0 X110.344 Y115.147 F7200
G0 X110.360 Y115.238
G0 X110.367 Y115.330
G0 X110.364 Y115.421
G1 X110.352 Y115.512 E3.27978 F719
G1 X110.318 Y115.604 E3.28149
G1 X110.327 Y115.695 E3.28277
G0 X110.281 Y115.728 F7200
G0 X110.231 Y115.807
G0 X110.165 Y115.870
G1 X110.075 Y116.010 E3.28691 F719
G1 X109.985 Y116.013 E3.28917
G0 X109.891 Y115.966 F7200
G0 X109.840 Y115.893
G0 X109.777 Y115.826
G0 X109.735 Y115.739
G0 X109.683 Y115.662
G0 X109.669 Y115.604
G0 X109.657 Y115.512
G0 X109.640 Y115.421
G0 X109.638 Y115.330
G0 X109.640 Y115.238
G0 X109.657 Y115.147
G0 X109.681 Y115.055
G0 X109.682 Y114.964
G0 X109.742 Y114.930
G0 X109.802 Y114.861
G0 X109.953 Y114.763
G0 X110.044 Y114.757
G0 X110.046 Y114.782
G0 X110.112 Y114.776
G0 F3000 E1.28917
G0 X110.104 Y114.832 F7200
G0 X109.953 Y114.763
G0 X109.742 Y114.930
G0 X109.699 Y115.016
G0 X109.657 Y115.147
G0 X109.640 Y115.238
G0 X109.638 Y115.330
G0 X109.640 Y115.421
G0 X109.657 Y115.512
G0 X109.735 Y115.739
G0 X109.939 Y115.958
G0 X109.930 Y116.015
G0 X109.925 Y116.015
G0 X109.564 Y118.513
G0 F3000 E4.28917
;segType:HShell
G1 X109.325 Y118.752 E4.29844 F959
G0 X109.890 Y118.752 F7200
G1 X110.129 Y118.513 E4.30772 F959
G0 X110.695 Y118.513 F7200
G1 X110.456 Y118.752 E4.31699 F959
G0 X111.118 Y119.032 F7200
;segType:Loop
G1 X108.833 Y119.032 E4.37401 F1200
G1 X108.778 Y118.918 E4.37716
G1 X108.778 Y118.233 E4.39425
G1 X111.222 Y118.233 E4.45520
G1 X111.222 Y118.918 E4.47229
G1 X111.118 Y119.032 E4.47613
G0 X110.887 Y118.233 F7200
G0 X110.849 Y118.100
;segType:Perimeter
G1 X111.622 Y117.893 E4.49608 F719
G1 X111.622 Y119.078 E4.52565
G1 X111.873 Y119.382 E4.53794
G1 X112.056 Y119.382 E4.54363
G0 X111.873 Y119.382 F7200
G1 X111.781 Y119.432 E4.54623 F719
G1 X108.307 Y119.432 E4.63290
G1 X108.124 Y119.382 E4.63880
G1 X107.941 Y119.382 E4.64449
G0 X108.124 Y119.382 F7200
G1 X108.378 Y119.078 E4.65438 F719
G1 X108.378 Y117.833 E4.68545
G1 X111.562 Y117.833 E4.76485
G0 X111.622 Y117.893 F7200
G0 X111.622 Y119.078
G0 X111.873 Y119.382
G0 X111.893 Y119.382
; ------------------------------------
; Layer #22
; ------------------------------------
G92 E0 ;reset extr
G0 F3000 E-2.00000
G0 F600 Z3.550
G0 X111.893 Y119.382 F7200
G0 X111.781 Y119.382
G0 X111.546 Y119.078
G0 X111.546 Y118.104
G0 X111.472 Y117.833
G0 X108.454 Y117.833
G0 X109.100 Y109.100
G0 F3000 E1.00000
;segType:Support
G1 X110.900 Y109.100 E1.02919 F1200
G1 X110.900 Y110.900 E1.05837
G1 X109.100 Y110.900 E1.08756
G0 F3000 E-0.91244
G0 X109.998 Y113.090 F7200
G0 X109.984 Y113.176
G0 X109.995 Y113.204
G0 X110.006 Y113.231
G0 X110.047 Y113.339
G0 X110.090 Y113.238
G0 X109.976 Y113.229
G0 X109.995 Y113.204
G0 F3000 E2.08756
;segType:Loop
G0 X109.998 Y113.090 F7200
G0 X110.090 Y113.238
G0 X109.976 Y113.229
G1 X109.998 Y113.090 E2.08934 F1200
G1 X109.995 Y113.204 E2.09083
G0 X109.999 Y113.318 F7200
G0 X110.008 Y113.432
G1 X109.976 Y113.229 E2.09791 F1200
G1 X110.090 Y113.238 E2.10197
G1 X110.008 Y113.432 E2.10542
G1 X109.999 Y113.318 E2.10707
G0 X109.995 Y113.350 F7200
G0 X110.008 Y113.432
G0 X109.942 Y113.731
;segType:Perimeter
G1 X109.735 Y113.788 E2.11244 F719
G1 X109.437 Y113.849 E2.11773
G1 X109.517 Y113.800 E2.11994
G1 X109.620 Y113.592 E2.12572
G1 X109.678 Y113.413 E2.13043
G1 X109.700 Y113.213 E2.13544
G1 X109.710 Y112.861 E2.14423
G1 X109.770 Y112.754 E2.14730
G1 X110.227 Y112.754 E2.15870
G1 X110.300 Y112.861 E2.16193
G1 X110.300 Y113.212 E2.17069
G1 X110.330 Y113.448 E2.17663
G1 X110.381 Y113.592 E2.18044
G1 X110.500 Y113.811 E2.18595
G1 X110.580 Y113.860 E2.18746
G1 X110.527 Y113.788 E2.18969
G1 X110.269 Y113.788 E2.19613
G1 X110.058 Y113.731 E2.20158
G0 X109.942 Y113.731 F7200
G0 X109.735 Y113.788
G0 X109.437 Y113.849
G0 X109.517 Y113.800
G0 X109.620 Y113.592
G0 X109.678 Y113.413
G0 X109.700 Y113.213
G0 X109.710 Y112.861
G0 X109.716 Y112.849
G0 F3000 E0.20158
G0 X109.716 Y112.849 F7200
G0 X109.908 Y113.740
G0 X110.000 Y113.715
G0 X110.269 Y113.788
G0 X110.044 Y114.581
G0 X110.194 Y114.633
G0 X110.247 Y114.711
G0 X110.275 Y114.752
G0 X110.275 Y114.772
G0 X110.321 Y114.872
G0 X110.341 Y114.964
G0 X110.361 Y115.055
G0 X110.373 Y115.147
G0 X110.357 Y115.238
G0 X110.349 Y115.330
G0 X110.305 Y115.421
G0 X110.279 Y115.445
G0 X110.280 Y115.467
G0 F3000 E3.20158
G1 X110.234 Y115.551 E3.20350 F719
G1 X110.089 Y115.678 E3.20442
G0 X109.989 Y115.694 F7200
G0 X109.842 Y115.633
G0 X109.775 Y115.570
G0 X109.726 Y115.490
G0 X109.680 Y115.407
G0 X109.639 Y115.238
G0 X109.628 Y115.147
G0 X109.632 Y115.055
G0 X109.671 Y114.859
G0 X109.715 Y114.774
G0 X109.769 Y114.699
G0 X109.953 Y114.577
G0 X110.044 Y114.581
G0 X110.130 Y114.636
G0 X110.247 Y114.711
G0 X110.321 Y114.872
G0 X110.361 Y115.055
G0 X110.373 Y115.147
G0 X110.357 Y115.238
G0 X110.280 Y115.467
G0 X110.234 Y115.551
G0 X110.123 Y115.648
G0 X110.123 Y115.660
G1 X110.039 Y115.744 E3.20737 F719
G1 X109.842 Y115.633 E3.21297
G1 X109.775 Y115.570 E3.21489
G1 X109.726 Y115.490 E3.21672
G1 X109.680 Y115.407 E3.21848
G1 X109.693 Y115.421 E3.21884
G1 X109.654 Y115.330 E3.22041
G1 X109.639 Y115.238 E3.22191
G1 X109.628 Y115.147 E3.22329
G1 X109.632 Y115.055 E3.22474
G1 X109.637 Y114.964 E3.22613
G1 X109.669 Y114.872 E3.22778
G1 X109.671 Y114.859 E3.22802
G1 X109.715 Y114.774 E3.22974
G1 X109.769 Y114.699 E3.23157
G1 X109.819 Y114.619 E3.23332
G1 X109.953 Y114.577 E3.23672
G1 X110.044 Y114.581 E3.23891
G1 X110.194 Y114.633 E3.24174
G1 X110.247 Y114.711 E3.24361
G0 X110.299 Y114.787 F7200
G0 X110.334 Y114.882
G0 X110.307 Y114.781
G1 X110.321 Y114.872 E3.24523 F719
G1 X110.341 Y114.964 E3.24679
G1 X110.361 Y115.055 E3.24827
G1 X110.373 Y115.147 E3.24969
G1 X110.357 Y115.238 E3.25117
G0 X110.349 Y115.330 F7200
G0 X110.305 Y115.421
G1 X110.207 Y115.512 E3.25451 F719
G1 X110.187 Y115.562 E3.25586
G0 X110.123 Y115.660 F7200
G0 X110.039 Y115.744
G0 X109.842 Y115.633
G0 X109.775 Y115.570
G0 X109.726 Y115.490
G0 X109.680 Y115.407
G0 X109.693 Y115.421
G0 X109.654 Y115.330
G0 X109.639 Y115.238
G0 X109.628 Y115.147
G0 X109.632 Y115.055
G0 X109.637 Y114.964
G0 X109.669 Y114.872
G0 X109.671 Y114.859
G0 X109.715 Y114.774
G0 X109.769 Y114.699
G0 X109.819 Y114.619
G0 X109.909 Y114.591
G0 F3000 E1.25586
G0 X109.909 Y114.591 F7200
G0 X109.907 Y114.607
G0 X109.769 Y114.699
G0 X109.715 Y114.774
G0 X109.671 Y114.859
G0 X109.632 Y115.055
G0 X109.628 Y115.147
G0 X109.639 Y115.238
G0 X109.680 Y115.407
G0 X109.726 Y115.490
G0 X109.775 Y115.570
G0 X109.811 Y115.604
G0 X109.842 Y115.633
G0 X110.044 Y115.717
G0 X109.669 Y117.833
G0 X109.386 Y119.432
G0 X109.509 Y118.737
G0 F3000 E4.25586
;segType:HShell
G1 X109.284 Y118.513 E4.26457 F959
G0 X109.523 Y118.752 F7200
G0 X109.360 Y118.871
G1 X109.850 Y118.513 E4.28123 F959
G1 X110.589 Y118.686 E4.30204
G0 X110.416 Y118.513 F7200
G0 X110.037 Y118.233 F7200
G0 X111.118 Y119.032
G0 X111.118 Y119.032
;segType:Loop
G1 X108.947 Y119.032 E4.35621 F1200
G1 X108.854 Y118.918 E4.35988
G1 X108.854 Y118.233 E4.37697
G1 X111.146 Y118.233 E4.43414
G1 X111.146 Y118.918 E4.45123
G1 X111.118 Y119.032 E4.45415
G0 X111.267 Y119.432 F7200
G0 X110.674 Y117.833
G0 X110.773 Y118.100
;segType:Perimeter
G1 X111.546 Y117.893 E4.47411 F719
G1 X111.546 Y119.078 E4.50368
G1 X111.781 Y119.382 E4.51566
G1 X112.238 Y119.382 E4.52990
G0 X111.781 Y119.382 F7200
G1 X111.690 Y119.432 E4.53249 F719
G1 X108.398 Y119.432 E4.61460
G1 X108.216 Y119.382 E4.62050
G1 X107.758 Y119.382 E4.63474
G0 X108.216 Y119.382 F7200
G1 X108.454 Y119.078 E4.64438 F719
G1 X108.454 Y117.833 E4.67545
G1 X111.486 Y117.833 E4.75107
G0 X111.546 Y117.893 F7200
G0 X111.546 Y119.078
G0 X111.781 Y119.382
G0 X111.811 Y119.382
; ------------------------------------
; Layer #23
; ------------------------------------
G92 E0 ;reset extr
G0 F3000 E-2.00000
G0 F600 Z3.700
G0 X111.690 Y119.382 F7200
G0 X111.453 Y119.078
G0 X111.453 Y118.132
G0 X111.367 Y117.833
G0 X110.318 Y113.634
